; #disp params :
; Printmode:0
; Layer:24
; Xmin:154.7 mm
; Xmax:170.3 mm
; XDimension:15.6 mm
; Ymin:96.201 mm
; Ymax:103.8 mm
; YDimension:7.59901 mm
; Zmax:4.8 mm
; E0diam:0.4 mm
; E0len:0.132191 m
; E0temp:215 C
; Bedtemp:215 C
; Time:2.1162 min
; #params end
; GCode generated by CraftWare

G28 X Y ; home horizontally
G28 Z ; home vertically


M104 S215 ;set head temp (no wait)
M190 S70 ;set bed temp (wait)
M109 S215 ;set head temp (wait)
; ------------------------------------
; Layer #0
; ------------------------------------
M106 S0 ;turn off fan
G21 ; mm
G90 ; abs
G92 E0 ;reset extr
G0 F600 Z0.200
;segType:HShell
G0 F3000 E-1.00000
G0 X162.926 Y99.553 F5400
G0 F3000 E0.00000
G1 X162.948 Y99.574 E0.00101 F2400
G0 X163.062 Y100.254 F5400
G1 X162.246 Y99.438 E0.03942 F2400
G0 X161.958 Y99.716 F5400
G1 X162.784 Y100.542 E0.07829 F2400
G0 X162.224 Y100.548 F5400
G1 X161.952 Y100.276 E0.09110 F2400
G0 F3000 E-0.90890
G0 X161.885 Y99.246 F5400
G0 F3000 E0.09110
;segType:Loop
G1 X162.122 Y99.087 E0.10060 F2400
G1 X162.500 Y99.012 E0.11342
G1 X162.878 Y99.087 E0.12624
G1 X163.199 Y99.302 E0.13906
G1 X163.413 Y99.622 E0.15188
G1 X163.488 Y100.000 E0.16470
G1 X163.413 Y100.378 E0.17752
G1 X163.199 Y100.698 E0.19034
G1 X162.878 Y100.913 E0.20316
G1 X162.500 Y100.988 E0.21598
G1 X162.122 Y100.913 E0.22880
G1 X161.802 Y100.699 E0.24162
G1 X161.587 Y100.378 E0.25443
G1 X161.512 Y100.000 E0.26726
G1 X161.587 Y99.622 E0.28008
G0 X161.533 Y100.104 F5400
G0 X161.587 Y100.378
G0 X161.470 Y100.659
;segType:Perimeter
G1 X161.116 Y99.941 E0.30668 F1439
G1 X161.211 Y99.466 E0.32280
G1 X161.513 Y99.013 E0.34091
G1 X161.966 Y98.711 E0.35902
G1 X162.500 Y98.604 E0.37714
G1 X163.034 Y98.711 E0.39525
G1 X163.487 Y99.013 E0.41336
G1 X163.790 Y99.466 E0.43147
G1 X163.896 Y100.000 E0.44959
G1 X163.790 Y100.534 E0.46770
G1 X163.487 Y100.987 E0.48581
G1 X163.034 Y101.289 E0.50392
G1 X162.500 Y101.396 E0.52204
G1 X161.966 Y101.289 E0.54016
G1 X161.513 Y100.987 E0.55826
G1 X161.211 Y100.534 E0.57637
G1 X161.116 Y100.059 E0.59249
G0 X161.116 Y99.941 F5400
G0 X161.211 Y99.466
G0 X161.513 Y99.013
G0 X161.966 Y98.711
G0 X161.992 Y98.706
G0 F3000 E-0.40751
G0 X161.966 Y98.711 F5400
G0 X161.513 Y99.013
G0 X161.211 Y99.466
G0 X156.554 Y97.000
G0 X155.800 Y96.601
G0 X155.800 Y96.601
G0 F3000 E0.59249
;segType:Loop
G1 X169.900 Y96.601 E1.06144 F2400
G1 X169.900 Y103.400 E1.28757
G1 X155.100 Y103.400 E1.77980
G1 X155.100 Y96.601 E2.00593
G1 X155.600 Y96.601 E2.02256
G0 X155.600 Y96.601 F5400
G0 X155.100 Y96.895
G0 X154.967 Y96.973
;segType:Perimeter
G1 X154.760 Y96.201 E2.04917 F1439
G1 X170.300 Y96.201 E2.56601
G1 X170.300 Y103.800 E2.81875
G1 X154.700 Y103.800 E3.33758
G1 X154.700 Y96.261 E3.58833
G0 X154.760 Y96.201 F5400
G0 X156.360 Y96.201
G0 F3000 E2.58833
G0 X157.045 Y96.601 F5400
G0 X157.728 Y97.000
G0 X169.500 Y97.000
G0 X169.500 Y103.000
G0 X168.000 Y103.000
G0 F3000 E3.58833
;segType:Loop
G1 X155.500 Y103.000 E4.00411 F2400
G1 X155.500 Y97.000 E4.20370
G1 X169.500 Y97.000 E4.66937
G1 X169.500 Y103.000 E4.86896
G1 X168.200 Y103.000 E4.91220
G0 F3000 E3.91220
G0 X169.040 Y102.600 F5400
G0 F3000 E4.91220
;segType:Perimeter
G1 X155.900 Y102.600 E5.34926 F1439
G1 X155.900 Y97.400 E5.52225
G1 X169.100 Y97.400 E5.96130
G1 X169.100 Y102.540 E6.13229
G0 X169.040 Y102.600 F5400
G0 X167.440 Y102.600
; ------------------------------------
; Layer #1
; ------------------------------------
M106 S255 ;set fan speed
G92 E0 ;reset extr
G0 F3000 E-1.00000
G0 F600 Z0.400
G0 X163.413 Y100.378 F7200
G0 X163.318 Y100.519
G0 X161.583 Y99.643
G0 X161.917 Y99.812
G0 F3000 E0.00000
;segType:HShell
G1 X162.312 Y99.417 E0.01857 F2366
G0 X161.979 Y100.315 F7200
G1 X162.815 Y99.479 E0.05793 F2366
G0 X163.077 Y99.782 F7200
G1 X162.282 Y100.577 E0.09532 F2366
G0 X162.399 Y100.968 F7200
G0 X161.885 Y99.246
;segType:Loop
G1 X162.122 Y99.087 E0.10481 F2366
G1 X162.500 Y99.012 E0.11764
G1 X162.878 Y99.087 E0.13046
G1 X163.199 Y99.302 E0.14328
G1 X163.413 Y99.622 E0.15609
G1 X163.488 Y100.000 E0.16892
G1 X163.413 Y100.378 E0.18174
G1 X163.199 Y100.698 E0.19455
G1 X162.878 Y100.913 E0.20737
G1 X162.500 Y100.988 E0.22020
G1 X162.122 Y100.913 E0.23302
G1 X161.802 Y100.699 E0.24583
G1 X161.587 Y100.378 E0.25865
G1 X161.512 Y100.000 E0.27147
G1 X161.587 Y99.622 E0.28429
G0 X161.533 Y100.104 F7200
G0 X161.587 Y100.378
G0 X161.470 Y100.659
;segType:Perimeter
G1 X161.116 Y99.941 E0.31090 F1419
G1 X161.211 Y99.466 E0.32702
G1 X161.513 Y99.013 E0.34513
G1 X161.966 Y98.711 E0.36324
G1 X162.500 Y98.604 E0.38136
G1 X163.034 Y98.711 E0.39947
G1 X163.487 Y99.013 E0.41758
G1 X163.790 Y99.466 E0.43569
G1 X163.896 Y100.000 E0.45381
G1 X163.790 Y100.534 E0.47192
G1 X163.487 Y100.987 E0.49003
G1 X163.034 Y101.289 E0.50814
G1 X162.500 Y101.396 E0.52626
G1 X161.966 Y101.289 E0.54437
G1 X161.513 Y100.987 E0.56248
G1 X161.211 Y100.534 E0.58059
G1 X161.116 Y100.059 E0.59671
G0 X161.116 Y99.941 F7200
G0 X161.211 Y99.466
G0 X161.513 Y99.013
G0 X161.966 Y98.711
G0 X161.992 Y98.706
G0 F3000 E-0.40329
G0 X161.966 Y98.711 F7200
G0 X161.513 Y99.013
G0 X161.211 Y99.466
G0 X155.800 Y96.601
G0 F3000 E0.59671
;segType:Loop
G1 X169.900 Y96.601 E1.06565 F3600
G1 X169.900 Y103.400 E1.29179
G1 X155.100 Y103.400 E1.78401
G1 X155.100 Y96.601 E2.01015
G1 X155.600 Y96.601 E2.02678
G0 X155.600 Y96.601 F7200
G0 X155.100 Y96.895
G0 X154.967 Y96.973
;segType:Perimeter
G1 X154.760 Y96.201 E2.05339 F2159
G1 X170.300 Y96.201 E2.57022
G1 X170.300 Y103.800 E2.82297
G1 X154.700 Y103.800 E3.34180
G1 X154.700 Y96.261 E3.59255
G0 X154.760 Y96.201 F7200
G0 X156.360 Y96.201
G0 F3000 E2.59255
G0 X157.045 Y96.601 F7200
G0 X157.728 Y97.000
G0 X169.500 Y97.000
G0 X169.500 Y103.000
G0 X168.000 Y103.000
G0 F3000 E3.59255
;segType:Loop
G1 X155.500 Y103.000 E4.00833 F3600
G1 X155.500 Y97.000 E4.20792
G1 X169.500 Y97.000 E4.67359
G1 X169.500 Y103.000 E4.87318
G1 X168.200 Y103.000 E4.91642
G0 F3000 E3.91642
G0 X169.040 Y102.600 F7200
G0 F3000 E4.91642
;segType:Perimeter
G1 X155.900 Y102.600 E5.35348 F2159
G1 X155.900 Y97.400 E5.52646
G1 X169.100 Y97.400 E5.96552
G1 X169.100 Y102.540 E6.13651
G0 X169.040 Y102.600 F7200
G0 X167.440 Y102.600
; ------------------------------------
; Layer #2
; ------------------------------------
G92 E0 ;reset extr
G0 F3000 E-1.00000
G0 F600 Z0.600
G0 X163.413 Y100.378 F7200
G0 X163.488 Y100.000
G0 X162.948 Y99.574
G0 F3000 E0.00000
;segType:HShell
G1 X162.926 Y99.553 E0.00101 F2373
G0 X163.062 Y100.254 F7200
G1 X162.246 Y99.438 E0.03942 F2373
G0 X161.958 Y99.716 F7200
G1 X162.784 Y100.542 E0.07829 F2373
G0 X161.952 Y100.276 F7200
G1 X162.224 Y100.548 E0.09111 F2373
G0 X162.330 Y100.954 F7200
G0 X161.885 Y99.246
;segType:Loop
G1 X162.122 Y99.087 E0.10060 F2373
G1 X162.500 Y99.012 E0.11342
G1 X162.878 Y99.087 E0.12624
G1 X163.199 Y99.302 E0.13906
G1 X163.413 Y99.622 E0.15188
G1 X163.488 Y100.000 E0.16470
G1 X163.413 Y100.378 E0.17752
G1 X163.199 Y100.698 E0.19034
G1 X162.878 Y100.913 E0.20316
G1 X162.500 Y100.988 E0.21598
G1 X162.122 Y100.913 E0.22880
G1 X161.802 Y100.699 E0.24162
G1 X161.587 Y100.378 E0.25443
G1 X161.512 Y100.000 E0.26726
G1 X161.587 Y99.622 E0.28008
G0 X161.533 Y100.104 F7200
G0 X161.587 Y100.378
G0 X161.470 Y100.659
;segType:Perimeter
G1 X161.116 Y99.941 E0.30669 F1423
G1 X161.211 Y99.466 E0.32281
G1 X161.513 Y99.013 E0.34091
G1 X161.966 Y98.711 E0.35902
G1 X162.500 Y98.604 E0.37714
G1 X163.034 Y98.711 E0.39525
G1 X163.487 Y99.013 E0.41336
G1 X163.790 Y99.466 E0.43147
G1 X163.896 Y100.000 E0.44959
G1 X163.790 Y100.534 E0.46770
G1 X163.487 Y100.987 E0.48581
G1 X163.034 Y101.289 E0.50392
G1 X162.500 Y101.396 E0.52204
G1 X161.966 Y101.289 E0.54016
G1 X161.513 Y100.987 E0.55826
G1 X161.211 Y100.534 E0.57637
G1 X161.116 Y100.059 E0.59249
G0 X161.116 Y99.941 F7200
G0 X161.211 Y99.466
G0 X161.513 Y99.013
G0 X161.966 Y98.711
G0 X161.992 Y98.706
G0 F3000 E-0.40751
G0 X161.966 Y98.711 F7200
G0 X161.513 Y99.013
G0 X161.211 Y99.466
G0 X156.554 Y97.000
G0 X155.800 Y96.601
G0 X155.800 Y96.601
G0 F3000 E0.59249
;segType:Loop
G1 X169.900 Y96.601 E1.06144 F3600
G1 X169.900 Y103.400 E1.28757
G1 X155.100 Y103.400 E1.77980
G1 X155.100 Y96.601 E2.00593
G1 X155.600 Y96.601 E2.02256
G0 X155.600 Y96.601 F7200
G0 X155.100 Y96.895
G0 X154.967 Y96.973
;segType:Perimeter
G1 X154.760 Y96.201 E2.04917 F2159
G1 X170.300 Y96.201 E2.56601
G1 X170.300 Y103.800 E2.81875
G1 X154.700 Y103.800 E3.33758
G1 X154.700 Y96.261 E3.58833
G0 X154.760 Y96.201 F7200
G0 X156.360 Y96.201
G0 F3000 E2.58833
G0 X157.045 Y96.601 F7200
G0 X157.728 Y97.000
G0 X169.500 Y97.000
G0 X169.500 Y103.000
G0 X168.000 Y103.000
G0 F3000 E3.58833
;segType:Loop
G1 X155.500 Y103.000 E4.00411 F3600
G1 X155.500 Y97.000 E4.20370
G1 X169.500 Y97.000 E4.66937
G1 X169.500 Y103.000 E4.86896
G1 X168.200 Y103.000 E4.91220
G0 F3000 E3.91220
G0 X169.040 Y102.600 F7200
G0 F3000 E4.91220
;segType:Perimeter
G1 X155.900 Y102.600 E5.34926 F2159
G1 X155.900 Y97.400 E5.52225
G1 X169.100 Y97.400 E5.96130
G1 X169.100 Y102.540 E6.13229
G0 X169.040 Y102.600 F7200
G0 X167.440 Y102.600
; ------------------------------------
; Layer #3
; ------------------------------------
G92 E0 ;reset extr
G0 F3000 E-1.00000
G0 F600 Z0.800
G0 X163.413 Y100.378 F7200
G0 X163.450 Y100.191
G0 X161.885 Y99.246
G0 F3000 E0.00000
;segType:Loop
G1 X162.122 Y99.087 E0.00949 F1989
G1 X162.500 Y99.012 E0.02231
G1 X162.878 Y99.087 E0.03513
G1 X163.199 Y99.302 E0.04795
G1 X163.413 Y99.622 E0.06077
G1 X163.488 Y100.000 E0.07359
G1 X163.413 Y100.378 E0.08641
G1 X163.199 Y100.698 E0.09923
G1 X162.878 Y100.913 E0.11205
G1 X162.500 Y100.988 E0.12487
G1 X162.122 Y100.913 E0.13769
G1 X161.802 Y100.699 E0.15051
G1 X161.587 Y100.378 E0.16333
G1 X161.512 Y100.000 E0.17615
G1 X161.587 Y99.622 E0.18897
G0 X161.533 Y100.104 F7200
G0 X161.587 Y100.378
G0 X161.470 Y100.659
;segType:Perimeter
G1 X161.116 Y99.941 E0.21558 F1193
G1 X161.211 Y99.466 E0.23170
G1 X161.513 Y99.013 E0.24981
G1 X161.966 Y98.711 E0.26792
G1 X162.500 Y98.604 E0.28603
G1 X163.034 Y98.711 E0.30415
G1 X163.487 Y99.013 E0.32226
G1 X163.790 Y99.466 E0.34037
G1 X163.896 Y100.000 E0.35848
G1 X163.790 Y100.534 E0.37660
G1 X163.487 Y100.987 E0.39471
G1 X163.034 Y101.289 E0.41282
G1 X162.500 Y101.396 E0.43093
G1 X161.966 Y101.289 E0.44905
G1 X161.513 Y100.987 E0.46716
G1 X161.211 Y100.534 E0.48527
G1 X161.116 Y100.059 E0.50139
G0 X161.116 Y99.941 F7200
G0 X161.211 Y99.466
G0 X161.513 Y99.013
G0 X161.966 Y98.711
G0 X161.992 Y98.706
G0 F3000 E-0.49861
G0 X161.966 Y98.711 F7200
G0 X161.513 Y99.013
G0 X161.211 Y99.466
G0 X156.554 Y97.000
G0 X155.800 Y96.601
G0 X155.800 Y96.601
G0 F3000 E0.50139
;segType:Loop
G1 X169.900 Y96.601 E0.97033 F3600
G1 X169.900 Y103.400 E1.19647
G1 X155.100 Y103.400 E1.68869
G1 X155.100 Y96.601 E1.91483
G1 X155.600 Y96.601 E1.93146
G0 X155.600 Y96.601 F7200
G0 X155.100 Y96.895
G0 X154.967 Y96.973
;segType:Perimeter
G1 X154.760 Y96.201 E1.95806 F2159
G1 X170.300 Y96.201 E2.47490
G1 X170.300 Y103.800 E2.72765
G1 X154.700 Y103.800 E3.24648
G1 X154.700 Y96.261 E3.49723
G0 X154.760 Y96.201 F7200
G0 X156.360 Y96.201
G0 F3000 E2.49723
G0 X157.045 Y96.601 F7200
G0 X157.728 Y97.000
G0 X169.500 Y97.000
G0 X169.500 Y103.000
G0 X168.000 Y103.000
G0 F3000 E3.49723
;segType:Loop
G1 X155.500 Y103.000 E3.91300 F3600
G1 X155.500 Y97.000 E4.11260
G1 X169.500 Y97.000 E4.57826
G1 X169.500 Y103.000 E4.77786
G1 X168.200 Y103.000 E4.82109
G0 F3000 E3.82109
G0 X169.040 Y102.600 F7200
G0 F3000 E4.82109
;segType:Perimeter
G1 X155.900 Y102.600 E5.25816 F2159
G1 X155.900 Y97.400 E5.43114
G1 X169.100 Y97.400 E5.87020
G1 X169.100 Y102.540 E6.04119
G0 X169.040 Y102.600 F7200
G0 X167.440 Y102.600
; ------------------------------------
; Layer #4
; ------------------------------------
G92 E0 ;reset extr
G0 F3000 E-1.00000
G0 F600 Z1.000
G0 X163.413 Y100.378 F7200
G0 X163.199 Y100.698
G0 X163.102 Y100.763
G0 X161.532 Y100.097
G0 X161.587 Y100.378
G0 X161.952 Y100.276
G0 F3000 E0.00000
;segType:Infill
G1 X162.224 Y100.548 E0.01537 F2596
G0 X162.330 Y100.954 F7200
G0 X161.885 Y99.246
;segType:Loop
G1 X162.122 Y99.087 E0.02486 F2077
G1 X162.500 Y99.012 E0.03769
G1 X162.878 Y99.087 E0.05051
G1 X163.199 Y99.302 E0.06333
G1 X163.413 Y99.622 E0.07615
G1 X163.488 Y100.000 E0.08897
G1 X163.413 Y100.378 E0.10179
G1 X163.199 Y100.698 E0.11460
G1 X162.878 Y100.913 E0.12742
G1 X162.500 Y100.988 E0.14025
G1 X162.122 Y100.913 E0.15307
G1 X161.802 Y100.699 E0.16589
G1 X161.587 Y100.378 E0.17870
G1 X161.512 Y100.000 E0.19152
G1 X161.587 Y99.622 E0.20435
G0 X161.533 Y100.104 F7200
G0 X161.587 Y100.378
G0 X161.470 Y100.659
;segType:Perimeter
G1 X161.116 Y99.941 E0.23095 F1246
G1 X161.211 Y99.466 E0.24707
G1 X161.513 Y99.013 E0.26518
G1 X161.966 Y98.711 E0.28329
G1 X162.500 Y98.604 E0.30141
G1 X163.034 Y98.711 E0.31952
G1 X163.487 Y99.013 E0.33763
G1 X163.790 Y99.466 E0.35574
G1 X163.896 Y100.000 E0.37386
G1 X163.790 Y100.534 E0.39197
G1 X163.487 Y100.987 E0.41008
G1 X163.034 Y101.289 E0.42819
G1 X162.500 Y101.396 E0.44631
G1 X161.966 Y101.289 E0.46442
G1 X161.513 Y100.987 E0.48253
G1 X161.211 Y100.534 E0.50064
G1 X161.116 Y100.059 E0.51676
G0 X161.116 Y99.941 F7200
G0 X161.211 Y99.466
G0 X161.513 Y99.013
G0 X161.966 Y98.711
G0 X161.992 Y98.706
G0 F3000 E-0.48324
G0 X161.966 Y98.711 F7200
G0 X161.513 Y99.013
G0 X161.211 Y99.466
G0 X155.800 Y96.601
G0 F3000 E0.51676
;segType:Loop
G1 X169.900 Y96.601 E0.98570 F3600
G1 X169.900 Y103.400 E1.21184
G1 X155.100 Y103.400 E1.70406
G1 X155.100 Y96.601 E1.93020
G1 X155.600 Y96.601 E1.94683
G0 X155.600 Y96.601 F7200
G0 X155.100 Y96.895
G0 X154.967 Y96.973
;segType:Perimeter
G1 X154.760 Y96.201 E1.97344 F2159
G1 X170.300 Y96.201 E2.49028
G1 X170.300 Y103.800 E2.74302
G1 X154.700 Y103.800 E3.26185
G1 X154.700 Y96.261 E3.51260
G0 X154.760 Y96.201 F7200
G0 X156.360 Y96.201
G0 F3000 E2.51260
G0 X157.045 Y96.601 F7200
G0 X157.728 Y97.000
G0 X169.500 Y97.000
G0 X169.500 Y103.000
G0 X168.000 Y103.000
G0 F3000 E3.51260
;segType:Loop
G1 X155.500 Y103.000 E3.92838 F3600
G1 X155.500 Y97.000 E4.12797
G1 X169.500 Y97.000 E4.59364
G1 X169.500 Y103.000 E4.79323
G1 X168.200 Y103.000 E4.83647
G0 F3000 E3.83647
G0 X169.040 Y102.600 F7200
G0 F3000 E4.83647
;segType:Perimeter
G1 X155.900 Y102.600 E5.27353 F2159
G1 X155.900 Y97.400 E5.44651
G1 X169.100 Y97.400 E5.88557
G1 X169.100 Y102.540 E6.05656
G0 X169.040 Y102.600 F7200
G0 X167.440 Y102.600
; ------------------------------------
; Layer #5
; ------------------------------------
G92 E0 ;reset extr
G0 F3000 E-1.00000
G0 F600 Z1.200
G0 X163.413 Y100.378 F7200
G0 X163.450 Y100.191
G0 X161.885 Y99.246
G0 F3000 E0.00000
;segType:Loop
G1 X162.122 Y99.087 E0.00949 F1989
G1 X162.500 Y99.012 E0.02231
G1 X162.878 Y99.087 E0.03513
G1 X163.199 Y99.302 E0.04795
G1 X163.413 Y99.622 E0.06077
G1 X163.488 Y100.000 E0.07359
G1 X163.413 Y100.378 E0.08641
G1 X163.199 Y100.698 E0.09923
G1 X162.878 Y100.913 E0.11205
G1 X162.500 Y100.988 E0.12487
G1 X162.122 Y100.913 E0.13770
G1 X161.802 Y100.699 E0.15051
G1 X161.587 Y100.378 E0.16333
G1 X161.512 Y100.000 E0.17615
G1 X161.587 Y99.622 E0.18897
G0 X161.533 Y100.104 F7200
G0 X161.587 Y100.378
G0 X161.470 Y100.659
;segType:Perimeter
G1 X161.116 Y99.941 E0.21558 F1193
G1 X161.211 Y99.466 E0.23170
G1 X161.513 Y99.013 E0.24981
G1 X161.966 Y98.711 E0.26792
G1 X162.500 Y98.604 E0.28603
G1 X163.034 Y98.711 E0.30415
G1 X163.487 Y99.013 E0.32226
G1 X163.790 Y99.466 E0.34037
G1 X163.896 Y100.000 E0.35848
G1 X163.790 Y100.534 E0.37660
G1 X163.487 Y100.987 E0.39471
G1 X163.034 Y101.289 E0.41282
G1 X162.500 Y101.396 E0.43093
G1 X161.966 Y101.289 E0.44905
G1 X161.513 Y100.987 E0.46716
G1 X161.211 Y100.534 E0.48527
G1 X161.116 Y100.059 E0.50139
G0 X161.116 Y99.941 F7200
G0 X161.211 Y99.466
G0 X161.513 Y99.013
G0 X161.966 Y98.711
G0 X161.992 Y98.706
G0 F3000 E-0.49861
G0 X161.966 Y98.711 F7200
G0 X161.513 Y99.013
G0 X161.211 Y99.466
G0 X156.554 Y97.000
G0 X155.800 Y96.601
G0 X155.800 Y96.601
G0 F3000 E0.50139
;segType:Loop
G1 X169.900 Y96.601 E0.97033 F3600
G1 X169.900 Y103.400 E1.19647
G1 X155.100 Y103.400 E1.68869
G1 X155.100 Y96.601 E1.91483
G1 X155.600 Y96.601 E1.93146
G0 X155.600 Y96.601 F7200
G0 X155.100 Y96.895
G0 X154.967 Y96.973
;segType:Perimeter
G1 X154.760 Y96.201 E1.95807 F2159
G1 X170.300 Y96.201 E2.47490
G1 X170.300 Y103.800 E2.72765
G1 X154.700 Y103.800 E3.24648
G1 X154.700 Y96.261 E3.49723
G0 X154.760 Y96.201 F7200
G0 X156.360 Y96.201
G0 F3000 E2.49723
G0 X157.045 Y96.601 F7200
G0 X157.728 Y97.000
G0 X169.500 Y97.000
G0 X169.500 Y103.000
G0 X168.000 Y103.000
G0 F3000 E3.49723
;segType:Loop
G1 X155.500 Y103.000 E3.91301 F3600
G1 X155.500 Y97.000 E4.11260
G1 X169.500 Y97.000 E4.57826
G1 X169.500 Y103.000 E4.77786
G1 X168.200 Y103.000 E4.82109
G0 F3000 E3.82109
G0 X169.040 Y102.600 F7200
G0 F3000 E4.82109
;segType:Perimeter
G1 X155.900 Y102.600 E5.25816 F2159
G1 X155.900 Y97.400 E5.43114
G1 X169.100 Y97.400 E5.87020
G1 X169.100 Y102.540 E6.04119
G0 X169.040 Y102.600 F7200
G0 X167.440 Y102.600
; ------------------------------------
; Layer #6
; ------------------------------------
G92 E0 ;reset extr
G0 F3000 E-1.00000
G0 F600 Z1.400
G0 X163.413 Y100.378 F7200
G0 X163.199 Y100.698
G0 X163.102 Y100.763
G0 X161.532 Y100.097
G0 X161.587 Y100.378
G0 X161.952 Y100.276
G0 F3000 E0.00000
;segType:Infill
G1 X162.224 Y100.548 E0.01537 F2596
G0 X162.330 Y100.954 F7200
G0 X161.885 Y99.246
;segType:Loop
G1 X162.122 Y99.087 E0.02486 F2077
G1 X162.500 Y99.012 E0.03769
G1 X162.878 Y99.087 E0.05051
G1 X163.199 Y99.302 E0.06333
G1 X163.413 Y99.622 E0.07615
G1 X163.488 Y100.000 E0.08897
G1 X163.413 Y100.378 E0.10179
G1 X163.199 Y100.698 E0.11460
G1 X162.878 Y100.913 E0.12742
G1 X162.500 Y100.988 E0.14025
G1 X162.122 Y100.913 E0.15307
G1 X161.802 Y100.699 E0.16589
G1 X161.587 Y100.378 E0.17870
G1 X161.512 Y100.000 E0.19152
G1 X161.587 Y99.622 E0.20435
G0 X161.533 Y100.104 F7200
G0 X161.587 Y100.378
G0 X161.470 Y100.659
;segType:Perimeter
G1 X161.116 Y99.941 E0.23095 F1246
G1 X161.211 Y99.466 E0.24707
G1 X161.513 Y99.013 E0.26518
G1 X161.966 Y98.711 E0.28329
G1 X162.500 Y98.604 E0.30141
G1 X163.034 Y98.711 E0.31952
G1 X163.487 Y99.013 E0.33763
G1 X163.790 Y99.466 E0.35574
G1 X163.896 Y100.000 E0.37386
G1 X163.790 Y100.534 E0.39197
G1 X163.487 Y100.987 E0.41008
G1 X163.034 Y101.289 E0.42819
G1 X162.500 Y101.396 E0.44631
G1 X161.966 Y101.289 E0.46442
G1 X161.513 Y100.987 E0.48253
G1 X161.211 Y100.534 E0.50064
G1 X161.116 Y100.059 E0.51676
G0 X161.116 Y99.941 F7200
G0 X161.211 Y99.466
G0 X161.513 Y99.013
G0 X161.966 Y98.711
G0 X161.992 Y98.706
G0 F3000 E-0.48324
G0 X161.966 Y98.711 F7200
G0 X161.513 Y99.013
G0 X161.211 Y99.466
G0 X155.800 Y96.601
G0 F3000 E0.51676
;segType:Loop
G1 X169.900 Y96.601 E0.98570 F3600
G1 X169.900 Y103.400 E1.21184
G1 X155.100 Y103.400 E1.70407
G1 X155.100 Y96.601 E1.93020
G1 X155.600 Y96.601 E1.94683
G0 X155.600 Y96.601 F7200
G0 X155.100 Y96.895
G0 X154.967 Y96.973
;segType:Perimeter
G1 X154.760 Y96.201 E1.97344 F2159
G1 X170.300 Y96.201 E2.49028
G1 X170.300 Y103.800 E2.74302
G1 X154.700 Y103.800 E3.26185
G1 X154.700 Y96.261 E3.51260
G0 X154.760 Y96.201 F7200
G0 X156.360 Y96.201
G0 F3000 E2.51260
G0 X157.045 Y96.601 F7200
G0 X157.728 Y97.000
G0 X169.500 Y97.000
G0 X169.500 Y103.000
G0 X168.000 Y103.000
G0 F3000 E3.51260
;segType:Loop
G1 X155.500 Y103.000 E3.92838 F3600
G1 X155.500 Y97.000 E4.12797
G1 X169.500 Y97.000 E4.59364
G1 X169.500 Y103.000 E4.79323
G1 X168.200 Y103.000 E4.83647
G0 F3000 E3.83647
G0 X169.040 Y102.600 F7200
G0 F3000 E4.83647
;segType:Perimeter
G1 X155.900 Y102.600 E5.27353 F2159
G1 X155.900 Y97.400 E5.44652
G1 X169.100 Y97.400 E5.88557
G1 X169.100 Y102.540 E6.05656
G0 X169.040 Y102.600 F7200
G0 X167.440 Y102.600
; ------------------------------------
; Layer #7
; ------------------------------------
G92 E0 ;reset extr
G0 F3000 E-1.00000
G0 F600 Z1.600
G0 X163.413 Y100.378 F7200
G0 X163.450 Y100.191
G0 X161.885 Y99.246
G0 F3000 E0.00000
;segType:Loop
G1 X162.122 Y99.087 E0.00949 F1989
G1 X162.500 Y99.012 E0.02231
G1 X162.878 Y99.087 E0.03513
G1 X163.199 Y99.302 E0.04795
G1 X163.413 Y99.622 E0.06077
G1 X163.488 Y100.000 E0.07359
G1 X163.413 Y100.378 E0.08641
G1 X163.199 Y100.698 E0.09923
G1 X162.878 Y100.913 E0.11205
G1 X162.500 Y100.988 E0.12487
G1 X162.122 Y100.913 E0.13769
G1 X161.802 Y100.699 E0.15051
G1 X161.587 Y100.378 E0.16333
G1 X161.512 Y100.000 E0.17615
G1 X161.587 Y99.622 E0.18897
G0 X161.533 Y100.104 F7200
G0 X161.587 Y100.378
G0 X161.470 Y100.659
;segType:Perimeter
G1 X161.116 Y99.941 E0.21558 F1193
G1 X161.211 Y99.466 E0.23170
G1 X161.513 Y99.013 E0.24981
G1 X161.966 Y98.711 E0.26792
G1 X162.500 Y98.604 E0.28603
G1 X163.034 Y98.711 E0.30415
G1 X163.487 Y99.013 E0.32226
G1 X163.790 Y99.466 E0.34037
G1 X163.896 Y100.000 E0.35848
G1 X163.790 Y100.534 E0.37660
G1 X163.487 Y100.987 E0.39471
G1 X163.034 Y101.289 E0.41282
G1 X162.500 Y101.396 E0.43093
G1 X161.966 Y101.289 E0.44905
G1 X161.513 Y100.987 E0.46716
G1 X161.211 Y100.534 E0.48527
G1 X161.116 Y100.059 E0.50139
G0 X161.116 Y99.941 F7200
G0 X161.211 Y99.466
G0 X161.513 Y99.013
G0 X161.966 Y98.711
G0 X161.992 Y98.706
G0 F3000 E-0.49861
G0 X161.966 Y98.711 F7200
G0 X161.513 Y99.013
G0 X161.211 Y99.466
G0 X156.554 Y97.000
G0 X155.800 Y96.601
G0 X155.800 Y96.601
G0 F3000 E0.50139
;segType:Loop
G1 X169.900 Y96.601 E0.97033 F3600
G1 X169.900 Y103.400 E1.19647
G1 X155.100 Y103.400 E1.68869
G1 X155.100 Y96.601 E1.91483
G1 X155.600 Y96.601 E1.93146
G0 X155.600 Y96.601 F7200
G0 X155.100 Y96.895
G0 X154.967 Y96.973
;segType:Perimeter
G1 X154.760 Y96.201 E1.95806 F2159
G1 X170.300 Y96.201 E2.47490
G1 X170.300 Y103.800 E2.72765
G1 X154.700 Y103.800 E3.24648
G1 X154.700 Y96.261 E3.49723
G0 X154.760 Y96.201 F7200
G0 X156.360 Y96.201
G0 F3000 E2.49723
G0 X157.045 Y96.601 F7200
G0 X157.728 Y97.000
G0 X169.500 Y97.000
G0 X169.500 Y103.000
G0 X168.000 Y103.000
G0 F3000 E3.49723
;segType:Loop
G1 X155.500 Y103.000 E3.91300 F3600
G1 X155.500 Y97.000 E4.11260
G1 X169.500 Y97.000 E4.57826
G1 X169.500 Y103.000 E4.77785
G1 X168.200 Y103.000 E4.82109
G0 F3000 E3.82109
G0 X169.040 Y102.600 F7200
G0 F3000 E4.82109
;segType:Perimeter
G1 X155.900 Y102.600 E5.25816 F2159
G1 X155.900 Y97.400 E5.43114
G1 X169.100 Y97.400 E5.87020
G1 X169.100 Y102.540 E6.04119
G0 X169.040 Y102.600 F7200
G0 X167.440 Y102.600
; ------------------------------------
; Layer #8
; ------------------------------------
G92 E0 ;reset extr
G0 F3000 E-1.00000
G0 F600 Z1.800
G0 X155.461 Y97.178 F7200
G0 F3000 E0.00000
;segType:HShell
G1 X161.322 Y103.039 E0.27569 F3600
G0 X161.887 Y103.039 F7200
G1 X155.809 Y96.961 E0.56162 F3600
G0 X154.967 Y96.973 F7200
;segType:Perimeter
G1 X154.760 Y96.201 E0.58823 F2159
G1 X170.300 Y96.201 E1.10507
G1 X170.300 Y103.800 E1.35781
G1 X154.700 Y103.800 E1.87664
G1 X154.700 Y96.261 E2.12739
G0 X154.760 Y96.201 F7200
G0 X156.360 Y96.201
G0 X155.800 Y96.601
;segType:Loop
G1 X169.900 Y96.601 E2.59634 F3600
G1 X169.900 Y103.400 E2.82247
G1 X155.100 Y103.400 E3.31470
G1 X155.100 Y96.601 E3.54083
G1 X155.600 Y96.601 E3.55746
G0 F3000 E2.55746
G0 X161.952 Y100.276 F7200
G0 F3000 E3.55746
;segType:Infill
G1 X162.224 Y100.548 E3.57284 F4500
G0 F3000 E2.57284
G0 X156.374 Y96.961 F7200
G0 F3000 E3.57284
;segType:HShell
G1 X162.453 Y103.039 E3.85876 F3600
G0 X163.019 Y103.039 F7200
G1 X156.940 Y96.961 E4.14469 F3600
G0 X157.506 Y96.961 F7200
G1 X163.584 Y103.039 E4.43062 F3600
G0 X164.150 Y103.039 F7200
G1 X158.071 Y96.961 E4.71655 F3600
G0 X158.637 Y96.961 F7200
G1 X161.952 Y100.276 E4.87247 F3600
G0 X161.958 Y99.716 F7200
G1 X159.203 Y96.961 E5.00206 F3600
G0 X159.768 Y96.961 F7200
G1 X162.246 Y99.438 E5.11859 F3600
G0 X162.926 Y99.553 F7200
G1 X160.334 Y96.961 E5.24051 F3600
G0 X160.900 Y96.961 F7200
G1 X166.979 Y103.039 E5.52643 F3600
G0 X167.544 Y103.039 F7200
G1 X161.465 Y96.961 E5.81236 F3600
G0 X162.031 Y96.961 F7200
G1 X168.110 Y103.039 E6.09829 F3600
G0 X168.676 Y103.039 F7200
G1 X162.597 Y96.961 E6.38422 F3600
G0 X163.163 Y96.961 F7200
G1 X169.241 Y103.039 E6.67014 F3600
G0 X169.540 Y102.772 F7200
G1 X163.728 Y96.961 E6.94349 F3600
G0 X164.294 Y96.961 F7200
G1 X169.540 Y102.206 E7.19022 F3600
G0 X169.540 Y101.641 F7200
G1 X164.860 Y96.961 E7.41035 F3600
G0 X165.425 Y96.961 F7200
G1 X169.540 Y101.075 E7.60387 F3600
G0 X169.540 Y100.509 F7200
G1 X165.991 Y96.961 E7.77079 F3600
G0 X166.557 Y96.961 F7200
G1 X169.540 Y99.943 E7.91109 F3600
G0 X169.540 Y99.378 F7200
G1 X167.122 Y96.961 E8.02479 F3600
G0 X167.688 Y96.961 F7200
G1 X169.540 Y98.812 E8.11188 F3600
G0 X169.540 Y98.246 F7200
G1 X168.254 Y96.961 E8.17236 F3600
G0 X168.819 Y96.961 F7200
G1 X169.540 Y97.681 E8.20623 F3600
G0 X169.540 Y97.115 F7200
G1 X169.385 Y96.961 E8.21349 F3600
G0 X162.948 Y99.574 F7200
G1 X166.413 Y103.039 E8.37649 F3600
G0 X165.847 Y103.039 F7200
G1 X163.062 Y100.254 E8.50749 F3600
G0 X162.784 Y100.542 F7200
G1 X165.282 Y103.039 E8.62495 F3600
G0 X164.716 Y103.039 F7200
G1 X162.224 Y100.548 E8.74214 F3600
G0 X155.461 Y102.835 F7200
G1 X155.665 Y103.039 E8.75175 F3600
G0 X156.231 Y103.039 F7200
G1 X155.461 Y102.269 E8.78797 F3600
G0 X155.461 Y101.704 F7200
G1 X156.796 Y103.039 E8.85080 F3600
G0 X157.362 Y103.039 F7200
G1 X155.461 Y101.138 E8.94024 F3600
G0 X155.461 Y100.572 F7200
G1 X157.928 Y103.039 E9.05629 F3600
G0 X158.493 Y103.039 F7200
G1 X155.461 Y100.007 E9.19894 F3600
G0 X155.461 Y99.441 F7200
G1 X159.059 Y103.039 E9.36820 F3600
G0 X159.625 Y103.039 F7200
G1 X155.461 Y98.875 E9.56407 F3600
G0 X155.461 Y98.310 F7200
G1 X160.190 Y103.039 E9.78655 F3600
G0 X160.756 Y103.039 F7200
G1 X155.461 Y97.744 E10.03564 F3600
; ------------------------------------
; Layer #9
; ------------------------------------
G92 E0 ;reset extr
G0 F3000 E-1.00000
G0 F600 Z2.000
G0 X155.461 Y100.045 F7200
G0 F3000 E0.00000
;segType:HShell
G1 X158.545 Y96.961 E0.14510 F3600
G0 X157.980 Y96.961 F7200
G1 X155.461 Y99.480 E0.26359 F3600
G0 X155.461 Y98.914 F7200
G1 X157.414 Y96.961 E0.35547 F3600
G0 X156.848 Y96.961 F7200
G1 X155.461 Y98.348 E0.42075 F3600
G0 X155.461 Y97.783 F7200
G1 X156.283 Y96.961 E0.45941 F3600
G0 X155.461 Y97.217 F7200
G1 X155.717 Y96.961 E0.47147 F3600
G0 X154.967 Y96.973 F7200
;segType:Perimeter
G1 X154.760 Y96.201 E0.49808 F2159
G1 X170.300 Y96.201 E1.01492
G1 X170.300 Y103.800 E1.26766
G1 X154.700 Y103.800 E1.78649
G1 X154.700 Y96.261 E2.03724
G0 X154.760 Y96.201 F7200
G0 X156.360 Y96.201
G0 X155.800 Y96.601
;segType:Loop
G1 X169.900 Y96.601 E2.50619 F3600
G1 X169.900 Y103.400 E2.73232
G1 X155.100 Y103.400 E3.22455
G1 X155.100 Y96.601 E3.45068
G1 X155.600 Y96.601 E3.46731
G0 F3000 E2.46731
G0 X159.111 Y96.961 F7200
G0 F3000 E3.46731
;segType:HShell
G1 X155.461 Y100.611 E3.63902 F3600
G0 X155.461 Y101.177 F7200
G1 X159.677 Y96.961 E3.83733 F3600
G0 X160.242 Y96.961 F7200
G1 X155.461 Y101.742 E4.06226 F3600
G0 X155.461 Y102.308 F7200
G1 X160.808 Y96.961 E4.31379 F3600
G0 X161.374 Y96.961 F7200
G1 X155.461 Y102.874 E4.59193 F3600
G0 X155.861 Y103.039 F7200
G1 X161.939 Y96.961 E4.87785 F3600
G0 X162.505 Y96.961 F7200
G1 X156.426 Y103.039 E5.16378 F3600
G0 X156.992 Y103.039 F7200
G1 X163.071 Y96.961 E5.44971 F3600
G0 X163.636 Y96.961 F7200
G1 X157.558 Y103.039 E5.73563 F3600
G0 X158.123 Y103.039 F7200
G1 X164.202 Y96.961 E6.02156 F3600
G0 X164.768 Y96.961 F7200
G1 X162.312 Y99.417 E6.13710 F3600
G0 X162.815 Y99.479 F7200
G1 X165.334 Y96.961 E6.25554 F3600
G0 X165.899 Y96.961 F7200
G1 X163.077 Y99.782 E6.38826 F3600
G0 X169.540 Y102.937 F7200
G1 X169.437 Y103.039 E6.39308 F3600
G0 X168.871 Y103.039 F7200
G1 X169.540 Y102.371 E6.42451 F3600
G0 X169.540 Y101.806 F7200
G1 X168.306 Y103.039 E6.48254 F3600
G0 X167.740 Y103.039 F7200
G1 X169.540 Y101.240 E6.56718 F3600
G0 X169.540 Y100.674 F7200
G1 X167.174 Y103.039 E6.67844 F3600
G0 X166.609 Y103.039 F7200
G1 X169.540 Y100.109 E6.81629 F3600
G0 X169.540 Y99.543 F7200
G1 X166.043 Y103.039 E6.98076 F3600
G0 X165.477 Y103.039 F7200
G1 X169.540 Y98.977 E7.17184 F3600
G0 X169.540 Y98.411 F7200
G1 X164.912 Y103.039 E7.38952 F3600
G0 X164.346 Y103.039 F7200
G1 X169.540 Y97.846 E7.63381 F3600
G0 X169.540 Y97.280 F7200
G1 X163.780 Y103.039 E7.90471 F3600
G0 X163.215 Y103.039 F7200
G1 X169.293 Y96.961 E8.19064 F3600
G0 X168.728 Y96.961 F7200
G1 X162.649 Y103.039 E8.47656 F3600
G0 X162.083 Y103.039 F7200
G1 X168.162 Y96.961 E8.76249 F3600
G0 X167.596 Y96.961 F7200
G1 X161.517 Y103.039 E9.04842 F3600
G0 X160.952 Y103.039 F7200
G1 X167.031 Y96.961 E9.33435 F3600
G0 X166.465 Y96.961 F7200
G1 X160.386 Y103.039 E9.62027 F3600
G0 X159.820 Y103.039 F7200
G1 X162.282 Y100.577 E9.73608 F3600
G0 X161.979 Y100.315 F7200
G1 X159.255 Y103.039 E9.86420 F3600
G0 X158.689 Y103.039 F7200
G1 X161.917 Y99.812 E10.01603 F3600
; ------------------------------------
; Layer #10
; ------------------------------------
G92 E0 ;reset extr
G0 F3000 E-1.00000
G0 F600 Z2.200
G0 X155.461 Y97.178 F7200
G0 F3000 E0.00000
;segType:HShell
G1 X161.322 Y103.039 E0.27569 F3600
G0 X160.756 Y103.039 F7200
G1 X155.461 Y97.744 E0.52478 F3600
G0 X154.967 Y96.973 F7200
;segType:Perimeter
G1 X154.760 Y96.201 E0.55139 F2159
G1 X170.300 Y96.201 E1.06823
G1 X170.300 Y103.800 E1.32097
G1 X154.700 Y103.800 E1.83980
G1 X154.700 Y96.261 E2.09055
G0 X154.760 Y96.201 F7200
G0 X156.360 Y96.201
G0 X155.800 Y96.601
;segType:Loop
G1 X169.900 Y96.601 E2.55950 F3600
G1 X169.900 Y103.400 E2.78563
G1 X155.100 Y103.400 E3.27786
G1 X155.100 Y96.601 E3.50399
G1 X155.600 Y96.601 E3.52062
G0 F3000 E2.52062
G0 X162.224 Y100.548 F7200
G0 F3000 E3.52062
;segType:Infill
G1 X161.952 Y100.276 E3.53600 F4500
G0 F3000 E2.53600
G0 X155.809 Y96.961 F7200
G0 F3000 E3.53600
;segType:HShell
G1 X161.887 Y103.039 E3.82192 F3600
G0 X162.453 Y103.039 F7200
G1 X156.374 Y96.961 E4.10785 F3600
G0 X156.940 Y96.961 F7200
G1 X163.019 Y103.039 E4.39378 F3600
G0 X163.584 Y103.039 F7200
G1 X157.506 Y96.961 E4.67971 F3600
G0 X158.071 Y96.961 F7200
G1 X164.150 Y103.039 E4.96563 F3600
G0 X164.716 Y103.039 F7200
G1 X162.224 Y100.548 E5.08282 F3600
G0 X162.784 Y100.542 F7200
G1 X165.282 Y103.039 E5.20029 F3600
G0 X165.847 Y103.039 F7200
G1 X163.062 Y100.254 E5.33128 F3600
G0 X162.948 Y99.574 F7200
G1 X166.413 Y103.039 E5.49428 F3600
G0 X166.979 Y103.039 F7200
G1 X160.900 Y96.961 E5.78021 F3600
G0 X161.465 Y96.961 F7200
G1 X167.544 Y103.039 E6.06613 F3600
G0 X168.110 Y103.039 F7200
G1 X162.031 Y96.961 E6.35206 F3600
G0 X162.597 Y96.961 F7200
G1 X168.676 Y103.039 E6.63799 F3600
G0 X169.241 Y103.039 F7200
G1 X163.163 Y96.961 E6.92392 F3600
G0 X163.728 Y96.961 F7200
G1 X169.540 Y102.772 E7.19726 F3600
G0 X169.540 Y102.206 F7200
G1 X164.294 Y96.961 E7.44400 F3600
G0 X164.860 Y96.961 F7200
G1 X169.540 Y101.641 E7.66413 F3600
G0 X169.540 Y101.075 F7200
G1 X165.425 Y96.961 E7.85765 F3600
G0 X165.991 Y96.961 F7200
G1 X169.540 Y100.509 E8.02456 F3600
G0 X169.540 Y99.943 F7200
G1 X166.557 Y96.961 E8.16486 F3600
G0 X167.122 Y96.961 F7200
G1 X169.540 Y99.378 E8.27856 F3600
G0 X169.540 Y98.812 F7200
G1 X167.688 Y96.961 E8.36565 F3600
G0 X168.254 Y96.961 F7200
G1 X169.540 Y98.246 E8.42612 F3600
G0 X169.540 Y97.681 F7200
G1 X168.819 Y96.961 E8.46000 F3600
G0 X169.385 Y96.961 F7200
G1 X169.540 Y97.115 E8.46726 F3600
G0 X162.926 Y99.553 F7200
G1 X160.334 Y96.961 E8.58918 F3600
G0 X159.768 Y96.961 F7200
G1 X162.246 Y99.438 E8.70570 F3600
G0 X161.958 Y99.716 F7200
G1 X159.203 Y96.961 E8.83529 F3600
G0 X158.637 Y96.961 F7200
G1 X161.952 Y100.276 E8.99122 F3600
G0 X155.665 Y103.039 F7200
G1 X155.461 Y102.835 E9.00083 F3600
G0 X155.461 Y102.269 F7200
G1 X156.231 Y103.039 E9.03705 F3600
G0 X156.796 Y103.039 F7200
G1 X155.461 Y101.704 E9.09988 F3600
G0 X155.461 Y101.138 F7200
G1 X157.362 Y103.039 E9.18932 F3600
G0 X157.928 Y103.039 F7200
G1 X155.461 Y100.572 E9.30537 F3600
G0 X155.461 Y100.007 F7200
G1 X158.493 Y103.039 E9.44802 F3600
G0 X159.059 Y103.039 F7200
G1 X155.461 Y99.441 E9.61728 F3600
G0 X155.460 Y98.875 F7200
G1 X159.625 Y103.039 E9.81315 F3600
G0 X160.190 Y103.039 F7200
G1 X155.460 Y98.310 E10.03563 F3600
; ------------------------------------
; Layer #11
; ------------------------------------
G92 E0 ;reset extr
G0 F3000 E-1.00000
G0 F600 Z2.400
G0 X157.414 Y96.961 F7200
G0 F3000 E0.00000
;segType:Infill
G1 X155.461 Y98.914 E0.11026 F3522
G0 X155.800 Y96.601 F7200
;segType:Loop
G1 X169.900 Y96.601 E0.57920 F2817
G1 X169.900 Y103.400 E0.80534
G1 X155.100 Y103.400 E1.29756
G1 X155.100 Y96.601 E1.52370
G1 X155.600 Y96.601 E1.54033
G0 X155.600 Y96.601 F7200
G0 X155.100 Y96.895
G0 X154.967 Y96.973
;segType:Perimeter
G1 X154.760 Y96.201 E1.56694 F1690
G1 X170.300 Y96.201 E2.08378
G1 X170.300 Y103.800 E2.33652
G1 X154.700 Y103.800 E2.85535
G1 X154.700 Y96.261 E3.10610
G0 X154.760 Y96.201 F7200
G0 X156.360 Y96.201
G0 F3000 E2.10610
G0 X156.331 Y96.601 F7200
G0 X155.834 Y103.400
G0 X155.861 Y103.039
G0 F3000 E3.10610
;segType:Infill
G1 X161.939 Y96.961 E3.44921 F3522
G0 X164.912 Y103.039 F7200
G1 X169.540 Y98.411 E3.71043 F3522
G0 X169.540 Y102.937 F7200
G1 X169.437 Y103.039 E3.71622 F3522
G0 X166.465 Y96.961 F7200
G1 X160.386 Y103.039 E4.05933 F3522
; ------------------------------------
; Layer #12
; ------------------------------------
G92 E0 ;reset extr
G0 F3000 E-1.00000
G0 F600 Z2.600
G0 X160.190 Y103.039 F7200
G0 F3000 E0.00000
;segType:Infill
G1 X155.461 Y98.310 E0.26697 F3541
G0 X155.800 Y96.601 F7200
;segType:Loop
G1 X169.900 Y96.601 E0.73592 F2833
G1 X169.900 Y103.400 E0.96205
G1 X155.100 Y103.400 E1.45428
G1 X155.100 Y96.601 E1.68041
G1 X155.600 Y96.601 E1.69704
G0 X155.600 Y96.601 F7200
G0 X155.100 Y96.895
G0 X154.967 Y96.973
;segType:Perimeter
G1 X154.760 Y96.201 E1.72365 F1699
G1 X170.300 Y96.201 E2.24049
G1 X170.300 Y103.800 E2.49323
G1 X154.700 Y103.800 E3.01207
G1 X154.700 Y96.261 E3.26282
G0 X154.760 Y96.201 F7200
G0 X156.360 Y96.201
G0 X158.637 Y96.961
;segType:Infill
G1 X164.716 Y103.039 E3.60593 F3541
G0 X169.241 Y103.039 F7200
G1 X163.163 Y96.961 E3.94904 F3541
G0 X167.688 Y96.961 F7200
G1 X169.540 Y98.812 E4.05355 F3541
G0 F3000 E3.05355
G0 X169.900 Y98.702 F7200
G0 X155.100 Y103.211
G0 X155.665 Y103.039
G0 F3000 E4.05355
G1 X155.461 Y102.835 E4.06508 F3541
; ------------------------------------
; Layer #13
; ------------------------------------
G92 E0 ;reset extr
G0 F3000 E-1.00000
G0 F600 Z2.800
G0 X155.461 Y100.045 F7200
G0 F3000 E0.00000
;segType:HShell
G1 X158.545 Y96.961 E0.14510 F3600
G0 X157.980 Y96.961 F7200
G1 X155.461 Y99.480 E0.26359 F3600
G0 X155.461 Y98.914 F7200
G1 X157.414 Y96.961 E0.35547 F3600
G0 X156.848 Y96.961 F7200
G1 X155.461 Y98.348 E0.42075 F3600
G0 X155.461 Y97.783 F7200
G1 X156.283 Y96.961 E0.45941 F3600
G0 X155.461 Y97.217 F7200
G1 X155.717 Y96.961 E0.47147 F3600
G0 X154.967 Y96.973 F7200
;segType:Perimeter
G1 X154.760 Y96.201 E0.49808 F2159
G1 X170.300 Y96.201 E1.01491
G1 X170.300 Y103.800 E1.26766
G1 X154.700 Y103.800 E1.78649
G1 X154.700 Y96.261 E2.03724
G0 X154.760 Y96.201 F7200
G0 X156.360 Y96.201
G0 X155.800 Y96.601
;segType:Loop
G1 X169.900 Y96.601 E2.50618 F3600
G1 X169.900 Y103.400 E2.73232
G1 X155.100 Y103.400 E3.22454
G1 X155.100 Y96.601 E3.45068
G1 X155.600 Y96.601 E3.46731
G0 F3000 E2.46731
G0 X157.735 Y101.165 F7200
G0 F3000 E3.46731
;segType:Infill
G1 X159.665 Y99.235 E3.57623 F4500
G0 X166.538 Y101.413 F7200
G1 X167.913 Y100.038 E3.65386 F4500
G0 F3000 E2.65386
G0 X159.111 Y96.961 F7200
G0 F3000 E3.65386
;segType:HShell
G1 X155.461 Y100.611 E3.82557 F3600
G0 X155.461 Y101.177 F7200
G1 X157.200 Y99.437 E3.90741 F3600
G0 X157.100 Y100.103 F7200
G1 X155.461 Y101.742 E3.98452 F3600
G0 X155.461 Y102.308 F7200
G1 X157.202 Y100.566 E4.06645 F3600
G0 X157.429 Y100.905 F7200
G1 X155.461 Y102.874 E4.15905 F3600
G0 X155.861 Y103.039 F7200
G1 X157.735 Y101.165 E4.24722 F3600
G0 X158.121 Y101.345 F7200
G1 X156.426 Y103.039 E4.32691 F3600
G0 X156.992 Y103.039 F7200
G1 X158.638 Y101.393 E4.40434 F3600
G0 X159.893 Y100.138 F7200
G1 X163.071 Y96.961 E4.55381 F3600
G0 X162.505 Y96.961 F7200
G1 X159.845 Y99.620 E4.67892 F3600
G0 X159.665 Y99.235 F7200
G1 X161.939 Y96.961 E4.78591 F3600
G0 X161.374 Y96.961 F7200
G1 X159.405 Y98.929 E4.87849 F3600
G0 X159.066 Y98.703 F7200
G1 X160.808 Y96.961 E4.96043 F3600
G0 X160.242 Y96.961 F7200
G1 X158.603 Y98.600 E5.03753 F3600
G0 X157.936 Y98.701 F7200
G1 X159.677 Y96.961 E5.11939 F3600
G0 X163.636 Y96.961 F7200
G1 X157.558 Y103.039 E5.40531 F3600
G0 X158.123 Y103.039 F7200
G1 X164.202 Y96.961 E5.69124 F3600
G0 X164.768 Y96.961 F7200
G1 X158.689 Y103.039 E5.97717 F3600
G0 X159.255 Y103.039 F7200
G1 X165.333 Y96.961 E6.26309 F3600
G0 X165.899 Y96.961 F7200
G1 X159.820 Y103.039 E6.54902 F3600
G0 X160.386 Y103.039 F7200
G1 X166.465 Y96.961 E6.83495 F3600
G0 X167.031 Y96.961 F7200
G1 X160.952 Y103.039 E7.12087 F3600
G0 X161.517 Y103.039 F7200
G1 X165.362 Y99.194 E7.30173 F3600
G0 X165.087 Y100.036 F7200
G1 X162.083 Y103.039 E7.44300 F3600
G0 X162.649 Y103.039 F7200
G1 X165.180 Y100.508 E7.56207 F3600
G0 X165.397 Y100.857 F7200
G1 X163.215 Y103.039 E7.66472 F3600
G0 X163.780 Y103.039 F7200
G1 X165.687 Y101.133 E7.75441 F3600
G0 X166.053 Y101.332 F7200
G1 X164.346 Y103.039 E7.83473 F3600
G0 X164.912 Y103.039 F7200
G1 X166.538 Y101.413 E7.91122 F3600
G0 X169.540 Y102.937 F7200
G1 X169.437 Y103.039 E7.91604 F3600
G0 X168.871 Y103.039 F7200
G1 X169.540 Y102.371 E7.94747 F3600
G0 X169.540 Y101.806 F7200
G1 X168.306 Y103.039 E8.00551 F3600
G0 X167.740 Y103.039 F7200
G1 X169.540 Y101.240 E8.09015 F3600
G0 X169.540 Y100.674 F7200
G1 X167.174 Y103.039 E8.20140 F3600
G0 X166.609 Y103.039 F7200
G1 X169.540 Y100.108 E8.33926 F3600
G0 X169.540 Y99.543 F7200
G1 X166.043 Y103.039 E8.50373 F3600
G0 X165.477 Y103.039 F7200
G1 X169.540 Y98.977 E8.69481 F3600
G0 X167.913 Y100.038 F7200
G1 X169.540 Y98.411 E8.77131 F3600
G0 X169.540 Y97.846 F7200
G1 X167.832 Y99.553 E8.85163 F3600
G0 X167.633 Y99.187 F7200
G1 X169.540 Y97.280 E8.94133 F3600
G0 X169.293 Y96.961 F7200
G1 X167.357 Y98.897 E9.03240 F3600
G0 X167.008 Y98.680 F7200
G1 X168.728 Y96.961 E9.11329 F3600
G0 X168.162 Y96.961 F7200
G1 X166.536 Y98.586 E9.18977 F3600
G0 X165.694 Y98.863 F7200
G1 X167.596 Y96.961 E9.27923 F3600
; ------------------------------------
; Layer #14
; ------------------------------------
G92 E0 ;reset extr
G0 F3000 E-1.00000
G0 F600 Z3.000
G0 X161.887 Y103.039 F7200
G0 F3000 E0.00000
;segType:HShell
G1 X159.644 Y100.796 E0.10552 F3600
G0 X159.374 Y101.092 F7200
G1 X161.322 Y103.039 E0.19713 F3600
G0 X160.756 Y103.039 F7200
G1 X159.032 Y101.315 E0.27825 F3600
G0 X158.560 Y101.409 F7200
;segType:Infill
G1 X157.091 Y99.940 E0.36114 F4500
G0 F3000 E-0.63886
G0 X154.967 Y96.973 F7200
G0 F3000 E0.36114
;segType:Perimeter
G1 X154.760 Y96.201 E0.38775 F2159
G1 X170.300 Y96.201 E0.90459
G1 X170.300 Y103.800 E1.15733
G1 X154.700 Y103.800 E1.67616
G1 X154.700 Y96.261 E1.92691
G0 X154.760 Y96.201 F7200
G0 X156.360 Y96.201
G0 X155.800 Y96.601
;segType:Loop
G1 X169.900 Y96.601 E2.39585 F3600
G1 X169.900 Y103.400 E2.62199
G1 X155.100 Y103.400 E3.11421
G1 X155.100 Y96.601 E3.34035
G1 X155.600 Y96.601 E3.35698
G0 F3000 E2.35698
G0 X167.326 Y101.124 F7200
G0 F3000 E3.35698
;segType:Infill
G1 X165.376 Y99.174 E3.46704 F4500
G0 F3000 E2.46704
G0 X158.573 Y98.594 F7200
G0 F3000 E3.46704
;segType:HShell
G1 X156.940 Y96.961 E3.54386 F3600
G0 X156.374 Y96.961 F7200
G1 X158.077 Y98.663 E3.62396 F3600
G0 X157.704 Y98.856 F7200
G1 X155.809 Y96.961 E3.71311 F3600
G0 X155.461 Y97.178 F7200
G1 X157.408 Y99.126 E3.80473 F3600
G0 X157.185 Y99.468 F7200
G1 X155.461 Y97.744 E3.88584 F3600
G0 X155.461 Y98.310 F7200
G1 X157.091 Y99.940 E3.96255 F3600
G0 X157.305 Y100.720 F7200
G1 X155.460 Y98.875 E4.04931 F3600
G0 X155.460 Y99.441 F7200
G1 X159.059 Y103.039 E4.21857 F3600
G0 X158.493 Y103.039 F7200
G1 X155.460 Y100.007 E4.36123 F3600
G0 X155.461 Y100.572 F7200
G1 X157.928 Y103.039 E4.47727 F3600
G0 X157.362 Y103.039 F7200
G1 X155.461 Y101.138 E4.56671 F3600
G0 X155.460 Y101.704 F7200
G1 X156.796 Y103.039 E4.62954 F3600
G0 X156.231 Y103.039 F7200
G1 X155.461 Y102.269 E4.66576 F3600
G0 X155.461 Y102.835 F7200
G1 X155.665 Y103.039 E4.67538 F3600
G0 X162.453 Y103.039 F7200
G1 X159.837 Y100.423 E4.79845 F3600
G0 X159.906 Y99.927 F7200
G1 X163.019 Y103.039 E4.94486 F3600
G0 X163.584 Y103.039 F7200
G1 X157.506 Y96.961 E5.23079 F3600
G0 X158.071 Y96.961 F7200
G1 X164.150 Y103.039 E5.51672 F3600
G0 X164.716 Y103.039 F7200
G1 X158.637 Y96.961 E5.80264 F3600
G0 X159.203 Y96.961 F7200
G1 X165.282 Y103.039 E6.08857 F3600
G0 X165.847 Y103.039 F7200
G1 X159.768 Y96.961 E6.37450 F3600
G0 X160.334 Y96.961 F7200
G1 X166.413 Y103.039 E6.66042 F3600
G0 X166.979 Y103.039 F7200
G1 X160.900 Y96.961 E6.94635 F3600
G0 X161.465 Y96.961 F7200
G1 X165.467 Y100.962 E7.13457 F3600
G0 X165.082 Y100.011 F7200
G1 X162.031 Y96.961 E7.27805 F3600
G0 X162.597 Y96.961 F7200
G1 X165.172 Y99.535 E7.39916 F3600
G0 X165.376 Y99.174 F7200
G1 X163.163 Y96.961 E7.50328 F3600
G0 X163.728 Y96.961 F7200
G1 X165.656 Y98.888 E7.59395 F3600
G0 X166.010 Y98.677 F7200
G1 X164.294 Y96.961 E7.67467 F3600
G0 X164.860 Y96.961 F7200
G1 X166.482 Y98.583 E7.75098 F3600
G0 X167.371 Y98.906 F7200
G1 X165.425 Y96.961 E7.84248 F3600
G0 X165.991 Y96.961 F7200
G1 X169.540 Y100.509 E8.00939 F3600
G0 X169.540 Y99.943 F7200
G1 X166.557 Y96.961 E8.14969 F3600
G0 X167.122 Y96.961 F7200
G1 X169.540 Y99.378 E8.26339 F3600
G0 X169.540 Y98.812 F7200
G1 X167.688 Y96.961 E8.35047 F3600
G0 X168.254 Y96.961 F7200
G1 X169.540 Y98.246 E8.41095 F3600
G0 X169.540 Y97.681 F7200
G1 X168.819 Y96.961 E8.44483 F3600
G0 X169.385 Y96.961 F7200
G1 X169.540 Y97.115 E8.45209 F3600
G0 X169.540 Y101.075 F7200
G1 X167.594 Y99.130 E8.54359 F3600
G0 X167.917 Y100.018 F7200
G1 X169.540 Y101.641 E8.61990 F3600
G0 X169.540 Y102.206 F7200
G1 X167.823 Y100.490 E8.70063 F3600
G0 X167.612 Y100.844 F7200
G1 X169.540 Y102.772 E8.79130 F3600
G0 X169.241 Y103.039 F7200
G1 X167.326 Y101.124 E8.88139 F3600
G0 X166.965 Y101.328 F7200
G1 X168.676 Y103.039 E8.96188 F3600
G0 X168.110 Y103.039 F7200
G1 X166.489 Y101.419 E9.03812 F3600
G0 X165.538 Y101.033 F7200
G1 X167.544 Y103.039 E9.13250 F3600
G0 X158.560 Y101.409 F7200
G1 X160.190 Y103.039 E9.20919 F3600
G0 X159.625 Y103.039 F7200
G1 X157.780 Y101.195 E9.29596 F3600
; ------------------------------------
; Layer #15
; ------------------------------------
G92 E0 ;reset extr
G0 F3000 E-1.00000
G0 F600 Z3.200
G0 X155.461 Y100.045 F7200
G0 F3000 E0.00000
;segType:HShell
G1 X158.545 Y96.961 E0.14510 F3600
G0 X157.980 Y96.961 F7200
G1 X155.461 Y99.480 E0.26359 F3600
G0 X155.461 Y98.914 F7200
G1 X157.414 Y96.961 E0.35547 F3600
G0 X156.848 Y96.961 F7200
G1 X155.461 Y98.348 E0.42075 F3600
G0 X155.461 Y97.783 F7200
G1 X156.283 Y96.961 E0.45941 F3600
G0 X155.717 Y96.961 F7200
G1 X155.461 Y97.217 E0.47147 F3600
G0 X154.967 Y96.973 F7200
;segType:Perimeter
G1 X154.760 Y96.201 E0.49808 F2159
G1 X170.300 Y96.201 E1.01492
G1 X170.300 Y103.800 E1.26766
G1 X154.700 Y103.800 E1.78650
G1 X154.700 Y96.261 E2.03724
G0 X154.760 Y96.201 F7200
G0 X156.360 Y96.201
G0 X155.800 Y96.601
;segType:Loop
G1 X169.900 Y96.601 E2.50619 F3600
G1 X169.900 Y103.400 E2.73232
G1 X155.100 Y103.400 E3.22455
G1 X155.100 Y96.601 E3.45068
G1 X155.600 Y96.601 E3.46731
G0 F3000 E2.46731
G0 X157.735 Y101.165 F7200
G0 F3000 E3.46731
;segType:Infill
G1 X159.665 Y99.235 E3.57623 F4500
G0 X166.538 Y101.413 F7200
G1 X167.913 Y100.038 E3.65386 F4500
G0 F3000 E2.65386
G0 X155.461 Y100.611 F7200
G0 F3000 E3.65386
;segType:HShell
G1 X159.111 Y96.961 E3.82557 F3600
G0 X159.677 Y96.961 F7200
G1 X157.936 Y98.701 E3.90742 F3600
G0 X158.603 Y98.600 F7200
G1 X160.242 Y96.961 E3.98452 F3600
G0 X160.808 Y96.961 F7200
G1 X159.066 Y98.703 E4.06646 F3600
G0 X159.405 Y98.929 F7200
G1 X161.374 Y96.961 E4.15905 F3600
G0 X161.939 Y96.961 F7200
G1 X159.665 Y99.235 E4.26604 F3600
G0 X159.845 Y99.621 F7200
G1 X162.505 Y96.961 E4.39115 F3600
G0 X163.071 Y96.961 F7200
G1 X159.893 Y100.138 E4.54062 F3600
G0 X157.200 Y99.437 F7200
G1 X155.461 Y101.177 E4.62245 F3600
G0 X155.461 Y101.742 F7200
G1 X157.100 Y100.103 E4.69956 F3600
G0 X157.202 Y100.566 F7200
G1 X155.461 Y102.308 E4.78150 F3600
G0 X155.461 Y102.874 F7200
G1 X157.429 Y100.905 E4.87409 F3600
G0 X157.735 Y101.165 F7200
G1 X155.861 Y103.039 E4.96227 F3600
G0 X156.426 Y103.039 F7200
G1 X158.121 Y101.345 E5.04196 F3600
G0 X158.638 Y101.393 F7200
G1 X156.992 Y103.039 E5.11939 F3600
G0 X157.558 Y103.039 F7200
G1 X163.636 Y96.961 E5.40532 F3600
G0 X164.202 Y96.961 F7200
G1 X158.123 Y103.039 E5.69125 F3600
G0 X158.689 Y103.039 F7200
G1 X164.768 Y96.961 E5.97717 F3600
G0 X165.334 Y96.961 F7200
G1 X159.255 Y103.039 E6.26310 F3600
G0 X159.820 Y103.039 F7200
G1 X165.899 Y96.961 E6.54903 F3600
G0 X166.465 Y96.961 F7200
G1 X160.386 Y103.039 E6.83496 F3600
G0 X160.952 Y103.039 F7200
G1 X167.031 Y96.961 E7.12088 F3600
G0 X167.596 Y96.961 F7200
G1 X165.694 Y98.863 E7.21034 F3600
G0 X166.536 Y98.586 F7200
G1 X168.162 Y96.961 E7.28682 F3600
G0 X168.728 Y96.961 F7200
G1 X167.008 Y98.680 E7.36771 F3600
G0 X167.357 Y98.897 F7200
G1 X169.293 Y96.961 E7.45879 F3600
G0 X169.540 Y97.280 F7200
G1 X167.633 Y99.187 E7.54848 F3600
G0 X167.832 Y99.553 F7200
G1 X169.540 Y97.846 E7.62880 F3600
G0 X169.540 Y98.411 F7200
G1 X167.913 Y100.038 E7.70530 F3600
G0 X169.437 Y103.039 F7200
G1 X169.540 Y102.937 E7.71012 F3600
G0 X169.540 Y102.371 F7200
G1 X168.871 Y103.039 E7.74155 F3600
G0 X168.306 Y103.039 F7200
G1 X169.540 Y101.806 E7.79959 F3600
G0 X169.540 Y101.240 F7200
G1 X167.740 Y103.039 E7.88423 F3600
G0 X167.174 Y103.039 F7200
G1 X169.540 Y100.674 E7.99548 F3600
G0 X169.540 Y100.109 F7200
G1 X166.609 Y103.039 E8.13334 F3600
G0 X166.043 Y103.039 F7200
G1 X169.540 Y99.543 E8.29781 F3600
G0 X169.540 Y98.977 F7200
G1 X165.477 Y103.039 E8.48888 F3600
G0 X164.912 Y103.039 F7200
G1 X166.538 Y101.413 E8.56537 F3600
G0 X166.053 Y101.332 F7200
G1 X164.346 Y103.039 E8.64569 F3600
G0 X163.780 Y103.039 F7200
G1 X165.687 Y101.133 E8.73538 F3600
G0 X165.397 Y100.857 F7200
G1 X163.215 Y103.039 E8.83803 F3600
G0 X162.649 Y103.039 F7200
G1 X165.180 Y100.508 E8.95711 F3600
G0 X165.087 Y100.036 F7200
G1 X162.083 Y103.039 E9.09837 F3600
G0 X161.517 Y103.039 F7200
G1 X165.362 Y99.195 E9.27923 F3600
; ------------------------------------
; Layer #16
; ------------------------------------
G92 E0 ;reset extr
G0 F3000 E-1.00000
G0 F600 Z3.400
G0 X164.712 Y100.000 F7200
G0 X160.288 Y100.000
G0 X160.152 Y100.684
G0 X158.560 Y101.409
G0 F3000 E0.00000
;segType:Infill
G1 X157.091 Y99.940 E0.08289 F1759
G0 F3000 E-0.91711
G0 X156.748 Y100.182 F7200
G0 X159.267 Y98.404
G0 F3000 E0.08289
;segType:Loop
G1 X159.764 Y98.736 E0.10277 F1407
G1 X160.152 Y99.316 E0.12597
G1 X160.288 Y100.000 E0.14917
G1 X160.152 Y100.684 E0.17238
G1 X159.764 Y101.264 E0.19558
G1 X159.184 Y101.652 E0.21878
G1 X158.500 Y101.788 E0.24198
G1 X157.816 Y101.652 E0.26518
G1 X157.236 Y101.264 E0.28838
G1 X156.848 Y100.684 E0.31159
G1 X156.712 Y100.000 E0.33479
G1 X156.848 Y99.316 E0.35799
G1 X157.236 Y98.736 E0.38119
G1 X157.816 Y98.348 E0.40440
G1 X158.500 Y98.212 E0.42760
G1 X159.086 Y98.329 E0.44747
G0 X159.086 Y98.329 F7200
G0 X158.372 Y98.238
G0 X157.816 Y98.348
G0 X157.841 Y98.170
;segType:Perimeter
G1 X158.559 Y97.816 E0.47408 F844
G1 X159.340 Y97.972 E0.50057
G1 X160.053 Y98.447 E0.52907
G1 X160.529 Y99.160 E0.55756
G1 X160.696 Y100.000 E0.58606
G1 X160.529 Y100.840 E0.61455
G1 X160.053 Y101.553 E0.64305
G1 X159.340 Y102.028 E0.67154
G1 X158.500 Y102.196 E0.70003
G1 X157.660 Y102.028 E0.72853
G1 X156.947 Y101.553 E0.75702
G1 X156.471 Y100.840 E0.78552
G1 X156.304 Y100.000 E0.81401
G1 X156.471 Y99.160 E0.84251
G1 X156.947 Y98.447 E0.87101
G1 X157.660 Y97.972 E0.89950
G1 X158.441 Y97.816 E0.92600
G0 X158.559 Y97.816 F7200
G0 X159.340 Y97.972
G0 X160.008 Y98.418
G0 F3000 E-0.07400
G0 X160.053 Y98.447 F7200
G0 X160.529 Y99.160
G0 X160.696 Y100.000
G0 X164.712 Y100.000
G0 X164.848 Y100.684
G0 X164.863 Y100.706
G0 X167.804 Y101.205
G0 X167.764 Y101.264
G0 X167.326 Y101.124
G0 F3000 E0.92600
;segType:Infill
G1 X165.376 Y99.174 E1.03606 F1759
G0 F3000 E0.03606
G0 X164.832 Y99.395 F7200
G0 X167.267 Y98.404
G0 X167.267 Y98.404
G0 F3000 E1.03606
;segType:Loop
G1 X167.764 Y98.736 E1.05594 F1407
G1 X168.152 Y99.316 E1.07914
G1 X168.288 Y100.000 E1.10234
G1 X168.152 Y100.684 E1.12554
G1 X167.764 Y101.264 E1.14875
G1 X167.184 Y101.652 E1.17195
G1 X166.500 Y101.788 E1.19515
G1 X165.816 Y101.652 E1.21835
G1 X165.236 Y101.264 E1.24155
G1 X164.848 Y100.684 E1.26475
G1 X164.712 Y100.000 E1.28796
G1 X164.848 Y99.316 E1.31116
G1 X165.236 Y98.736 E1.33436
G1 X165.816 Y98.348 E1.35756
G1 X166.500 Y98.212 E1.38076
G1 X167.086 Y98.329 E1.40064
G0 X167.086 Y98.329 F7200
G0 X166.372 Y98.238
G0 X165.816 Y98.348
G0 X165.841 Y98.170
;segType:Perimeter
G1 X166.559 Y97.816 E1.42725 F844
G1 X167.340 Y97.972 E1.45375
G1 X168.053 Y98.447 E1.48224
G1 X168.529 Y99.160 E1.51074
G1 X168.696 Y100.000 E1.53923
G1 X168.529 Y100.840 E1.56773
G1 X168.053 Y101.553 E1.59622
G1 X167.340 Y102.028 E1.62472
G1 X166.500 Y102.196 E1.65321
G1 X165.660 Y102.028 E1.68170
G1 X164.947 Y101.553 E1.71020
G1 X164.471 Y100.840 E1.73869
G1 X164.304 Y100.000 E1.76719
G1 X164.471 Y99.160 E1.79568
G1 X164.947 Y98.447 E1.82418
G1 X165.660 Y97.972 E1.85267
G1 X166.441 Y97.816 E1.87917
G0 X166.559 Y97.816 F7200
G0 X167.340 Y97.972
G0 X168.008 Y98.418
; ------------------------------------
; Layer #17
; ------------------------------------
G92 E0 ;reset extr
G0 F3000 E-1.00000
G0 F600 Z3.600
G0 X167.764 Y98.736 F7200
G0 X167.494 Y98.555
G0 X164.891 Y99.251
G0 X164.848 Y99.316
G0 X164.712 Y100.000
G0 X160.288 Y100.000
G0 X160.152 Y100.684
G0 X160.094 Y100.771
G0 X157.226 Y101.250
G0 X157.236 Y101.264
G0 X157.816 Y101.652
G0 X157.735 Y101.165
G0 F3000 E0.00000
;segType:Infill
G1 X159.665 Y99.235 E0.10892 F1702
G0 X159.267 Y98.404 F7200
;segType:Loop
G1 X159.764 Y98.736 E0.12879 F1362
G1 X160.152 Y99.316 E0.15199
G1 X160.288 Y100.000 E0.17520
G1 X160.152 Y100.684 E0.19840
G1 X159.764 Y101.264 E0.22160
G1 X159.184 Y101.652 E0.24480
G1 X158.500 Y101.788 E0.26800
G1 X157.816 Y101.652 E0.29120
G1 X157.236 Y101.264 E0.31441
G1 X156.848 Y100.684 E0.33761
G1 X156.712 Y100.000 E0.36081
G1 X156.848 Y99.316 E0.38401
G1 X157.236 Y98.736 E0.40722
G1 X157.816 Y98.348 E0.43042
G1 X158.500 Y98.212 E0.45362
G1 X159.086 Y98.329 E0.47349
G0 X159.086 Y98.329 F7200
G0 X158.372 Y98.238
G0 X157.816 Y98.348
G0 X157.841 Y98.170
;segType:Perimeter
G1 X158.559 Y97.816 E0.50010 F817
G1 X159.340 Y97.972 E0.52659
G1 X160.053 Y98.447 E0.55509
G1 X160.529 Y99.160 E0.58358
G1 X160.696 Y100.000 E0.61208
G1 X160.529 Y100.840 E0.64057
G1 X160.053 Y101.553 E0.66907
G1 X159.340 Y102.028 E0.69757
G1 X158.500 Y102.196 E0.72605
G1 X157.660 Y102.028 E0.75455
G1 X156.947 Y101.553 E0.78304
G1 X156.471 Y100.840 E0.81154
G1 X156.304 Y100.000 E0.84004
G1 X156.471 Y99.160 E0.86853
G1 X156.947 Y98.447 E0.89703
G1 X157.660 Y97.972 E0.92552
G1 X158.441 Y97.816 E0.95202
G0 X158.559 Y97.816 F7200
G0 X159.340 Y97.972
G0 X160.008 Y98.418
G0 F3000 E-0.04798
G0 X160.053 Y98.447 F7200
G0 X160.529 Y99.160
G0 X160.696 Y100.000
G0 X164.712 Y100.000
G0 X164.848 Y100.684
G0 X165.103 Y101.066
G0 X167.274 Y101.591
G0 X167.184 Y101.652
G0 X166.500 Y101.788
G0 X166.538 Y101.413
G0 F3000 E0.95202
;segType:Infill
G1 X167.913 Y100.038 E1.02965 F1702
G0 F3000 E0.02965
G0 X168.157 Y100.656 F7200
G0 X167.267 Y98.404
G0 F3000 E1.02965
;segType:Loop
G1 X167.764 Y98.736 E1.04953 F1362
G1 X168.152 Y99.316 E1.07273
G1 X168.288 Y100.000 E1.09594
G1 X168.152 Y100.684 E1.11914
G1 X167.764 Y101.264 E1.14234
G1 X167.184 Y101.652 E1.16554
G1 X166.500 Y101.788 E1.18875
G1 X165.816 Y101.652 E1.21194
G1 X165.236 Y101.264 E1.23515
G1 X164.848 Y100.684 E1.25835
G1 X164.712 Y100.000 E1.28155
G1 X164.848 Y99.316 E1.30475
G1 X165.236 Y98.736 E1.32795
G1 X165.816 Y98.348 E1.35116
G1 X166.500 Y98.212 E1.37435
G1 X167.086 Y98.329 E1.39423
G0 X167.086 Y98.329 F7200
G0 X166.372 Y98.238
G0 X165.816 Y98.348
G0 X165.841 Y98.170
;segType:Perimeter
G1 X166.559 Y97.816 E1.42084 F817
G1 X167.340 Y97.972 E1.44734
G1 X168.053 Y98.447 E1.47583
G1 X168.529 Y99.160 E1.50433
G1 X168.696 Y100.000 E1.53283
G1 X168.529 Y100.840 E1.56132
G1 X168.053 Y101.553 E1.58982
G1 X167.340 Y102.028 E1.61831
G1 X166.500 Y102.196 E1.64681
G1 X165.660 Y102.028 E1.67530
G1 X164.947 Y101.553 E1.70379
G1 X164.471 Y100.840 E1.73229
G1 X164.304 Y100.000 E1.76078
G1 X164.471 Y99.160 E1.78928
G1 X164.947 Y98.447 E1.81777
G1 X165.660 Y97.972 E1.84627
G1 X166.441 Y97.816 E1.87276
G0 X166.559 Y97.816 F7200
G0 X167.340 Y97.972
G0 X168.008 Y98.418
; ------------------------------------
; Layer #18
; ------------------------------------
G92 E0 ;reset extr
G0 F3000 E-1.00000
G0 F600 Z3.800
G0 X167.764 Y98.736 F7200
G0 X167.520 Y98.572
G0 X164.827 Y99.425
G0 X164.712 Y100.000
G0 X160.288 Y100.000
G0 X160.152 Y100.684
G0 X158.560 Y101.409
G0 F3000 E0.00000
;segType:Infill
G1 X157.091 Y99.940 E0.08289 F1759
G0 F3000 E-0.91711
G0 X156.748 Y100.182 F7200
G0 X159.267 Y98.404
G0 X159.267 Y98.404
G0 F3000 E0.08289
;segType:Loop
G1 X159.764 Y98.736 E0.10277 F1407
G1 X160.152 Y99.316 E0.12597
G1 X160.288 Y100.000 E0.14917
G1 X160.152 Y100.684 E0.17238
G1 X159.764 Y101.264 E0.19558
G1 X159.184 Y101.652 E0.21878
G1 X158.500 Y101.788 E0.24198
G1 X157.816 Y101.652 E0.26518
G1 X157.236 Y101.264 E0.28838
G1 X156.848 Y100.684 E0.31159
G1 X156.712 Y100.000 E0.33479
G1 X156.848 Y99.316 E0.35799
G1 X157.236 Y98.736 E0.38119
G1 X157.816 Y98.348 E0.40440
G1 X158.500 Y98.212 E0.42760
G1 X159.086 Y98.329 E0.44747
G0 X159.086 Y98.329 F7200
G0 X158.372 Y98.238
G0 X157.816 Y98.348
G0 X157.841 Y98.170
;segType:Perimeter
G1 X158.559 Y97.816 E0.47408 F844
G1 X159.340 Y97.972 E0.50057
G1 X160.053 Y98.447 E0.52907
G1 X160.529 Y99.160 E0.55756
G1 X160.696 Y100.000 E0.58606
G1 X160.529 Y100.840 E0.61455
G1 X160.053 Y101.553 E0.64305
G1 X159.340 Y102.028 E0.67154
G1 X158.500 Y102.196 E0.70003
G1 X157.660 Y102.028 E0.72853
G1 X156.947 Y101.553 E0.75702
G1 X156.471 Y100.840 E0.78552
G1 X156.304 Y100.000 E0.81401
G1 X156.471 Y99.160 E0.84251
G1 X156.947 Y98.447 E0.87101
G1 X157.660 Y97.972 E0.89950
G1 X158.441 Y97.816 E0.92600
G0 X158.559 Y97.816 F7200
G0 X159.340 Y97.972
G0 X160.008 Y98.418
G0 F3000 E-0.07400
G0 X160.053 Y98.447 F7200
G0 X160.529 Y99.160
G0 X160.696 Y100.000
G0 X164.712 Y100.000
G0 X164.848 Y100.684
G0 X164.863 Y100.706
G0 X167.804 Y101.205
G0 X167.764 Y101.264
G0 X167.326 Y101.124
G0 F3000 E0.92600
;segType:Infill
G1 X165.376 Y99.174 E1.03606 F1759
G0 F3000 E0.03606
G0 X164.832 Y99.395 F7200
G0 X167.267 Y98.404
G0 F3000 E1.03606
;segType:Loop
G1 X167.764 Y98.736 E1.05594 F1407
G1 X168.152 Y99.316 E1.07914
G1 X168.288 Y100.000 E1.10234
G1 X168.152 Y100.684 E1.12554
G1 X167.764 Y101.264 E1.14875
G1 X167.184 Y101.652 E1.17195
G1 X166.500 Y101.788 E1.19515
G1 X165.816 Y101.652 E1.21835
G1 X165.236 Y101.264 E1.24155
G1 X164.848 Y100.684 E1.26475
G1 X164.712 Y100.000 E1.28796
G1 X164.848 Y99.316 E1.31116
G1 X165.236 Y98.736 E1.33436
G1 X165.816 Y98.348 E1.35756
G1 X166.500 Y98.212 E1.38076
G1 X167.086 Y98.329 E1.40064
G0 X167.086 Y98.329 F7200
G0 X166.372 Y98.238
G0 X165.816 Y98.348
G0 X165.841 Y98.170
;segType:Perimeter
G1 X166.559 Y97.816 E1.42725 F844
G1 X167.340 Y97.972 E1.45375
G1 X168.053 Y98.447 E1.48224
G1 X168.529 Y99.160 E1.51074
G1 X168.696 Y100.000 E1.53923
G1 X168.529 Y100.840 E1.56773
G1 X168.053 Y101.553 E1.59622
G1 X167.340 Y102.028 E1.62472
G1 X166.500 Y102.196 E1.65321
G1 X165.660 Y102.028 E1.68170
G1 X164.947 Y101.553 E1.71020
G1 X164.471 Y100.840 E1.73869
G1 X164.304 Y100.000 E1.76719
G1 X164.471 Y99.160 E1.79568
G1 X164.947 Y98.447 E1.82418
G1 X165.660 Y97.972 E1.85267
G1 X166.441 Y97.816 E1.87917
G0 X166.559 Y97.816 F7200
G0 X167.340 Y97.972
G0 X168.008 Y98.418
; ------------------------------------
; Layer #19
; ------------------------------------
G92 E0 ;reset extr
G0 F3000 E-1.00000
G0 F600 Z4.000
G0 X167.764 Y98.736 F7200
G0 X167.494 Y98.555
G0 X164.891 Y99.251
G0 X164.848 Y99.316
G0 X164.712 Y100.000
G0 X160.288 Y100.000
G0 X160.152 Y100.684
G0 X160.094 Y100.771
G0 X157.226 Y101.250
G0 X157.236 Y101.264
G0 X157.816 Y101.652
G0 X157.735 Y101.165
G0 F3000 E0.00000
;segType:Infill
G1 X159.665 Y99.235 E0.10892 F1702
G0 X159.267 Y98.404 F7200
;segType:Loop
G1 X159.764 Y98.736 E0.12879 F1362
G1 X160.152 Y99.316 E0.15199
G1 X160.288 Y100.000 E0.17520
G1 X160.152 Y100.684 E0.19840
G1 X159.764 Y101.264 E0.22160
G1 X159.184 Y101.652 E0.24480
G1 X158.500 Y101.788 E0.26800
G1 X157.816 Y101.652 E0.29120
G1 X157.236 Y101.264 E0.31441
G1 X156.848 Y100.684 E0.33761
G1 X156.712 Y100.000 E0.36081
G1 X156.848 Y99.316 E0.38401
G1 X157.236 Y98.736 E0.40722
G1 X157.816 Y98.348 E0.43042
G1 X158.500 Y98.212 E0.45362
G1 X159.086 Y98.329 E0.47349
G0 X159.086 Y98.329 F7200
G0 X158.372 Y98.238
G0 X157.816 Y98.348
G0 X157.841 Y98.170
;segType:Perimeter
G1 X158.559 Y97.816 E0.50010 F817
G1 X159.340 Y97.972 E0.52659
G1 X160.053 Y98.447 E0.55509
G1 X160.529 Y99.160 E0.58358
G1 X160.696 Y100.000 E0.61208
G1 X160.529 Y100.840 E0.64057
G1 X160.053 Y101.553 E0.66907
G1 X159.340 Y102.028 E0.69756
G1 X158.500 Y102.196 E0.72605
G1 X157.660 Y102.028 E0.75455
G1 X156.947 Y101.553 E0.78304
G1 X156.471 Y100.840 E0.81154
G1 X156.304 Y100.000 E0.84003
G1 X156.471 Y99.160 E0.86853
G1 X156.947 Y98.447 E0.89703
G1 X157.660 Y97.972 E0.92552
G1 X158.441 Y97.816 E0.95202
G0 X158.559 Y97.816 F7200
G0 X159.340 Y97.972
G0 X160.008 Y98.418
G0 F3000 E-0.04798
G0 X160.053 Y98.447 F7200
G0 X160.529 Y99.160
G0 X160.696 Y100.000
G0 X164.712 Y100.000
G0 X164.848 Y100.684
G0 X165.103 Y101.066
G0 X167.274 Y101.591
G0 X167.184 Y101.652
G0 X166.500 Y101.788
G0 X166.538 Y101.413
G0 F3000 E0.95202
;segType:Infill
G1 X167.913 Y100.038 E1.02965 F1702
G0 F3000 E0.02965
G0 X168.157 Y100.656 F7200
G0 X167.267 Y98.404
G0 X167.267 Y98.404
G0 F3000 E1.02965
;segType:Loop
G1 X167.764 Y98.736 E1.04953 F1362
G1 X168.152 Y99.316 E1.07273
G1 X168.288 Y100.000 E1.09594
G1 X168.152 Y100.684 E1.11914
G1 X167.764 Y101.264 E1.14234
G1 X167.184 Y101.652 E1.16554
G1 X166.500 Y101.788 E1.18874
G1 X165.816 Y101.652 E1.21194
G1 X165.236 Y101.264 E1.23514
G1 X164.848 Y100.684 E1.25835
G1 X164.712 Y100.000 E1.28155
G1 X164.848 Y99.316 E1.30475
G1 X165.236 Y98.736 E1.32795
G1 X165.816 Y98.348 E1.35116
G1 X166.500 Y98.212 E1.37435
G1 X167.086 Y98.329 E1.39423
G0 X167.086 Y98.329 F7200
G0 X166.372 Y98.238
G0 X165.816 Y98.348
G0 X165.841 Y98.170
;segType:Perimeter
G1 X166.559 Y97.816 E1.42084 F817
G1 X167.340 Y97.972 E1.44734
G1 X168.053 Y98.447 E1.47583
G1 X168.529 Y99.160 E1.50433
G1 X168.696 Y100.000 E1.53282
G1 X168.529 Y100.840 E1.56132
G1 X168.053 Y101.553 E1.58982
G1 X167.340 Y102.028 E1.61831
G1 X166.500 Y102.196 E1.64681
G1 X165.660 Y102.028 E1.67529
G1 X164.947 Y101.553 E1.70379
G1 X164.471 Y100.840 E1.73229
G1 X164.304 Y100.000 E1.76078
G1 X164.471 Y99.160 E1.78927
G1 X164.947 Y98.447 E1.81777
G1 X165.660 Y97.972 E1.84627
G1 X166.441 Y97.816 E1.87276
G0 X166.559 Y97.816 F7200
G0 X167.340 Y97.972
G0 X168.008 Y98.418
; ------------------------------------
; Layer #20
; ------------------------------------
G92 E0 ;reset extr
G0 F3000 E-1.00000
G0 F600 Z4.200
G0 X167.764 Y98.736 F7200
G0 X167.520 Y98.572
G0 X164.827 Y99.425
G0 X164.712 Y100.000
G0 X160.288 Y100.000
G0 X160.152 Y100.684
G0 X158.560 Y101.409
G0 F3000 E0.00000
;segType:Infill
G1 X157.091 Y99.940 E0.08289 F1759
G0 F3000 E-0.91711
G0 X156.748 Y100.182 F7200
G0 X159.267 Y98.404
G0 X159.267 Y98.404
G0 F3000 E0.08289
;segType:Loop
G1 X159.764 Y98.736 E0.10277 F1407
G1 X160.152 Y99.316 E0.12597
G1 X160.288 Y100.000 E0.14917
G1 X160.152 Y100.684 E0.17238
G1 X159.764 Y101.264 E0.19558
G1 X159.184 Y101.652 E0.21878
G1 X158.500 Y101.788 E0.24198
G1 X157.816 Y101.652 E0.26518
G1 X157.236 Y101.264 E0.28838
G1 X156.848 Y100.684 E0.31159
G1 X156.712 Y100.000 E0.33479
G1 X156.848 Y99.316 E0.35799
G1 X157.236 Y98.736 E0.38119
G1 X157.816 Y98.348 E0.40440
G1 X158.500 Y98.212 E0.42760
G1 X159.086 Y98.329 E0.44747
G0 X159.086 Y98.329 F7200
G0 X158.372 Y98.238
G0 X157.816 Y98.348
G0 X157.841 Y98.170
;segType:Perimeter
G1 X158.559 Y97.816 E0.47408 F844
G1 X159.340 Y97.972 E0.50057
G1 X160.053 Y98.447 E0.52906
G1 X160.529 Y99.160 E0.55756
G1 X160.696 Y100.000 E0.58606
G1 X160.529 Y100.840 E0.61455
G1 X160.053 Y101.553 E0.64305
G1 X159.340 Y102.028 E0.67154
G1 X158.500 Y102.196 E0.70003
G1 X157.660 Y102.028 E0.72853
G1 X156.947 Y101.553 E0.75702
G1 X156.471 Y100.840 E0.78552
G1 X156.304 Y100.000 E0.81401
G1 X156.471 Y99.160 E0.84251
G1 X156.947 Y98.447 E0.87100
G1 X157.660 Y97.972 E0.89950
G1 X158.441 Y97.816 E0.92600
G0 X158.559 Y97.816 F7200
G0 X159.340 Y97.972
G0 X160.008 Y98.418
G0 F3000 E-0.07400
G0 X160.053 Y98.447 F7200
G0 X160.529 Y99.160
G0 X160.696 Y100.000
G0 X164.712 Y100.000
G0 X164.848 Y100.684
G0 X164.863 Y100.706
G0 X167.804 Y101.205
G0 X167.764 Y101.264
G0 X167.326 Y101.124
G0 F3000 E0.92600
;segType:Infill
G1 X165.376 Y99.174 E1.03606 F1759
G0 F3000 E0.03606
G0 X164.832 Y99.395 F7200
G0 X167.267 Y98.404
G0 F3000 E1.03606
;segType:Loop
G1 X167.764 Y98.736 E1.05594 F1407
G1 X168.152 Y99.316 E1.07914
G1 X168.288 Y100.000 E1.10234
G1 X168.152 Y100.684 E1.12554
G1 X167.764 Y101.264 E1.14874
G1 X167.184 Y101.652 E1.17195
G1 X166.500 Y101.788 E1.19515
G1 X165.816 Y101.652 E1.21835
G1 X165.236 Y101.264 E1.24155
G1 X164.848 Y100.684 E1.26475
G1 X164.712 Y100.000 E1.28795
G1 X164.848 Y99.316 E1.31116
G1 X165.236 Y98.736 E1.33436
G1 X165.816 Y98.348 E1.35756
G1 X166.500 Y98.212 E1.38076
G1 X167.086 Y98.329 E1.40064
G0 X167.086 Y98.329 F7200
G0 X166.372 Y98.238
G0 X165.816 Y98.348
G0 X165.841 Y98.170
;segType:Perimeter
G1 X166.559 Y97.816 E1.42724 F844
G1 X167.340 Y97.972 E1.45374
G1 X168.053 Y98.447 E1.48224
G1 X168.529 Y99.160 E1.51073
G1 X168.696 Y100.000 E1.53923
G1 X168.529 Y100.840 E1.56772
G1 X168.053 Y101.553 E1.59622
G1 X167.340 Y102.028 E1.62472
G1 X166.500 Y102.196 E1.65321
G1 X165.660 Y102.028 E1.68170
G1 X164.947 Y101.553 E1.71019
G1 X164.471 Y100.840 E1.73869
G1 X164.304 Y100.000 E1.76719
G1 X164.471 Y99.160 E1.79568
G1 X164.947 Y98.447 E1.82418
G1 X165.660 Y97.972 E1.85267
G1 X166.441 Y97.816 E1.87916
G0 X166.559 Y97.816 F7200
G0 X167.340 Y97.972
G0 X168.008 Y98.418
; ------------------------------------
; Layer #21
; ------------------------------------
G92 E0 ;reset extr
G0 F3000 E-1.00000
G0 F600 Z4.400
G0 X167.764 Y98.736 F7200
G0 X167.494 Y98.555
G0 X164.891 Y99.251
G0 X164.848 Y99.316
G0 X164.712 Y100.000
G0 X160.288 Y100.000
G0 X160.152 Y100.684
G0 X160.094 Y100.771
G0 X157.226 Y101.250
G0 X157.236 Y101.264
G0 X157.816 Y101.652
G0 X157.735 Y101.165
G0 F3000 E0.00000
;segType:HShell
G1 X159.665 Y99.235 E0.09076 F1951
G0 X159.405 Y98.929 F7200
G1 X157.429 Y100.905 E0.18372 F1951
G0 X157.202 Y100.566 F7200
G1 X159.066 Y98.703 E0.27138 F1951
G0 X158.603 Y98.600 F7200
G1 X157.100 Y100.103 E0.34209 F1951
G0 X157.200 Y99.437 F7200
G1 X157.936 Y98.701 E0.37671 F1951
G0 X157.841 Y98.170 F7200
;segType:Perimeter
G1 X158.559 Y97.816 E0.40332 F1171
G1 X159.340 Y97.972 E0.42981
G1 X160.053 Y98.447 E0.45831
G1 X160.529 Y99.160 E0.48681
G1 X160.696 Y100.000 E0.51530
G1 X160.529 Y100.840 E0.54380
G1 X160.053 Y101.553 E0.57229
G1 X159.340 Y102.028 E0.60079
G1 X158.500 Y102.196 E0.62928
G1 X157.660 Y102.028 E0.65777
G1 X156.947 Y101.553 E0.68627
G1 X156.471 Y100.840 E0.71476
G1 X156.304 Y100.000 E0.74326
G1 X156.471 Y99.160 E0.77175
G1 X156.947 Y98.447 E0.80025
G1 X157.660 Y97.972 E0.82874
G1 X158.441 Y97.816 E0.85524
G0 X158.559 Y97.816 F7200
G0 X159.340 Y97.972
G0 X160.008 Y98.418
G0 X159.764 Y98.736
G0 X159.267 Y98.404
;segType:Loop
G1 X159.764 Y98.736 E0.87512 F1951
G1 X160.152 Y99.316 E0.89832
G1 X160.288 Y100.000 E0.92153
G1 X160.152 Y100.684 E0.94473
G1 X159.764 Y101.264 E0.96793
G1 X159.184 Y101.652 E0.99113
G1 X158.500 Y101.788 E1.01433
G1 X157.816 Y101.652 E1.03753
G1 X157.236 Y101.264 E1.06074
G1 X156.848 Y100.684 E1.08394
G1 X156.712 Y100.000 E1.10714
G1 X156.848 Y99.316 E1.13034
G1 X157.236 Y98.736 E1.15355
G1 X157.816 Y98.348 E1.17675
G1 X158.500 Y98.212 E1.19995
G1 X159.086 Y98.329 E1.21982
G0 F3000 E0.21982
G0 X158.010 Y101.690 F7200
G0 X158.121 Y101.345
G0 F3000 E1.21982
;segType:HShell
G1 X159.845 Y99.621 E1.30094 F1951
G0 X159.893 Y100.138 F7200
G1 X158.638 Y101.393 E1.35998 F1951
G0 F3000 E0.35998
G0 X159.764 Y101.264 F7200
G0 X160.152 Y100.684
G0 X160.288 Y100.000
G0 X164.712 Y100.000
G0 X164.848 Y100.684
G0 X165.687 Y101.133
G0 F3000 E1.35998
G1 X167.633 Y99.187 E1.45149 F1951
G0 X167.357 Y98.897 F7200
G1 X165.397 Y100.857 E1.54370 F1951
G0 X165.180 Y100.508 F7200
G1 X167.008 Y98.680 E1.62966 F1951
G0 X166.536 Y98.586 F7200
G1 X165.087 Y100.036 E1.69784 F1951
G0 X165.362 Y99.195 F7200
G1 X165.694 Y98.863 E1.71345 F1951
G0 X165.816 Y98.348 F7200
G0 X165.841 Y98.170
;segType:Perimeter
G1 X166.559 Y97.816 E1.74006 F1171
G1 X167.340 Y97.972 E1.76656
G1 X168.053 Y98.447 E1.79506
G1 X168.529 Y99.160 E1.82355
G1 X168.696 Y100.000 E1.85205
G1 X168.529 Y100.840 E1.88054
G1 X168.053 Y101.553 E1.90904
G1 X167.340 Y102.028 E1.93753
G1 X166.500 Y102.196 E1.96603
G1 X165.660 Y102.028 E1.99452
G1 X164.947 Y101.553 E2.02301
G1 X164.471 Y100.840 E2.05151
G1 X164.304 Y100.000 E2.08000
G1 X164.471 Y99.160 E2.10850
G1 X164.947 Y98.447 E2.13700
G1 X165.660 Y97.972 E2.16549
G1 X166.441 Y97.816 E2.19198
G0 X166.559 Y97.816 F7200
G0 X167.340 Y97.972
G0 X168.008 Y98.418
G0 X167.764 Y98.736
G0 X167.267 Y98.404
;segType:Loop
G1 X167.764 Y98.736 E2.21186 F1951
G1 X168.152 Y99.316 E2.23506
G1 X168.288 Y100.000 E2.25827
G1 X168.152 Y100.684 E2.28147
G1 X167.764 Y101.264 E2.30467
G1 X167.184 Y101.652 E2.32787
G1 X166.500 Y101.788 E2.35108
G1 X165.816 Y101.652 E2.37427
G1 X165.236 Y101.264 E2.39748
G1 X164.848 Y100.684 E2.42068
G1 X164.712 Y100.000 E2.44388
G1 X164.848 Y99.316 E2.46708
G1 X165.236 Y98.736 E2.49029
G1 X165.816 Y98.348 E2.51349
G1 X166.500 Y98.212 E2.53668
G1 X167.086 Y98.329 E2.55656
G0 F3000 E1.55656
G0 X165.935 Y101.675 F7200
G0 X166.053 Y101.332
G0 F3000 E2.55656
;segType:HShell
G1 X167.832 Y99.553 E2.64021 F1951
G0 X167.913 Y100.038 F7200
G1 X166.538 Y101.413 E2.70491 F1951
; ------------------------------------
; Layer #22
; ------------------------------------
G92 E0 ;reset extr
G0 F3000 E-1.00000
G0 F600 Z4.600
G0 X167.303 Y101.572 F7200
G0 X165.141 Y101.123
G0 X164.848 Y100.684
G0 X164.712 Y100.000
G0 X160.288 Y100.000
G0 X160.225 Y99.683
G0 X156.823 Y99.443
G0 X157.185 Y99.468
G0 F3000 E0.00000
;segType:HShell
G1 X159.032 Y101.315 E0.08686 F1958
G0 X159.374 Y101.092 F7200
G1 X157.408 Y99.126 E0.17932 F1958
G0 X157.704 Y98.856 F7200
G1 X159.644 Y100.796 E0.27057 F1958
G0 X159.837 Y100.423 F7200
G1 X158.077 Y98.663 E0.35333 F1958
G0 X157.841 Y98.170 F7200
;segType:Perimeter
G1 X158.559 Y97.816 E0.37994 F1175
G1 X159.340 Y97.972 E0.40643
G1 X160.053 Y98.447 E0.43493
G1 X160.529 Y99.160 E0.46342
G1 X160.696 Y100.000 E0.49192
G1 X160.529 Y100.840 E0.52041
G1 X160.053 Y101.553 E0.54891
G1 X159.340 Y102.028 E0.57740
G1 X158.500 Y102.196 E0.60589
G1 X157.660 Y102.028 E0.63439
G1 X156.947 Y101.553 E0.66288
G1 X156.471 Y100.840 E0.69138
G1 X156.304 Y100.000 E0.71987
G1 X156.471 Y99.160 E0.74837
G1 X156.947 Y98.447 E0.77687
G1 X157.660 Y97.972 E0.80536
G1 X158.441 Y97.816 E0.83186
G0 X158.559 Y97.816 F7200
G0 X159.340 Y97.972
G0 X160.008 Y98.418
G0 X159.764 Y98.736
G0 X159.267 Y98.404
;segType:Loop
G1 X159.764 Y98.736 E0.85174 F1958
G1 X160.152 Y99.316 E0.87494
G1 X160.288 Y100.000 E0.89814
G1 X160.152 Y100.684 E0.92134
G1 X159.764 Y101.264 E0.94455
G1 X159.184 Y101.652 E0.96775
G1 X158.500 Y101.788 E0.99094
G1 X157.816 Y101.652 E1.01415
G1 X157.236 Y101.264 E1.03735
G1 X156.848 Y100.684 E1.06055
G1 X156.712 Y100.000 E1.08376
G1 X156.848 Y99.316 E1.10696
G1 X157.236 Y98.736 E1.13016
G1 X157.816 Y98.348 E1.15336
G1 X158.500 Y98.212 E1.17657
G1 X159.086 Y98.329 E1.19644
G0 X158.573 Y98.594 F7200
;segType:HShell
G1 X159.906 Y99.927 E1.25913 F1958
G0 F3000 E0.25913
G0 X160.252 Y99.821 F7200
G0 X156.945 Y100.829
G0 X157.305 Y100.720
G0 F3000 E1.25913
G1 X157.780 Y101.195 E1.28146 F1958
G0 X158.560 Y101.409 F7200
G1 X157.091 Y99.940 E1.35054 F1958
G0 F3000 E0.35054
G0 X156.732 Y99.899 F7200
G0 X160.228 Y100.303
G0 X160.288 Y100.000
G0 X164.712 Y100.000
G0 X164.848 Y100.684
G0 X164.881 Y100.734
G0 X167.807 Y101.201
G0 X167.764 Y101.264
G0 X167.326 Y101.124
G0 F3000 E1.35054
G1 X165.376 Y99.174 E1.44226 F1958
G0 X165.656 Y98.888 F7200
G1 X167.612 Y100.844 E1.53426 F1958
G0 X167.594 Y99.130 F7200
G1 X167.371 Y98.906 E1.54479 F1958
G0 X166.482 Y98.583 F7200
G1 X167.917 Y100.018 E1.61230 F1958
G0 X167.823 Y100.490 F7200
G1 X166.010 Y98.677 E1.69758 F1958
G0 X165.841 Y98.170 F7200
;segType:Perimeter
G1 X166.559 Y97.816 E1.72419 F1175
G1 X167.340 Y97.972 E1.75069
G1 X168.053 Y98.447 E1.77919
G1 X168.529 Y99.160 E1.80768
G1 X168.696 Y100.000 E1.83618
G1 X168.529 Y100.840 E1.86467
G1 X168.053 Y101.553 E1.89317
G1 X167.340 Y102.028 E1.92166
G1 X166.500 Y102.196 E1.95016
G1 X165.660 Y102.028 E1.97865
G1 X164.947 Y101.553 E2.00714
G1 X164.471 Y100.840 E2.03564
G1 X164.304 Y100.000 E2.06413
G1 X164.471 Y99.160 E2.09263
G1 X164.947 Y98.447 E2.12113
G1 X165.660 Y97.972 E2.14962
G1 X166.441 Y97.816 E2.17611
G0 X166.559 Y97.816 F7200
G0 X167.340 Y97.972
G0 X168.008 Y98.418
G0 X167.764 Y98.736
G0 X167.267 Y98.404
;segType:Loop
G1 X167.764 Y98.736 E2.19599 F1958
G1 X168.152 Y99.316 E2.21919
G1 X168.288 Y100.000 E2.24240
G1 X168.152 Y100.684 E2.26560
G1 X167.764 Y101.264 E2.28880
G1 X167.184 Y101.652 E2.31200
G1 X166.500 Y101.788 E2.33521
G1 X165.816 Y101.652 E2.35840
G1 X165.236 Y101.264 E2.38160
G1 X164.848 Y100.684 E2.40481
G1 X164.712 Y100.000 E2.42801
G1 X164.848 Y99.316 E2.45121
G1 X165.236 Y98.736 E2.47441
G1 X165.816 Y98.348 E2.49762
G1 X166.500 Y98.212 E2.52081
G1 X167.086 Y98.329 E2.54069
G0 F3000 E1.54069
G0 X164.752 Y99.800 F7200
G0 X164.848 Y99.316
G0 X165.172 Y99.535
G0 F3000 E2.54069
;segType:HShell
G1 X166.965 Y101.328 E2.62502 F1958
G0 X166.489 Y101.419 F7200
G1 X165.082 Y100.011 E2.69123 F1958
G0 X165.467 Y100.962 F7200
G1 X165.538 Y101.033 E2.69455 F1958
; ------------------------------------
; Layer #23
; ------------------------------------
G92 E0 ;reset extr
G0 F3000 E-1.00000
G0 F600 Z4.800
G0 X164.848 Y100.684 F7200
G0 X164.712 Y100.000
G0 X160.288 Y100.000
G0 X160.152 Y100.684
G0 X160.094 Y100.771
G0 X157.226 Y101.250
G0 X157.236 Y101.264
G0 X157.816 Y101.652
G0 X157.735 Y101.165
G0 F3000 E0.00000
;segType:HShell
G1 X159.665 Y99.235 E0.09076 F1951
G0 X159.405 Y98.929 F7200
G1 X157.429 Y100.905 E0.18372 F1951
G0 X157.202 Y100.566 F7200
G1 X159.066 Y98.703 E0.27138 F1951
G0 X158.603 Y98.600 F7200
G1 X157.100 Y100.103 E0.34209 F1951
G0 X157.200 Y99.437 F7200
G1 X157.936 Y98.701 E0.37671 F1951
G0 X157.841 Y98.170 F7200
;segType:Perimeter
G1 X158.559 Y97.816 E0.40331 F1170
G1 X159.340 Y97.972 E0.42981
G1 X160.053 Y98.447 E0.45830
G1 X160.529 Y99.160 E0.48680
G1 X160.696 Y100.000 E0.51529
G1 X160.529 Y100.840 E0.54379
G1 X160.053 Y101.553 E0.57228
G1 X159.340 Y102.028 E0.60078
G1 X158.500 Y102.196 E0.62927
G1 X157.660 Y102.028 E0.65776
G1 X156.947 Y101.553 E0.68626
G1 X156.471 Y100.840 E0.71475
G1 X156.304 Y100.000 E0.74325
G1 X156.471 Y99.160 E0.77174
G1 X156.947 Y98.447 E0.80024
G1 X157.660 Y97.972 E0.82873
G1 X158.441 Y97.816 E0.85523
G0 X158.559 Y97.816 F7200
G0 X159.340 Y97.972
G0 X160.008 Y98.418
G0 X159.764 Y98.736
G0 X159.267 Y98.404
;segType:Loop
G1 X159.764 Y98.736 E0.87511 F1951
G1 X160.152 Y99.316 E0.89831
G1 X160.288 Y100.000 E0.92152
G1 X160.152 Y100.684 E0.94472
G1 X159.764 Y101.264 E0.96792
G1 X159.184 Y101.652 E0.99112
G1 X158.500 Y101.788 E1.01432
G1 X157.816 Y101.652 E1.03752
G1 X157.236 Y101.264 E1.06073
G1 X156.848 Y100.684 E1.08393
G1 X156.712 Y100.000 E1.10713
G1 X156.848 Y99.316 E1.13033
G1 X157.236 Y98.736 E1.15354
G1 X157.816 Y98.348 E1.17674
G1 X158.500 Y98.212 E1.19994
G1 X159.086 Y98.329 E1.21981
G0 F3000 E0.21981
G0 X159.086 Y98.329 F7200
G0 X158.583 Y101.771
G0 X158.638 Y101.393
G0 F3000 E1.21981
;segType:HShell
G1 X159.893 Y100.138 E1.27885 F1951
G0 X159.845 Y99.620 F7200
G1 X158.121 Y101.345 E1.35997 F1951
G0 F3000 E0.35997
G0 X157.388 Y101.366 F7200
G0 X159.710 Y101.301
G0 X159.764 Y101.264
G0 X160.152 Y100.684
G0 X160.288 Y100.000
G0 X164.712 Y100.000
G0 X164.848 Y100.684
G0 X165.687 Y101.133
G0 F3000 E1.35997
G1 X167.633 Y99.187 E1.45149 F1951
G0 X167.357 Y98.897 F7200
G1 X165.397 Y100.857 E1.54369 F1951
G0 X165.180 Y100.508 F7200
G1 X167.008 Y98.680 E1.62965 F1951
G0 X166.536 Y98.586 F7200
G1 X165.087 Y100.036 E1.69783 F1951
G0 X165.362 Y99.194 F7200
G1 X165.694 Y98.863 E1.71343 F1951
G0 X165.816 Y98.348 F7200
G0 X165.841 Y98.170
;segType:Perimeter
G1 X166.559 Y97.816 E1.74004 F1170
G1 X167.340 Y97.972 E1.76654
G1 X168.053 Y98.447 E1.79504
G1 X168.529 Y99.160 E1.82353
G1 X168.696 Y100.000 E1.85203
G1 X168.529 Y100.840 E1.88052
G1 X168.053 Y101.553 E1.90902
G1 X167.340 Y102.028 E1.93751
G1 X166.500 Y102.196 E1.96601
G1 X165.660 Y102.028 E1.99450
G1 X164.947 Y101.553 E2.02299
G1 X164.471 Y100.840 E2.05149
G1 X164.304 Y100.000 E2.07998
G1 X164.471 Y99.160 E2.10848
G1 X164.947 Y98.447 E2.13697
G1 X165.660 Y97.972 E2.16547
G1 X166.441 Y97.816 E2.19196
G0 X166.559 Y97.816 F7200
G0 X167.340 Y97.972
G0 X168.008 Y98.418
G0 X167.764 Y98.736
G0 X167.267 Y98.404
;segType:Loop
G1 X167.764 Y98.736 E2.21184 F1951
G1 X168.152 Y99.316 E2.23504
G1 X168.288 Y100.000 E2.25824
G1 X168.152 Y100.684 E2.28145
G1 X167.764 Y101.264 E2.30465
G1 X167.184 Y101.652 E2.32785
G1 X166.500 Y101.788 E2.35105
G1 X165.816 Y101.652 E2.37425
G1 X165.236 Y101.264 E2.39745
G1 X164.848 Y100.684 E2.42065
G1 X164.712 Y100.000 E2.44386
G1 X164.848 Y99.316 E2.46706
G1 X165.236 Y98.736 E2.49026
G1 X165.816 Y98.348 E2.51347
G1 X166.500 Y98.212 E2.53666
G1 X167.086 Y98.329 E2.55654
G0 F3000 E1.55654
G0 X166.472 Y101.782 F7200
G0 X166.538 Y101.413
G0 F3000 E2.55654
;segType:HShell
G1 X167.913 Y100.038 E2.62123 F1951
G0 X167.832 Y99.553 F7200
G1 X166.053 Y101.332 E2.70489 F1951


G91
G0 E-1 F2400 ; retract 1mm
G0 Z5 F2400 ; lift Z 5mm
G90
G28 X Y ; home horizontally

M104 S0 ;turn off head heater
M140 S0 ;turn off bed heater
M106 S0 ;turn off fan
;CraftWare_Settings=AAASb3jajVjfj9o4EH7vX1Ht8wk5IbBwPLWwlJV2C9rQXWlV6eQlBtwLduQ429Lq/vcb23FiO2FbHuebjOfHN+Mxv969h9/Vh92O5HMuGBFzTvZXf79P/nKQG4ZfcgLSPc5L4iL3+AeIJwh5QsrSgpAMkMgDtvREUkkKAOIGyCURDEvKDnecFwsqwnNeOc3mgpclqGyIABvwRQlaUlSe0ornpE9+W+aYZX3I9ihIeeS5cjXuBUzomf/tR5JtyUmFcY180VvqT5jKAIBg5rxi0km4kvXmWwErgpVte+hc4L1UsvkRswPxjS9oqaxonY9c6gJ0NIocnyGnO8IkPoQnLgT+bgs5tmcuKpyrI9OqKLiQgUcBmkqBJTmcHY0bLPLzzQ9wo6ScLQg4oBnUC/cmQqMZEdq1+ypX2YtcTH35RDN5VMcOEmR+o+kYJeNkVGsuMYvrFK3ZkopSfr7DZyIcY0ql8cDJm5Lrw+vM+Z/83ugFmxdNQk+yjEqISnMT2uACbLvEYbMLL+h+vz0Xukf6Pk/xiVgctfhW4NeQOkuagzKTC4p1OyqLg+smtypyHbhLoQR14LdK2WqtCD0cpS5mXBcznk5QPIzjpKOsOo0A6ypBeo2ZaKxPyHX6xxNlKrs3QvBwwHya84wsOTexXl25YkV4X7xKjyTPP7CDLnPDOUd8y3aATJGHzHXhh6EMulfyUwdZEFZSeXaiNPLeGWSge7oT3GSg7MfZHWXkjrCO1b4SGURRxmGMEdr+81Wf6eEZH9aFpCf6EyvOOVRd4XJD8xyLwDPIbpxKmOAvOtamYC7QxuxOCq1RT+o4GoXS/kRZtDuu20l7w4AHG3UVOZM7gB8IDL+ddDPTKLSM7kDtZ127zjiNHXAjSIGFTuflPLhKdki6lFJD+0KSf5vj3hS/meGLCZZfipSegGaYEV6V+bmrAR26FqbhbPpu2Z729JsjDvrNIG0HoUGUTPUvgotiiIbxxNPsDcRAXmMMYv/soDeMsOmNQWTOjCfJdZLE42GjBouY3oY6Ld5AYYOZJWfFi8K/AIy8ZpXpwqCCnkazYPUqAROE3HD3gvjTCa31HhSL/2nmGepiW17otREhD0x3ghbSHbF3wKJbZiZV7MnWlbRMaAipEJB31UH4RAu3jUH6SrZHNdXlmgVpUJk3RVy/EpHjwnCnjhk4hKJoHNkDYJyuMBXtLhI19ADIpHRrhkjUyk3A9QXV7MkWqPWtnfV+XxIJ9XpMfHLqFrl1d7MNlsf0BFfY0TAEDdC14d8kjqLJGI3HVtOS4FMd4LCOL5rGCNg67Si6TYAGI2N2nMTD6zgaRqF2yF0z9h2y24zGw0kSTUYTXw92iuAiMkAz15pufMuMXWGAEwftzTCE884J6RF7/VxL6U/ilqqW8pxmumSlY/wBtnFYuPZUVeBKjYeZ00GzZTuVZprEsyaoD9m3qpQzZUBn+yuLZtBus2iA0GyKZtEshop+ZVfOSX2b5kP9ZnDCUCJDJJ21cW/WtBLLz1+YWtjMfh9apiXRm9b65RvZSbv6onYq1lPGsntkPUj/pUL2bvsaCfzVMmgI+3YK5U1JY/+AJkbrTsohmSaUtkkbsKAC56a2nkdqCFZFvbu6x9ePnp5NqXPIJOltERh/J17KC/udi/bfxq7GH/Wk+0FwWblQ2LFmh+ysMUYMFYBHkLvKGrldmHwj7cLjy5u/EJq++lKST9GStw8SN/LHu1V/SgCws9O5ptContnXyQiNJmjcaj+QkudVvZxa9j86C3rsyRpSWTcfcUnueRbS5pEISXc47/w18oTFqSqWl7aMFq7X8uY7Hc085yXZ8pRX8HB0vDDoEu9g2G/5dyyystGJPJ3PBN54HPbDVwob14ZTJr0+MFobwQv175D6j8her7a86gaFdZiU5uXqRv1sxpYy+O6/d/8DcpFDaQ==
