; #disp params :
; Printmode:0
; Layer:510
; Xmin:162.531 mm
; Xmax:212.735 mm
; XDimension:50.204 mm
; Ymin:25.866 mm
; Ymax:75.939 mm
; YDimension:50.073 mm
; Zmax:103.4 mm
; E0diam:0.4 mm
; E0len:11.6071 m
; E0temp:215 C
; Bedtemp:215 C
; Time:121.831 min
; #params end
; GCode generated by CraftWare

G28 X Y ; home horizontally
G28 Z ; home vertically


M104 S215 ;set head temp (no wait)
M190 S60 ;set bed temp (wait)
M109 S215 ;set head temp (wait)

; ------------------------------------
; Raft Layer #0
; ------------------------------------
M106 S0 ;turn off fan
G21 ; mm
G90 ; abs
G92 E0 ;reset extr
G0 F600 Z0.300
;segType:Raft
G0 F3000 E-1.00000
G0 F600 Z2.300
G0 X164.434 Y75.020 F5400
G0 F600 Z0.300
G0 F3000 E0.00000
G1 X162.597 Y73.182 E0.08643 F600
G1 X162.597 Y29.082 E1.55320
G1 X162.663 Y28.623 E1.56865
G1 X165.419 Y25.866 E1.69829
G1 X209.519 Y25.866 E3.16506
G1 X209.979 Y25.932 E3.18051
G1 X212.735 Y28.689 E3.31015
G1 X212.735 Y72.789 E4.77693
G1 X212.669 Y73.248 E4.79237
G1 X210.044 Y75.873 E4.91584
G1 X165.419 Y75.873 E6.40008
G1 X165.091 Y75.676 E6.41281
G1 X164.434 Y75.020 E6.44368
G0 X163.135 Y28.820 F5400
G1 X163.135 Y73.182 E7.91918 F600
G1 X163.535 Y73.576 E7.93785
G1 X163.535 Y28.426 E9.43955
G1 X163.935 Y28.032 E9.45822
G1 X163.935 Y73.970 E10.98611
G1 X164.335 Y74.364 E11.00477
G1 X164.335 Y27.639 E12.55885
G1 X164.735 Y27.245 E12.57752
G1 X164.735 Y74.757 E14.15779
G1 X165.135 Y75.151 E14.17646
G1 X165.135 Y26.851 E15.78293
G1 X165.535 Y26.457 E15.80160
G1 X165.535 Y75.545 E17.43425
G1 X165.935 Y75.545 E17.44756
G1 X165.935 Y26.326 E19.08458
G1 X166.335 Y26.326 E19.09788
G1 X166.335 Y75.545 E20.73490
G1 X166.735 Y75.545 E20.74821
G1 X166.735 Y26.326 E22.38523
G1 X167.135 Y26.326 E22.39853
G1 X167.135 Y75.545 E24.03556
G1 X167.535 Y75.545 E24.04886
G1 X167.535 Y26.326 E25.68588
G1 X167.935 Y26.326 E25.69919
G1 X167.935 Y75.545 E27.33621
G1 X168.335 Y75.545 E27.34951
G1 X168.335 Y26.326 E28.98653
G1 X168.735 Y26.326 E28.99984
G1 X168.735 Y75.545 E30.63686
G1 X169.135 Y75.545 E30.65016
G1 X169.135 Y26.326 E32.28719
G1 X169.535 Y26.326 E32.30049
G1 X169.535 Y75.545 E33.93752
G1 X169.935 Y75.545 E33.95082
G1 X169.935 Y26.326 E35.58785
G1 X170.335 Y26.326 E35.60115
G1 X170.335 Y75.545 E37.23818
G1 X170.735 Y75.545 E37.25148
G1 X170.735 Y26.326 E38.88851
G1 X171.135 Y26.326 E38.90181
G1 X171.135 Y75.545 E40.53883
G1 X171.535 Y75.545 E40.55214
G1 X171.535 Y26.326 E42.18917
G1 X171.935 Y26.326 E42.20247
G1 X171.935 Y75.545 E43.83950
G1 X172.335 Y75.545 E43.85280
G1 X172.335 Y26.326 E45.48982
G1 X172.735 Y26.326 E45.50313
G1 X172.735 Y75.545 E47.14015
G1 X173.135 Y75.545 E47.15346
G1 X173.135 Y26.326 E48.79048
G1 X173.535 Y26.326 E48.80379
G1 X173.535 Y75.545 E50.44081
G1 X173.935 Y75.545 E50.45412
G1 X173.935 Y26.326 E52.09114
G1 X174.335 Y26.326 E52.10445
G1 X174.335 Y75.545 E53.74147
G1 X174.735 Y75.545 E53.75478
G1 X174.735 Y26.326 E55.39180
G1 X175.135 Y26.326 E55.40511
G1 X175.135 Y75.545 E57.04213
G1 X175.535 Y75.545 E57.05544
G1 X175.535 Y26.326 E58.69246
G1 X175.935 Y26.326 E58.70577
G1 X175.935 Y75.545 E60.34279
G1 X176.335 Y75.545 E60.35610
G1 X176.335 Y26.326 E61.99312
G1 X176.735 Y26.326 E62.00643
G1 X176.735 Y75.545 E63.64345
G1 X177.135 Y75.545 E63.65676
G1 X177.135 Y26.326 E65.29378
G1 X177.535 Y26.326 E65.30709
G1 X177.535 Y75.545 E66.94411
G1 X177.935 Y75.545 E66.95742
G1 X177.935 Y26.326 E68.59444
G1 X178.335 Y26.326 E68.60774
G1 X178.335 Y75.545 E70.24477
G1 X178.735 Y75.545 E70.25807
G1 X178.735 Y26.326 E71.89510
G1 X179.135 Y26.326 E71.90840
G1 X179.135 Y75.545 E73.54543
G1 X179.535 Y75.545 E73.55873
G1 X179.535 Y26.326 E75.19576
G1 X179.935 Y26.326 E75.20906
G1 X179.935 Y75.545 E76.84609
G1 X180.335 Y75.545 E76.85939
G1 X180.335 Y26.326 E78.49642
G1 X180.735 Y26.326 E78.50972
G1 X180.735 Y75.545 E80.14675
G1 X181.135 Y75.545 E80.16005
G1 X181.135 Y26.326 E81.79708
G1 X181.535 Y26.326 E81.81038
G1 X181.535 Y75.545 E83.44741
G1 X181.935 Y75.545 E83.46071
G1 X181.935 Y26.326 E85.09773
G1 X182.335 Y26.326 E85.11104
G1 X182.335 Y75.545 E86.74806
G1 X182.735 Y75.545 E86.76137
G1 X182.735 Y26.326 E88.39839
G1 X183.135 Y26.326 E88.41170
G1 X183.135 Y75.545 E90.04872
G1 X183.535 Y75.545 E90.06203
G1 X183.535 Y26.326 E91.69905
G1 X183.935 Y26.326 E91.71236
G1 X183.935 Y75.545 E93.34938
G1 X184.335 Y75.545 E93.36269
G1 X184.335 Y26.326 E94.99971
G1 X184.735 Y26.326 E95.01302
G1 X184.735 Y75.545 E96.65004
G1 X185.135 Y75.545 E96.66335
G1 X185.135 Y26.326 E98.30037
G1 X185.535 Y26.326 E98.31367
G1 X185.535 Y75.545 E99.95070
G1 X185.935 Y75.545 E99.96400
G1 X185.935 Y26.326 E101.60103
G1 X186.335 Y26.326 E101.61433
G1 X186.335 Y75.545 E103.25136
G1 X186.735 Y75.545 E103.26466
G1 X186.735 Y26.326 E104.90169
G1 X187.135 Y26.326 E104.91499
G1 X187.135 Y75.545 E106.55202
G1 X187.535 Y75.545 E106.56532
G1 X187.535 Y26.326 E108.20235
G1 X187.935 Y26.326 E108.21565
G1 X187.935 Y75.545 E109.85268
G1 X188.335 Y75.545 E109.86598
G1 X188.335 Y26.326 E111.50301
G1 X188.735 Y26.326 E111.51631
G1 X188.735 Y75.545 E113.15334
G1 X189.135 Y75.545 E113.16664
G1 X189.135 Y26.326 E114.80367
G1 X189.535 Y26.326 E114.81697
G1 X189.535 Y75.545 E116.45399
G1 X189.935 Y75.545 E116.46730
G1 X189.935 Y26.326 E118.10432
G1 X190.335 Y26.326 E118.11763
G1 X190.335 Y75.545 E119.75465
G1 X190.735 Y75.545 E119.76796
G1 X190.735 Y26.326 E121.40498
G1 X191.135 Y26.326 E121.41829
G1 X191.135 Y75.545 E123.05531
G1 X191.535 Y75.545 E123.06862
G1 X191.535 Y26.326 E124.70564
G1 X191.935 Y26.326 E124.71895
G1 X191.935 Y75.545 E126.35597
G1 X192.335 Y75.545 E126.36928
G1 X192.335 Y26.326 E128.00630
G1 X192.735 Y26.326 E128.01961
G1 X192.735 Y75.545 E129.65663
G1 X193.135 Y75.545 E129.66994
G1 X193.135 Y26.326 E131.30696
G1 X193.535 Y26.326 E131.32027
G1 X193.535 Y75.545 E132.95729
G1 X193.935 Y75.545 E132.97060
G1 X193.935 Y26.326 E134.60762
G1 X194.335 Y26.326 E134.62093
G1 X194.335 Y75.545 E136.25795
G1 X194.735 Y75.545 E136.27126
G1 X194.735 Y26.326 E137.90828
G1 X195.135 Y26.326 E137.92159
G1 X195.135 Y75.545 E139.55861
G1 X195.535 Y75.545 E139.57191
G1 X195.535 Y26.326 E141.20894
G1 X195.935 Y26.326 E141.22224
G1 X195.935 Y75.545 E142.85927
G1 X196.335 Y75.545 E142.87257
G1 X196.335 Y26.326 E144.50960
G1 X196.735 Y26.326 E144.52290
G1 X196.735 Y75.545 E146.15993
G1 X197.135 Y75.545 E146.17323
G1 X197.135 Y26.326 E147.81026
G1 X197.535 Y26.326 E147.82356
G1 X197.535 Y75.545 E149.46059
G1 X197.935 Y75.545 E149.47389
G1 X197.935 Y26.326 E151.11092
G1 X198.335 Y26.326 E151.12422
G1 X198.335 Y75.545 E152.76125
G1 X198.735 Y75.545 E152.77455
G1 X198.735 Y26.326 E154.41158
G1 X199.135 Y26.326 E154.42488
G1 X199.135 Y75.545 E156.06190
G1 X199.535 Y75.545 E156.07521
G1 X199.535 Y26.326 E157.71223
G1 X199.935 Y26.326 E157.72554
G1 X199.935 Y75.545 E159.36256
G1 X200.335 Y75.545 E159.37587
G1 X200.335 Y26.326 E161.01289
G1 X200.735 Y26.326 E161.02620
G1 X200.735 Y75.545 E162.66322
G1 X201.135 Y75.545 E162.67653
G1 X201.135 Y26.326 E164.31355
G1 X201.535 Y26.326 E164.32686
G1 X201.535 Y75.545 E165.96388
G1 X201.935 Y75.545 E165.97719
G1 X201.935 Y26.326 E167.61421
G1 X202.335 Y26.326 E167.62752
G1 X202.335 Y75.545 E169.26454
G1 X202.735 Y75.545 E169.27784
G1 X202.735 Y26.326 E170.91488
G1 X203.135 Y26.326 E170.92818
G1 X203.135 Y75.545 E172.56520
G1 X203.535 Y75.545 E172.57850
G1 X203.535 Y26.326 E174.21554
G1 X203.935 Y26.326 E174.22884
G1 X203.935 Y75.545 E175.86586
G1 X204.335 Y75.545 E175.87916
G1 X204.335 Y26.326 E177.51618
G1 X204.735 Y26.326 E177.52950
G1 X204.735 Y75.545 E179.16652
G1 X205.135 Y75.545 E179.17982
G1 X205.135 Y26.326 E180.81684
G1 X205.535 Y26.326 E180.83016
G1 X205.535 Y75.545 E182.46718
G1 X205.935 Y75.545 E182.48048
G1 X205.935 Y26.326 E184.11750
G1 X206.335 Y26.326 E184.13082
G1 X206.335 Y75.545 E185.76784
G1 X206.735 Y75.545 E185.78114
G1 X206.735 Y26.326 E187.41816
G1 X207.135 Y26.326 E187.43148
G1 X207.135 Y75.545 E189.06850
G1 X207.535 Y75.545 E189.08180
G1 X207.535 Y26.326 E190.71882
G1 X207.935 Y26.326 E190.73214
G1 X207.935 Y75.545 E192.36916
G1 X208.335 Y75.545 E192.38246
G1 X208.335 Y26.326 E194.01948
G1 X208.735 Y26.326 E194.03280
G1 X208.735 Y75.545 E195.66982
G1 X209.135 Y75.545 E195.68312
G1 X209.135 Y26.326 E197.32014
G1 X209.535 Y26.326 E197.33346
G1 X209.535 Y75.545 E198.97048
G1 X209.935 Y75.414 E198.98448
G1 X209.935 Y26.589 E200.60842
G1 X210.335 Y26.982 E200.62708
G1 X210.335 Y75.020 E202.22480
G1 X210.735 Y74.626 E202.24346
G1 X210.735 Y27.376 E203.81502
G1 X211.135 Y27.770 E203.83368
G1 X211.135 Y74.232 E205.37902
G1 X211.535 Y73.839 E205.39768
G1 X211.535 Y28.164 E206.91684
G1 X211.935 Y28.557 E206.93550
G1 X211.935 Y73.445 E208.42846
G1 X212.335 Y73.051 E208.44712
G1 X212.335 Y28.951 E209.91390



; ------------------------------------
; Raft Layer #1
; ------------------------------------
M106 S255 ;set fan speed
G92 E0 ;reset extr
G0 F600 Z0.600
;segType:Raft
G0 X212.406 Y28.400 F7200
G1 X162.794 Y28.400 E1.65012 F2400
G0 X164.106 Y27.067 F7200
G1 X211.094 Y27.067 E3.21293 F2400
G0 X212.669 Y29.733 F7200
G1 X162.531 Y29.733 E4.88051 F2400
G1 X162.531 Y31.067 E4.92486
G1 X212.669 Y31.067 E6.59244
G1 X212.669 Y32.400 E6.63678
G1 X162.531 Y32.400 E8.30436
G1 X162.531 Y33.733 E8.34871
G1 X212.669 Y33.733 E10.01629
G1 X212.669 Y35.067 E10.06064
G1 X162.531 Y35.067 E11.72822
G1 X162.531 Y36.400 E11.77256
G1 X212.669 Y36.400 E13.44014
G1 X212.669 Y37.733 E13.48449
G1 X162.531 Y37.733 E15.15207
G1 X162.531 Y39.067 E15.19642
G1 X212.669 Y39.067 E16.86400
G1 X212.669 Y40.400 E16.90834
G1 X162.531 Y40.400 E18.57592
G1 X162.531 Y41.733 E18.62027
G1 X212.669 Y41.733 E20.28785
G1 X212.669 Y43.067 E20.33219
G1 X162.531 Y43.067 E21.99977
G1 X162.531 Y44.400 E22.04412
G1 X212.669 Y44.400 E23.71170
G1 X212.669 Y45.733 E23.75605
G1 X162.531 Y45.733 E25.42363
G1 X162.531 Y47.067 E25.46797
G1 X212.669 Y47.067 E27.13555
G1 X212.669 Y48.400 E27.17990
G1 X162.531 Y48.400 E28.84748
G1 X162.531 Y49.733 E28.89183
G1 X212.669 Y49.733 E30.55941
G1 X212.669 Y51.067 E30.60375
G1 X162.531 Y51.067 E32.27133
G1 X162.531 Y52.400 E32.31568
G1 X212.669 Y52.400 E33.98326
G1 X212.669 Y53.733 E34.02760
G1 X162.531 Y53.733 E35.69518
G1 X162.531 Y55.067 E35.73953
G1 X212.669 Y55.067 E37.40711
G1 X212.669 Y56.400 E37.45146
G1 X162.531 Y56.400 E39.11904
G1 X162.531 Y57.733 E39.16338
G1 X212.669 Y57.733 E40.83096
G1 X212.669 Y59.067 E40.87531
G1 X162.531 Y59.067 E42.54289
G1 X162.531 Y60.400 E42.58723
G1 X212.669 Y60.400 E44.25481
G1 X212.669 Y61.733 E44.29916
G1 X162.531 Y61.733 E45.96674
G1 X162.531 Y63.067 E46.01108
G1 X212.669 Y63.067 E47.67866
G1 X212.669 Y64.400 E47.72301
G1 X162.531 Y64.400 E49.39059
G1 X162.531 Y65.733 E49.43494
G1 X212.669 Y65.733 E51.10251
G1 X212.669 Y67.067 E51.14686
G1 X162.531 Y67.067 E52.81444
G1 X162.531 Y68.400 E52.85879
G1 X212.669 Y68.400 E54.52637
G1 X212.669 Y69.733 E54.57071
G1 X162.531 Y69.733 E56.23829
G1 X162.531 Y71.067 E56.28264
G1 X212.669 Y71.067 E57.95022
G1 X212.669 Y72.400 E57.99456
G1 X162.531 Y72.400 E59.66214
G0 X163.056 Y73.733 F7200
G1 X212.144 Y73.733 E61.29480 F2400
G0 X210.831 Y75.067 F7200
G1 X164.369 Y75.067 E62.84015 F2400



; ------------------------------------
; Raft Layer #2
; ------------------------------------
G92 E0 ;reset extr
G0 F600 Z0.900
;segType:Raft
G0 X162.735 Y73.445 F7200
G1 X162.735 Y28.557 E1.49296 F2400
G1 X163.135 Y28.164 E1.51163
G1 X163.135 Y73.839 E3.03079
G1 X163.535 Y74.232 E3.04946
G1 X163.535 Y27.770 E4.59481
G1 X163.935 Y27.376 E4.61348
G1 X163.935 Y74.626 E6.18502
G1 X164.335 Y75.020 E6.20369
G1 X164.335 Y26.982 E7.80142
G1 X164.735 Y26.589 E7.82009
G1 X164.735 Y75.414 E9.44402
G1 X165.135 Y75.807 E9.46268
G1 X165.135 Y26.195 E11.11280
G1 X165.535 Y25.932 E11.12872
G1 X165.535 Y75.939 E12.79193
G1 X165.935 Y75.939 E12.80524
G1 X165.935 Y25.932 E14.46845
G1 X166.335 Y25.932 E14.48175
G1 X166.335 Y75.939 E16.14497
G1 X166.735 Y75.939 E16.15827
G1 X166.735 Y25.932 E17.82149
G1 X167.135 Y25.932 E17.83479
G1 X167.135 Y75.939 E19.49801
G1 X167.535 Y75.939 E19.51131
G1 X167.535 Y25.932 E21.17453
G1 X167.935 Y25.932 E21.18783
G1 X167.935 Y75.939 E22.85105
G1 X168.335 Y75.939 E22.86435
G1 X168.335 Y25.932 E24.52757
G1 X168.735 Y25.932 E24.54087
G1 X168.735 Y75.939 E26.20409
G1 X169.135 Y75.939 E26.21739
G1 X169.135 Y25.932 E27.88061
G1 X169.535 Y25.932 E27.89391
G1 X169.535 Y75.939 E29.55712
G1 X169.935 Y75.939 E29.57043
G1 X169.935 Y25.932 E31.23364
G1 X170.335 Y25.932 E31.24695
G1 X170.335 Y75.939 E32.91016
G1 X170.735 Y75.939 E32.92347
G1 X170.735 Y25.932 E34.58668
G1 X171.135 Y25.932 E34.59999
G1 X171.135 Y75.939 E36.26320
G1 X171.535 Y75.939 E36.27651
G1 X171.535 Y25.932 E37.93973
G1 X171.935 Y25.932 E37.95303
G1 X171.935 Y75.939 E39.61625
G1 X172.335 Y75.939 E39.62955
G1 X172.335 Y25.932 E41.29277
G1 X172.735 Y25.932 E41.30607
G1 X172.735 Y75.939 E42.96929
G1 X173.135 Y75.939 E42.98260
G1 X173.135 Y25.932 E44.64581
G1 X173.535 Y25.932 E44.65912
G1 X173.535 Y75.939 E46.32233
G1 X173.935 Y75.939 E46.33564
G1 X173.935 Y25.932 E47.99885
G1 X174.335 Y25.932 E48.01216
G1 X174.335 Y75.939 E49.67538
G1 X174.735 Y75.939 E49.68868
G1 X174.735 Y25.932 E51.35190
G1 X175.135 Y25.932 E51.36520
G1 X175.135 Y75.939 E53.02842
G1 X175.535 Y75.939 E53.04172
G1 X175.535 Y25.932 E54.70494
G1 X175.935 Y25.932 E54.71825
G1 X175.935 Y75.939 E56.38146
G1 X176.335 Y75.939 E56.39477
G1 X176.335 Y25.932 E58.05798
G1 X176.735 Y25.932 E58.07129
G1 X176.735 Y75.939 E59.73450
G1 X177.135 Y75.939 E59.74781
G1 X177.135 Y25.932 E61.41102
G1 X177.535 Y25.932 E61.42433
G1 X177.535 Y75.939 E63.08755
G1 X177.935 Y75.939 E63.10085
G1 X177.935 Y25.932 E64.76406
G1 X178.335 Y25.932 E64.77737
G1 X178.335 Y75.939 E66.44058
G1 X178.735 Y75.939 E66.45389
G1 X178.735 Y25.932 E68.11711
G1 X179.135 Y25.932 E68.13041
G1 X179.135 Y75.939 E69.79363
G1 X179.535 Y75.939 E69.80693
G1 X179.535 Y25.932 E71.47015
G1 X179.935 Y25.932 E71.48345
G1 X179.935 Y75.939 E73.14667
G1 X180.335 Y75.939 E73.15998
G1 X180.335 Y25.932 E74.82319
G1 X180.735 Y25.932 E74.83650
G1 X180.735 Y75.939 E76.49971
G1 X181.135 Y75.939 E76.51302
G1 X181.135 Y25.932 E78.17623
G1 X181.535 Y25.932 E78.18954
G1 X181.535 Y75.939 E79.85276
G1 X181.935 Y75.939 E79.86606
G1 X181.935 Y25.932 E81.52928
G1 X182.335 Y25.932 E81.54258
G1 X182.335 Y75.939 E83.20580
G1 X182.735 Y75.939 E83.21910
G1 X182.735 Y25.932 E84.88232
G1 X183.135 Y25.932 E84.89562
G1 X183.135 Y75.939 E86.55884
G1 X183.535 Y75.939 E86.57214
G1 X183.535 Y25.932 E88.23536
G1 X183.935 Y25.932 E88.24866
G1 X183.935 Y75.939 E89.91188
G1 X184.335 Y75.939 E89.92519
G1 X184.335 Y25.932 E91.58840
G1 X184.735 Y25.932 E91.60171
G1 X184.735 Y75.939 E93.26492
G1 X185.135 Y75.939 E93.27823
G1 X185.135 Y25.932 E94.94144
G1 X185.535 Y25.932 E94.95475
G1 X185.535 Y75.939 E96.61797
G1 X185.935 Y75.939 E96.63127
G1 X185.935 Y25.932 E98.29449
G1 X186.335 Y25.932 E98.30779
G1 X186.335 Y75.939 E99.97101
G1 X186.735 Y75.939 E99.98431
G1 X186.735 Y25.932 E101.64753
G1 X187.135 Y25.932 E101.66084
G1 X187.135 Y75.939 E103.32405
G1 X187.535 Y75.939 E103.33736
G1 X187.535 Y25.932 E105.00057
G1 X187.935 Y25.932 E105.01388
G1 X187.935 Y75.939 E106.67709
G1 X188.335 Y75.939 E106.69040
G1 X188.335 Y25.932 E108.35361
G1 X188.735 Y25.932 E108.36692
G1 X188.735 Y75.939 E110.03014
G1 X189.135 Y75.939 E110.04344
G1 X189.135 Y25.932 E111.70666
G1 X189.535 Y25.932 E111.71996
G1 X189.535 Y75.939 E113.38318
G1 X189.935 Y75.939 E113.39648
G1 X189.935 Y25.932 E115.05970
G1 X190.335 Y25.932 E115.07301
G1 X190.335 Y75.939 E116.73622
G1 X190.735 Y75.939 E116.74953
G1 X190.735 Y25.932 E118.41274
G1 X191.135 Y25.932 E118.42605
G1 X191.135 Y75.939 E120.08926
G1 X191.535 Y75.939 E120.10257
G1 X191.535 Y25.932 E121.76579
G1 X191.935 Y25.932 E121.77909
G1 X191.935 Y75.939 E123.44231
G1 X192.335 Y75.939 E123.45561
G1 X192.335 Y25.932 E125.11883
G1 X192.735 Y25.932 E125.13213
G1 X192.735 Y75.939 E126.79535
G1 X193.135 Y75.939 E126.80865
G1 X193.135 Y25.932 E128.47186
G1 X193.535 Y25.932 E128.48517
G1 X193.535 Y75.939 E130.14838
G1 X193.935 Y75.939 E130.16168
G1 X193.935 Y25.932 E131.82489
G1 X194.335 Y25.932 E131.83820
G1 X194.335 Y75.939 E133.50140
G1 X194.735 Y75.939 E133.51471
G1 X194.735 Y25.932 E135.17792
G1 X195.135 Y25.932 E135.19122
G1 X195.135 Y75.939 E136.85443
G1 X195.535 Y75.939 E136.86774
G1 X195.535 Y25.932 E138.53094
G1 X195.935 Y25.932 E138.54425
G1 X195.935 Y75.939 E140.20746
G1 X196.335 Y75.939 E140.22076
G1 X196.335 Y25.932 E141.88397
G1 X196.735 Y25.932 E141.89728
G1 X196.735 Y75.939 E143.56049
G1 X197.135 Y75.939 E143.57379
G1 X197.135 Y25.932 E145.23700
G1 X197.535 Y25.932 E145.25031
G1 X197.535 Y75.939 E146.91351
G1 X197.935 Y75.939 E146.92682
G1 X197.935 Y25.932 E148.59003
G1 X198.335 Y25.932 E148.60333
G1 X198.335 Y75.939 E150.26654
G1 X198.735 Y75.939 E150.27985
G1 X198.735 Y25.932 E151.94305
G1 X199.135 Y25.932 E151.95636
G1 X199.135 Y75.939 E153.61957
G1 X199.535 Y75.939 E153.63287
G1 X199.535 Y25.932 E155.29608
G1 X199.935 Y25.932 E155.30939
G1 X199.935 Y75.939 E156.97260
G1 X200.335 Y75.939 E156.98590
G1 X200.335 Y25.932 E158.64911
G1 X200.735 Y25.932 E158.66241
G1 X200.735 Y75.939 E160.32562
G1 X201.135 Y75.939 E160.33893
G1 X201.135 Y25.932 E162.00214
G1 X201.535 Y25.932 E162.01544
G1 X201.535 Y75.939 E163.67865
G1 X201.935 Y75.939 E163.69196
G1 X201.935 Y25.932 E165.35516
G1 X202.335 Y25.932 E165.36847
G1 X202.335 Y75.939 E167.03168
G1 X202.735 Y75.939 E167.04498
G1 X202.735 Y25.932 E168.70820
G1 X203.135 Y25.932 E168.72150
G1 X203.135 Y75.939 E170.38470
G1 X203.535 Y75.939 E170.39802
G1 X203.535 Y25.932 E172.06122
G1 X203.935 Y25.932 E172.07452
G1 X203.935 Y75.939 E173.73774
G1 X204.335 Y75.939 E173.75104
G1 X204.335 Y25.932 E175.41424
G1 X204.735 Y25.932 E175.42756
G1 X204.735 Y75.939 E177.09076
G1 X205.135 Y75.939 E177.10406
G1 X205.135 Y25.932 E178.76728
G1 X205.535 Y25.932 E178.78058
G1 X205.535 Y75.939 E180.44378
G1 X205.935 Y75.939 E180.45710
G1 X205.935 Y25.932 E182.12030
G1 X206.335 Y25.932 E182.13360
G1 X206.335 Y75.939 E183.79682
G1 X206.735 Y75.939 E183.81012
G1 X206.735 Y25.932 E185.47332
G1 X207.135 Y25.932 E185.48664
G1 X207.135 Y75.939 E187.14984
G1 X207.535 Y75.939 E187.16314
G1 X207.535 Y25.932 E188.82636
G1 X207.935 Y25.932 E188.83966
G1 X207.935 Y75.939 E190.50286
G1 X208.335 Y75.939 E190.51618
G1 X208.335 Y25.932 E192.17938
G1 X208.735 Y25.932 E192.19268
G1 X208.735 Y75.939 E193.85590
G1 X209.135 Y75.939 E193.86920
G1 X209.135 Y25.932 E195.53240
G1 X209.535 Y25.932 E195.54572
G1 X209.535 Y75.939 E197.20892
G1 X209.935 Y75.939 E197.22222
G1 X209.935 Y25.932 E198.88544
G1 X210.335 Y26.326 E198.90410
G1 X210.335 Y75.676 E200.54548
G1 X210.735 Y75.282 E200.56414
G1 X210.735 Y26.720 E202.17934
G1 X211.135 Y27.114 E202.19800
G1 X211.135 Y74.889 E203.78700
G1 X211.535 Y74.495 E203.80566
G1 X211.535 Y27.507 E205.36846
G1 X211.935 Y27.901 E205.38714
G1 X211.935 Y74.101 E206.92376
G1 X212.335 Y73.707 E206.94242
G1 X212.335 Y28.295 E208.45284



; ------------------------------------
; Raft Layer #3
; ------------------------------------
G92 E0 ;reset extr
G0 F600 Z1.200
;segType:Raft
G0 F3000 E-1.00000
G0 F600 Z3.200
G0 X165.288 Y25.867 F7200
G0 F600 Z1.200
G0 F3000 E0.00000
G1 X209.913 Y25.867 E1.48423 F2400
G1 X210.306 Y26.267 E1.50290
G1 X164.894 Y26.267 E3.01333
G1 X164.500 Y26.667 E3.03200
G1 X210.700 Y26.667 E4.56862
G1 X211.094 Y27.067 E4.58728
G1 X164.106 Y27.067 E6.15009
G1 X163.713 Y27.467 E6.16876
G1 X211.488 Y27.467 E7.75777
G1 X211.881 Y27.867 E7.77643
G1 X163.319 Y27.867 E9.39163
G1 X162.925 Y28.267 E9.41030
G1 X212.275 Y28.267 E11.05169
G1 X212.669 Y28.667 E11.07036
G1 X162.531 Y28.667 E12.73793
G1 X162.531 Y29.067 E12.75124
G1 X212.669 Y29.067 E14.41882
G1 X212.669 Y29.467 E14.43212
G1 X162.531 Y29.467 E16.09970
G1 X162.531 Y29.867 E16.11301
G1 X212.669 Y29.867 E17.78058
G1 X212.669 Y30.267 E17.79389
G1 X162.531 Y30.267 E19.46147
G1 X162.531 Y30.667 E19.47477
G1 X212.669 Y30.667 E21.14235
G1 X212.669 Y31.067 E21.15566
G1 X162.531 Y31.067 E22.82324
G1 X162.531 Y31.467 E22.83654
G1 X212.669 Y31.467 E24.50412
G1 X212.669 Y31.867 E24.51742
G1 X162.531 Y31.867 E26.18500
G1 X162.531 Y32.267 E26.19831
G1 X212.669 Y32.267 E27.86589
G1 X212.669 Y32.667 E27.87919
G1 X162.531 Y32.667 E29.54677
G1 X162.531 Y33.067 E29.56007
G1 X212.669 Y33.067 E31.22765
G1 X212.669 Y33.467 E31.24096
G1 X162.531 Y33.467 E32.90854
G1 X162.531 Y33.867 E32.92184
G1 X212.669 Y33.867 E34.58942
G1 X212.669 Y34.267 E34.60273
G1 X162.531 Y34.267 E36.27031
G1 X162.531 Y34.667 E36.28361
G1 X212.669 Y34.667 E37.95119
G1 X212.669 Y35.067 E37.96450
G1 X162.531 Y35.067 E39.63208
G1 X162.531 Y35.467 E39.64538
G1 X212.669 Y35.467 E41.31296
G1 X212.669 Y35.867 E41.32627
G1 X162.531 Y35.867 E42.99385
G1 X162.531 Y36.267 E43.00716
G1 X212.669 Y36.267 E44.67473
G1 X212.669 Y36.667 E44.68804
G1 X162.531 Y36.667 E46.35562
G1 X162.531 Y37.067 E46.36893
G1 X212.669 Y37.067 E48.03651
G1 X212.669 Y37.467 E48.04981
G1 X162.531 Y37.467 E49.71739
G1 X162.531 Y37.867 E49.73070
G1 X212.669 Y37.867 E51.39828
G1 X212.669 Y38.267 E51.41158
G1 X162.531 Y38.267 E53.07916
G1 X162.531 Y38.667 E53.09247
G1 X212.669 Y38.667 E54.76005
G1 X212.669 Y39.067 E54.77335
G1 X162.531 Y39.067 E56.44093
G1 X162.531 Y39.467 E56.45424
G1 X212.669 Y39.467 E58.12182
G1 X212.669 Y39.867 E58.13512
G1 X162.531 Y39.867 E59.80270
G1 X162.531 Y40.267 E59.81601
G1 X212.669 Y40.267 E61.48359
G1 X212.669 Y40.667 E61.49689
G1 X162.531 Y40.667 E63.16447
G1 X162.531 Y41.067 E63.17778
G1 X212.669 Y41.067 E64.84536
G1 X212.669 Y41.467 E64.85867
G1 X162.531 Y41.467 E66.52625
G1 X162.531 Y41.867 E66.53955
G1 X212.669 Y41.867 E68.20713
G1 X212.669 Y42.267 E68.22044
G1 X162.531 Y42.267 E69.88802
G1 X162.531 Y42.667 E69.90132
G1 X212.669 Y42.667 E71.56890
G1 X212.669 Y43.067 E71.58221
G1 X162.531 Y43.067 E73.24979
G1 X162.531 Y43.467 E73.26309
G1 X212.669 Y43.467 E74.93067
G1 X212.669 Y43.867 E74.94398
G1 X162.531 Y43.867 E76.61156
G1 X162.531 Y44.267 E76.62487
G1 X212.669 Y44.267 E78.29244
G1 X212.669 Y44.667 E78.30575
G1 X162.531 Y44.667 E79.97333
G1 X162.531 Y45.067 E79.98664
G1 X212.669 Y45.067 E81.65422
G1 X212.669 Y45.467 E81.66752
G1 X162.531 Y45.467 E83.33510
G1 X162.531 Y45.867 E83.34841
G1 X212.669 Y45.867 E85.01598
G1 X212.669 Y46.267 E85.02929
G1 X162.531 Y46.267 E86.69687
G1 X162.531 Y46.667 E86.71017
G1 X212.669 Y46.667 E88.37775
G1 X212.669 Y47.067 E88.39106
G1 X162.531 Y47.067 E90.05864
G1 X162.531 Y47.467 E90.07195
G1 X212.669 Y47.467 E91.73952
G1 X212.669 Y47.867 E91.75283
G1 X162.531 Y47.867 E93.42041
G1 X162.531 Y48.267 E93.43372
G1 X212.669 Y48.267 E95.10130
G1 X212.669 Y48.667 E95.11460
G1 X162.531 Y48.667 E96.78218
G1 X162.531 Y49.067 E96.79549
G1 X212.669 Y49.067 E98.46307
G1 X212.669 Y49.467 E98.47637
G1 X162.531 Y49.467 E100.14395
G1 X162.531 Y49.867 E100.15726
G1 X212.669 Y49.867 E101.82484
G1 X212.669 Y50.267 E101.83814
G1 X162.531 Y50.267 E103.50572
G1 X162.531 Y50.667 E103.51903
G1 X212.669 Y50.667 E105.18661
G1 X212.669 Y51.067 E105.19991
G1 X162.531 Y51.067 E106.86749
G1 X162.531 Y51.467 E106.88080
G1 X212.669 Y51.467 E108.54838
G1 X212.669 Y51.867 E108.56168
G1 X162.531 Y51.867 E110.22926
G1 X162.531 Y52.267 E110.24257
G1 X212.669 Y52.267 E111.91015
G1 X212.669 Y52.667 E111.92345
G1 X162.531 Y52.667 E113.59103
G1 X162.531 Y53.067 E113.60434
G1 X212.669 Y53.067 E115.27192
G1 X212.669 Y53.467 E115.28522
G1 X162.531 Y53.467 E116.95280
G1 X162.531 Y53.867 E116.96611
G1 X212.669 Y53.867 E118.63369
G1 X212.669 Y54.267 E118.64700
G1 X162.531 Y54.267 E120.31458
G1 X162.531 Y54.667 E120.32788
G1 X212.669 Y54.667 E121.99546
G1 X212.669 Y55.067 E122.00877
G1 X162.531 Y55.067 E123.67635
G1 X162.531 Y55.467 E123.68965
G1 X212.669 Y55.467 E125.35723
G1 X212.669 Y55.867 E125.37054
G1 X162.531 Y55.867 E127.03812
G1 X162.531 Y56.267 E127.05142
G1 X212.669 Y56.267 E128.71901
G1 X212.669 Y56.667 E128.73232
G1 X162.531 Y56.667 E130.39990
G1 X162.531 Y57.067 E130.41321
G1 X212.669 Y57.067 E132.08080
G1 X212.669 Y57.467 E132.09410
G1 X162.531 Y57.467 E133.76169
G1 X162.531 Y57.867 E133.77499
G1 X212.669 Y57.867 E135.44258
G1 X212.669 Y58.267 E135.45589
G1 X162.531 Y58.267 E137.12347
G1 X162.531 Y58.667 E137.13678
G1 X212.669 Y58.667 E138.80437
G1 X212.669 Y59.067 E138.81767
G1 X162.531 Y59.067 E140.48526
G1 X162.531 Y59.467 E140.49857
G1 X212.669 Y59.467 E142.16615
G1 X212.669 Y59.867 E142.17946
G1 X162.531 Y59.867 E143.84705
G1 X162.531 Y60.267 E143.86035
G1 X212.669 Y60.267 E145.52794
G1 X212.669 Y60.667 E145.54124
G1 X162.531 Y60.667 E147.20883
G1 X162.531 Y61.067 E147.22214
G1 X212.669 Y61.067 E148.88972
G1 X212.669 Y61.467 E148.90303
G1 X162.531 Y61.467 E150.57062
G1 X162.531 Y61.867 E150.58392
G1 X212.669 Y61.867 E152.25151
G1 X212.669 Y62.267 E152.26482
G1 X162.531 Y62.267 E153.93240
G1 X162.531 Y62.667 E153.94571
G1 X212.669 Y62.667 E155.61330
G1 X212.669 Y63.067 E155.62660
G1 X162.531 Y63.067 E157.29419
G1 X162.531 Y63.467 E157.30750
G1 X212.669 Y63.467 E158.97508
G1 X212.669 Y63.867 E158.98839
G1 X162.531 Y63.867 E160.65598
G1 X162.531 Y64.267 E160.66928
G1 X212.669 Y64.267 E162.33687
G1 X212.669 Y64.667 E162.35017
G1 X162.531 Y64.667 E164.01776
G1 X162.531 Y65.067 E164.03107
G1 X212.669 Y65.067 E165.69865
G1 X212.669 Y65.467 E165.71196
G1 X162.531 Y65.467 E167.37955
G1 X162.531 Y65.867 E167.39285
G1 X212.669 Y65.867 E169.06044
G1 X212.669 Y66.267 E169.07374
G1 X162.531 Y66.267 E170.74134
G1 X162.531 Y66.667 E170.75464
G1 X212.669 Y66.667 E172.42222
G1 X212.669 Y67.067 E172.43554
G1 X162.531 Y67.067 E174.10312
G1 X162.531 Y67.467 E174.11642
G1 X212.669 Y67.467 E175.78402
G1 X212.669 Y67.867 E175.79732
G1 X162.531 Y67.867 E177.46490
G1 X162.531 Y68.267 E177.47822
G1 X212.669 Y68.267 E179.14580
G1 X212.669 Y68.667 E179.15910
G1 X162.531 Y68.667 E180.82670
G1 X162.531 Y69.067 E180.84000
G1 X212.669 Y69.067 E182.50758
G1 X212.669 Y69.467 E182.52088
G1 X162.531 Y69.467 E184.18848
G1 X162.531 Y69.867 E184.20178
G1 X212.669 Y69.867 E185.86936
G1 X212.669 Y70.267 E185.88268
G1 X162.531 Y70.267 E187.55026
G1 X162.531 Y70.667 E187.56356
G1 X212.669 Y70.667 E189.23116
G1 X212.669 Y71.067 E189.24446
G1 X162.531 Y71.067 E190.91204
G1 X162.531 Y71.467 E190.92536
G1 X212.669 Y71.467 E192.59294
G1 X212.669 Y71.867 E192.60624
G1 X162.531 Y71.867 E194.27384
G1 X162.531 Y72.267 E194.28714
G1 X212.669 Y72.267 E195.95472
G1 X212.669 Y72.667 E195.96804
G1 X162.531 Y72.667 E197.63562
G1 X162.531 Y73.067 E197.64892
G1 X212.669 Y73.067 E199.31652
G1 X212.406 Y73.467 E199.33242
G1 X162.794 Y73.467 E200.98254
G1 X163.188 Y73.867 E201.00120
G1 X212.013 Y73.867 E202.62514
G1 X211.619 Y74.267 E202.64380
G1 X163.581 Y74.267 E204.24154
G1 X163.975 Y74.667 E204.26020
G1 X211.225 Y74.667 E205.83174
G1 X210.831 Y75.067 E205.85040
G1 X164.369 Y75.067 E207.39576
G1 X164.763 Y75.467 E207.41442
G1 X210.438 Y75.467 E208.93356
G1 X210.044 Y75.867 E208.95222
G1 X165.156 Y75.867 E210.44520



; ------------------------------------
; Raft Layer #4
; ------------------------------------
G92 E0 ;reset extr
G0 F600 Z1.400
;segType:Raft
G0 X165.535 Y75.939 F7200
G1 X165.535 Y25.932 E1.66322 F2400
G0 X167.535 Y25.932 F7200
G1 X167.535 Y75.939 E3.32643 F2400
G0 X169.535 Y75.939 F7200
G1 X169.535 Y25.932 E4.98965 F2400
G0 X171.535 Y25.932 F7200
G1 X171.535 Y75.939 E6.65286 F2400
G0 X173.535 Y75.939 F7200
G1 X173.535 Y25.932 E8.31607 F2400
G0 X175.535 Y25.932 F7200
G1 X175.535 Y75.939 E9.97929 F2400
G0 X177.535 Y75.939 F7200
G1 X177.535 Y25.932 E11.64250 F2400
G0 X179.535 Y25.932 F7200
G1 X179.535 Y75.939 E13.30572 F2400
G0 X181.535 Y75.939 F7200
G1 X181.535 Y25.932 E14.96893 F2400
G0 X183.535 Y25.932 F7200
G1 X183.535 Y75.939 E16.63215 F2400
G0 X185.535 Y75.939 F7200
G1 X185.535 Y25.932 E18.29537 F2400
G0 X187.535 Y25.932 F7200
G1 X187.535 Y75.939 E19.95858 F2400
G0 X189.535 Y75.939 F7200
G1 X189.535 Y25.932 E21.62180 F2400
G0 X191.535 Y25.932 F7200
G1 X191.535 Y75.939 E23.28501 F2400
G0 X193.535 Y75.939 F7200
G1 X193.535 Y25.932 E24.94823 F2400
G0 X195.535 Y25.932 F7200
G1 X195.535 Y75.939 E26.61144 F2400
G0 X197.535 Y75.939 F7200
G1 X197.535 Y25.932 E28.27466 F2400
G0 X199.535 Y25.932 F7200
G1 X199.535 Y75.939 E29.93788 F2400
G0 X201.535 Y75.939 F7200
G1 X201.535 Y25.932 E31.60109 F2400
G0 X203.535 Y25.932 F7200
G1 X203.535 Y75.939 E33.26431 F2400
G0 X205.535 Y75.939 F7200
G1 X205.535 Y25.932 E34.92752 F2400
G0 X207.535 Y25.932 F7200
G1 X207.535 Y75.939 E36.59074 F2400
G0 X209.535 Y75.939 F7200
G1 X209.535 Y25.932 E38.25395 F2400
G0 X211.535 Y27.507 F7200
G1 X211.535 Y74.495 E39.81677 F2400
G0 X163.535 Y74.232 F7200
G1 X163.535 Y27.770 E41.36212 F2400


; ------------------------------------
; Layer #0
; ------------------------------------
G21 ; mm
G90 ; abs
G92 E0 ;reset extr
G0 F600 Z1.850
;segType:HShell
G0 F3000 E-1.00000
G0 X206.632 Y69.909 F5400
G0 F3000 E0.00000
G1 X168.692 Y31.970 E1.78457 F2400
G0 X168.147 Y31.650 F5400
;segType:Perimeter
G1 X167.992 Y31.070 E1.80452 F1439
G1 X207.531 Y31.070 E3.11960
G1 X207.531 Y70.669 E4.43667
G1 X167.932 Y70.669 E5.75375
G1 X167.932 Y31.130 E7.06883
G0 X167.992 Y31.070 F5400
G0 X169.592 Y31.070
G0 X169.032 Y31.470
;segType:Loop
G1 X207.131 Y31.470 E8.33601 F2400
G1 X207.131 Y70.269 E9.62648
G1 X168.332 Y70.269 E10.91694
G1 X168.332 Y31.470 E12.20741
G1 X168.832 Y31.470 E12.22404
G0 X169.118 Y31.830 F5400
;segType:HShell
G1 X206.771 Y69.483 E13.99510 F2400
G0 X206.771 Y68.917 F5400
G1 X169.684 Y31.830 E15.73955 F2400
G0 X170.250 Y31.830 F5400
G1 X206.771 Y68.352 E17.45739 F2400
G0 X206.771 Y67.786 F5400
G1 X170.815 Y31.830 E19.14863 F2400
G0 X171.381 Y31.830 F5400
G1 X206.771 Y67.220 E20.81325 F2400
G0 X206.771 Y66.654 F5400
G1 X171.947 Y31.830 E22.45127 F2400
G0 X172.513 Y31.830 F5400
G1 X206.771 Y66.089 E24.06268 F2400
G0 X206.771 Y65.523 F5400
G1 X173.078 Y31.830 E25.64749 F2400
G0 X173.644 Y31.830 F5400
G1 X206.771 Y64.957 E27.20568 F2400
G0 X206.771 Y64.392 F5400
G1 X174.210 Y31.830 E28.73726 F2400
G0 X174.775 Y31.830 F5400
G1 X206.771 Y63.826 E30.24224 F2400
G0 X206.771 Y63.260 F5400
G1 X175.341 Y31.830 E31.72061 F2400
G0 X175.907 Y31.830 F5400
G1 X206.771 Y62.695 E33.17237 F2400
G0 X206.771 Y62.129 F5400
G1 X176.472 Y31.830 E34.59752 F2400
G0 X177.038 Y31.830 F5400
G1 X206.771 Y61.563 E35.99607 F2400
G0 X206.771 Y60.998 F5400
G1 X177.604 Y31.830 E37.36801 F2400
G0 X178.169 Y31.830 F5400
G1 X206.771 Y60.432 E38.71333 F2400
G0 X206.771 Y59.866 F5400
G1 X178.735 Y31.830 E40.03206 F2400
G0 X179.301 Y31.830 F5400
G1 X206.771 Y59.301 E41.32417 F2400
G0 X206.771 Y58.735 F5400
G1 X179.866 Y31.830 E42.58967 F2400
G0 X180.432 Y31.830 F5400
G1 X206.771 Y58.169 E43.82857 F2400
G0 X206.771 Y57.604 F5400
G1 X180.998 Y31.830 E45.04086 F2400
G0 X181.563 Y31.830 F5400
G1 X206.771 Y57.038 E46.22654 F2400
G0 X206.771 Y56.472 F5400
G1 X182.129 Y31.830 E47.38561 F2400
G0 X182.695 Y31.830 F5400
G1 X206.771 Y55.906 E48.51808 F2400
G0 X206.771 Y55.341 F5400
G1 X183.261 Y31.830 E49.62393 F2400
G0 X183.826 Y31.830 F5400
G1 X206.771 Y54.775 E50.70318 F2400
G0 X206.771 Y54.209 F5400
G1 X184.392 Y31.830 E51.75582 F2400
G0 X184.958 Y31.830 F5400
G1 X206.771 Y53.644 E52.78185 F2400
G0 X206.771 Y53.078 F5400
G1 X185.523 Y31.830 E53.78127 F2400
G0 X186.089 Y31.830 F5400
G1 X206.771 Y52.512 E54.75409 F2400
G0 X206.771 Y51.947 F5400
G1 X186.655 Y31.830 E55.70030 F2400
G0 X187.220 Y31.830 F5400
G1 X206.771 Y51.381 E56.61989 F2400
G0 X206.771 Y50.815 F5400
G1 X187.786 Y31.830 E57.51288 F2400
G0 X188.352 Y31.830 F5400
G1 X206.771 Y50.250 E58.37927 F2400
G0 X206.771 Y49.684 F5400
G1 X188.917 Y31.830 E59.21904 F2400
G0 X189.483 Y31.830 F5400
G1 X206.771 Y49.118 E60.03221 F2400
G0 X206.771 Y48.553 F5400
G1 X190.049 Y31.830 E60.81877 F2400
G0 X190.614 Y31.830 F5400
G1 X206.771 Y47.987 E61.57872 F2400
G0 X206.771 Y47.421 F5400
G1 X191.180 Y31.830 E62.31206 F2400
G0 X191.746 Y31.830 F5400
G1 X206.771 Y46.855 E63.01879 F2400
G0 X206.771 Y46.290 F5400
G1 X192.312 Y31.830 E63.69892 F2400
G0 X192.877 Y31.830 F5400
G1 X206.771 Y45.724 E64.35243 F2400
G0 X206.771 Y45.158 F5400
G1 X193.443 Y31.830 E64.97934 F2400
G0 X194.009 Y31.830 F5400
G1 X206.771 Y44.593 E65.57965 F2400
G0 X206.771 Y44.027 F5400
G1 X194.574 Y31.830 E66.15334 F2400
G0 X195.140 Y31.830 F5400
G1 X206.771 Y43.461 E66.70043 F2400
G0 X206.771 Y42.896 F5400
G1 X195.706 Y31.830 E67.22090 F2400
G0 X196.271 Y31.830 F5400
G1 X206.771 Y42.330 E67.71477 F2400
G0 X206.771 Y41.764 F5400
G1 X196.837 Y31.830 E68.18203 F2400
G0 X197.403 Y31.830 F5400
G1 X206.771 Y41.199 E68.62268 F2400
G0 X206.771 Y40.633 F5400
G1 X197.968 Y31.830 E69.03673 F2400
G0 X198.534 Y31.830 F5400
G1 X206.771 Y40.067 E69.42417 F2400
G0 X206.771 Y39.502 F5400
G1 X199.100 Y31.830 E69.78500 F2400
G0 X199.665 Y31.830 F5400
G1 X206.771 Y38.936 E70.11922 F2400
G0 X206.771 Y38.370 F5400
G1 X200.231 Y31.830 E70.42683 F2400
G0 X200.797 Y31.830 F5400
G1 X206.771 Y37.805 E70.70783 F2400
G0 X206.771 Y37.239 F5400
G1 X201.362 Y31.830 E70.96223 F2400
G0 X201.928 Y31.830 F5400
G1 X206.771 Y36.673 E71.19002 F2400
G0 X206.771 Y36.107 F5400
G1 X202.494 Y31.830 E71.39120 F2400
G0 X203.060 Y31.830 F5400
G1 X206.771 Y35.542 E71.56578 F2400
G0 X206.771 Y34.976 F5400
G1 X203.625 Y31.830 E71.71374 F2400
G0 X204.191 Y31.830 F5400
G1 X206.771 Y34.410 E71.83509 F2400
G0 X206.771 Y33.845 F5400
G1 X204.757 Y31.830 E71.92984 F2400
G0 X205.322 Y31.830 F5400
G1 X206.771 Y33.279 E71.99798 F2400
G0 X206.771 Y32.713 F5400
G1 X205.888 Y31.830 E72.03952 F2400
G0 X206.454 Y31.830 F5400
G1 X206.771 Y32.148 E72.05444 F2400
G0 F3000 E71.05444
G0 X206.784 Y31.470 F5400
G0 X206.059 Y70.269
G0 X206.066 Y69.909
G0 F3000 E72.05444
G1 X168.692 Y32.535 E73.81240 F2400
G0 X168.692 Y33.101 F5400
G1 X205.500 Y69.909 E75.54374 F2400
G0 X204.935 Y69.909 F5400
G1 X168.692 Y33.667 E77.24848 F2400
G0 X168.692 Y34.232 F5400
G1 X204.369 Y69.909 E78.92662 F2400
G0 X203.803 Y69.909 F5400
G1 X168.692 Y34.798 E80.57814 F2400
G0 X168.692 Y35.364 F5400
G1 X203.238 Y69.909 E82.20306 F2400
G0 X202.672 Y69.909 F5400
G1 X168.692 Y35.929 E83.80136 F2400
G0 X168.692 Y36.495 F5400
G1 X202.106 Y69.909 E85.37306 F2400
G0 X201.540 Y69.909 F5400
G1 X168.692 Y37.061 E86.91815 F2400
G0 X168.692 Y37.627 F5400
G1 X200.975 Y69.909 E88.43664 F2400
G0 X200.409 Y69.909 F5400
G1 X168.692 Y38.192 E89.92851 F2400
G0 X168.692 Y38.758 F5400
G1 X199.843 Y69.909 E91.39378 F2400
G0 X199.278 Y69.909 F5400
G1 X168.692 Y39.324 E92.83244 F2400
G0 X168.692 Y39.889 F5400
G1 X198.712 Y69.909 E94.24449 F2400
G0 X198.146 Y69.909 F5400
G1 X168.692 Y40.455 E95.62994 F2400
G0 X168.692 Y41.021 F5400
G1 X197.581 Y69.909 E96.98877 F2400
G0 X197.015 Y69.909 F5400
G1 X168.692 Y41.586 E98.32100 F2400
G0 X168.692 Y42.152 F5400
G1 X196.449 Y69.909 E99.62662 F2400
G0 X195.884 Y69.909 F5400
G1 X168.692 Y42.718 E100.90562 F2400
G0 X168.692 Y43.283 F5400
G1 X195.318 Y69.909 E102.15803 F2400
G0 X194.752 Y69.909 F5400
G1 X168.692 Y43.849 E103.38382 F2400
G0 X168.692 Y44.415 F5400
G1 X194.187 Y69.909 E104.58301 F2400
G0 X193.621 Y69.909 F5400
G1 X168.692 Y44.980 E105.75558 F2400
G0 X168.692 Y45.546 F5400
G1 X193.055 Y69.909 E106.90155 F2400
G0 X192.490 Y69.909 F5400
G1 X168.692 Y46.112 E108.02091 F2400
G0 X168.692 Y46.677 F5400
G1 X191.924 Y69.909 E109.11366 F2400
G0 X191.358 Y69.909 F5400
G1 X168.692 Y47.243 E110.17981 F2400
G0 X168.692 Y47.809 F5400
G1 X190.792 Y69.909 E111.21935 F2400
G0 X190.227 Y69.909 F5400
G1 X168.692 Y48.375 E112.23228 F2400
G0 X168.692 Y48.940 F5400
G1 X189.661 Y69.909 E113.21860 F2400
G0 X189.095 Y69.909 F5400
G1 X168.692 Y49.506 E114.17831 F2400
G0 X168.692 Y50.072 F5400
G1 X188.530 Y69.909 E115.11141 F2400
G0 X187.964 Y69.909 F5400
G1 X168.692 Y50.637 E116.01791 F2400
G0 X168.692 Y51.203 F5400
G1 X187.398 Y69.909 E116.89780 F2400
G0 X186.833 Y69.909 F5400
G1 X168.692 Y51.769 E117.75108 F2400
G0 X168.692 Y52.334 F5400
G1 X186.267 Y69.909 E118.57775 F2400
G0 X185.701 Y69.909 F5400
G1 X168.692 Y52.900 E119.37782 F2400
G0 X168.692 Y53.466 F5400
G1 X185.136 Y69.909 E120.15127 F2400
G0 X184.570 Y69.909 F5400
G1 X168.692 Y54.031 E120.89812 F2400
G0 X168.692 Y54.597 F5400
G1 X184.004 Y69.909 E121.61835 F2400
G0 X183.439 Y69.909 F5400
G1 X168.692 Y55.163 E122.31199 F2400
G0 X168.692 Y55.728 F5400
G1 X182.873 Y69.909 E122.97901 F2400
G0 X182.307 Y69.909 F5400
G1 X168.692 Y56.294 E123.61943 F2400
G0 X168.692 Y56.860 F5400
G1 X181.741 Y69.909 E124.23324 F2400
G0 X181.176 Y69.909 F5400
G1 X168.692 Y57.426 E124.82043 F2400
G0 X168.692 Y57.991 F5400
G1 X180.610 Y69.909 E125.38103 F2400
G0 X180.044 Y69.909 F5400
G1 X168.692 Y58.557 E125.91501 F2400
G0 X168.692 Y59.123 F5400
G1 X179.479 Y69.909 E126.42239 F2400
G0 X178.913 Y69.909 F5400
G1 X168.692 Y59.688 E126.90315 F2400
G0 X168.692 Y60.254 F5400
G1 X178.347 Y69.909 E127.35732 F2400
G0 X177.782 Y69.909 F5400
G1 X168.692 Y60.820 E127.78487 F2400
G0 X168.692 Y61.385 F5400
G1 X177.216 Y69.909 E128.18581 F2400
G0 X176.650 Y69.909 F5400
G1 X168.692 Y61.951 E128.56013 F2400
G0 X168.692 Y62.517 F5400
G1 X176.085 Y69.909 E128.90787 F2400
G0 X175.519 Y69.909 F5400
G1 X168.692 Y63.082 E129.22899 F2400
G0 X168.692 Y63.648 F5400
G1 X174.953 Y69.909 E129.52350 F2400
G0 X174.388 Y69.909 F5400
G1 X168.692 Y64.214 E129.79140 F2400
G0 X168.692 Y64.779 F5400
G1 X173.822 Y69.909 E130.03268 F2400
G0 X173.256 Y69.909 F5400
G1 X168.692 Y65.345 E130.24738 F2400
G0 X168.692 Y65.911 F5400
G1 X172.690 Y69.909 E130.43546 F2400
G0 X172.125 Y69.909 F5400
G1 X168.692 Y66.476 E130.59692 F2400
G0 X168.692 Y67.042 F5400
G1 X171.559 Y69.909 E130.73178 F2400
G0 X170.993 Y69.909 F5400
G1 X168.692 Y67.608 E130.84003 F2400
G0 X168.692 Y68.174 F5400
G1 X170.428 Y69.909 E130.92168 F2400
G0 X169.862 Y69.909 F5400
G1 X168.692 Y68.739 E130.97672 F2400
G0 X168.692 Y69.305 F5400
G1 X169.296 Y69.909 E131.00514 F2400
G0 X168.731 Y69.909 F5400
G1 X168.692 Y69.871 E131.00696 F2400
; ------------------------------------
; Layer #1
; ------------------------------------
G92 E0 ;reset extr
G0 F3000 E-1.00000
G0 F600 Z1.800
G0 X168.692 Y34.837 F7200
G0 F3000 E0.00000
;segType:HShell
G1 X171.698 Y31.830 E0.14141 F3600
G0 X171.133 Y31.830 F7200
G1 X168.692 Y34.271 E0.25622 F3600
G0 X168.692 Y33.705 F7200
G1 X170.567 Y31.830 E0.34441 F3600
G0 X170.001 Y31.830 F7200
G1 X168.692 Y33.140 E0.40600 F3600
G0 X168.692 Y32.574 F7200
G1 X169.436 Y31.830 E0.44098 F3600
G0 X168.692 Y32.008 F7200
G1 X168.870 Y31.830 E0.44936 F3600
G0 X168.147 Y31.650 F7200
;segType:Perimeter
G1 X167.992 Y31.070 E0.46931 F2159
G1 X207.531 Y31.070 E1.78439
G1 X207.531 Y70.669 E3.10147
G1 X167.932 Y70.669 E4.41854
G1 X167.932 Y31.130 E5.73362
G0 X167.992 Y31.070 F7200
G0 X169.592 Y31.070
G0 X169.032 Y31.470
;segType:Loop
G1 X207.131 Y31.470 E7.00080 F3600
G1 X207.131 Y70.269 E8.29127
G1 X168.332 Y70.269 E9.58173
G1 X168.332 Y31.470 E10.87220
G1 X168.832 Y31.470 E10.88883
G0 F3000 E9.88883
G0 X172.264 Y31.830 F7200
G0 F3000 E10.88883
;segType:HShell
G1 X168.692 Y35.403 E11.05685 F3600
G0 X168.692 Y35.968 F7200
G1 X172.830 Y31.830 E11.25148 F3600
G0 X173.395 Y31.830 F7200
G1 X168.692 Y36.534 E11.47272 F3600
G0 X168.692 Y37.100 F7200
G1 X173.961 Y31.830 E11.72057 F3600
G0 X174.527 Y31.830 F7200
G1 X168.692 Y37.665 E11.99502 F3600
G0 X168.692 Y38.231 F7200
G1 X175.093 Y31.830 E12.29608 F3600
G0 X175.658 Y31.830 F7200
G1 X168.692 Y38.797 E12.62375 F3600
G0 X168.692 Y39.362 F7200
G1 X176.224 Y31.830 E12.97803 F3600
G0 X176.790 Y31.830 F7200
G1 X168.692 Y39.928 E13.35892 F3600
G0 X168.692 Y40.494 F7200
G1 X177.355 Y31.830 E13.76641 F3600
G0 X177.921 Y31.830 F7200
G1 X168.692 Y41.059 E14.20051 F3600
G0 X168.692 Y41.625 F7200
G1 X178.487 Y31.830 E14.66122 F3600
G0 X179.052 Y31.830 F7200
G1 X168.692 Y42.191 E15.14854 F3600
G0 X168.692 Y42.756 F7200
G1 X179.618 Y31.830 E15.66247 F3600
G0 X180.184 Y31.830 F7200
G1 X168.692 Y43.322 E16.20300 F3600
G0 X168.692 Y43.888 F7200
G1 X180.749 Y31.830 E16.77014 F3600
G0 X181.315 Y31.830 F7200
G1 X168.692 Y44.453 E17.36389 F3600
G0 X168.692 Y45.019 F7200
G1 X181.881 Y31.830 E17.98425 F3600
G0 X182.446 Y31.830 F7200
G1 X168.692 Y45.585 E18.63122 F3600
G0 X168.692 Y46.151 F7200
G1 X183.012 Y31.830 E19.30479 F3600
G0 X183.578 Y31.830 F7200
G1 X168.692 Y46.716 E20.00497 F3600
G0 X168.692 Y47.282 F7200
G1 X184.143 Y31.830 E20.73177 F3600
G0 X184.709 Y31.830 F7200
G1 X168.692 Y47.848 E21.48517 F3600
G0 X168.692 Y48.413 F7200
G1 X185.275 Y31.830 E22.26517 F3600
G0 X185.841 Y31.830 F7200
G1 X168.692 Y48.979 E23.07179 F3600
G0 X168.692 Y49.545 F7200
G1 X186.406 Y31.830 E23.90501 F3600
G0 X186.972 Y31.830 F7200
G1 X168.692 Y50.110 E24.76484 F3600
G0 X168.692 Y50.676 F7200
G1 X187.538 Y31.830 E25.65128 F3600
G0 X188.103 Y31.830 F7200
G1 X168.692 Y51.242 E26.56433 F3600
G0 X168.692 Y51.807 F7200
G1 X188.669 Y31.830 E27.50399 F3600
G0 X189.235 Y31.830 F7200
G1 X168.692 Y52.373 E28.47025 F3600
G0 X168.692 Y52.939 F7200
G1 X189.800 Y31.830 E29.46312 F3600
G0 X190.366 Y31.830 F7200
G1 X168.692 Y53.504 E30.48260 F3600
G0 X168.692 Y54.070 F7200
G1 X190.932 Y31.830 E31.52869 F3600
G0 X191.497 Y31.830 F7200
G1 X168.692 Y54.636 E32.60138 F3600
G0 X168.692 Y55.202 F7200
G1 X192.063 Y31.830 E33.70069 F3600
G0 X192.629 Y31.830 F7200
G1 X168.692 Y55.767 E34.82660 F3600
G0 X168.692 Y56.333 F7200
G1 X193.194 Y31.830 E35.97912 F3600
G0 X193.760 Y31.830 F7200
G1 X168.692 Y56.899 E37.15825 F3600
G0 X168.692 Y57.464 F7200
G1 X194.326 Y31.830 E38.36399 F3600
G0 X194.891 Y31.830 F7200
G1 X168.692 Y58.030 E39.59633 F3600
G0 X168.692 Y58.596 F7200
G1 X195.457 Y31.830 E40.85529 F3600
G0 X196.023 Y31.830 F7200
G1 X168.692 Y59.161 E42.14085 F3600
G0 X168.692 Y59.727 F7200
G1 X196.589 Y31.830 E43.45302 F3600
G0 X197.154 Y31.830 F7200
G1 X168.692 Y60.293 E44.79179 F3600
G0 X168.692 Y60.858 F7200
G1 X197.720 Y31.830 E46.15718 F3600
G0 X198.286 Y31.830 F7200
G1 X168.692 Y61.424 E47.54917 F3600
G0 X168.692 Y61.990 F7200
G1 X198.851 Y31.830 E48.96777 F3600
G0 X199.417 Y31.830 F7200
G1 X168.692 Y62.555 E50.41298 F3600
G0 X168.692 Y63.121 F7200
G1 X199.983 Y31.830 E51.88480 F3600
G0 X200.548 Y31.830 F7200
G1 X168.692 Y63.687 E53.38322 F3600
G0 X168.692 Y64.252 F7200
G1 X201.114 Y31.830 E54.90826 F3600
G0 X201.680 Y31.830 F7200
G1 X168.692 Y64.818 E56.45989 F3600
G0 X168.692 Y65.384 F7200
G1 X202.245 Y31.830 E58.03815 F3600
G0 X202.811 Y31.830 F7200
G1 X168.692 Y65.950 E59.64300 F3600
G0 X168.692 Y66.515 F7200
G1 X203.377 Y31.830 E61.27447 F3600
G0 X203.942 Y31.830 F7200
G1 X168.692 Y67.081 E62.93254 F3600
G0 X168.692 Y67.647 F7200
G1 X204.508 Y31.830 E64.61723 F3600
G0 X205.074 Y31.830 F7200
G1 X168.692 Y68.212 E66.32852 F3600
G0 X168.692 Y68.778 F7200
G1 X205.639 Y31.830 E68.06642 F3600
G0 X206.205 Y31.830 F7200
G1 X168.692 Y69.344 E69.83092 F3600
G0 X168.692 Y69.909 F7200
G1 X206.771 Y31.830 E71.62203 F3600
G0 X206.771 Y32.396 F7200
G1 X169.258 Y69.909 E73.38655 F3600
G0 X169.823 Y69.909 F7200
G1 X206.771 Y32.962 E75.12445 F3600
G0 X206.771 Y33.527 F7200
G1 X170.389 Y69.909 E76.83573 F3600
G0 X170.955 Y69.909 F7200
G1 X206.771 Y34.093 E78.52042 F3600
G0 X206.771 Y34.659 F7200
G1 X171.520 Y69.909 E80.17849 F3600
G0 X172.086 Y69.909 F7200
G1 X206.771 Y35.225 E81.80996 F3600
G0 X206.771 Y35.790 F7200
G1 X172.652 Y69.909 E83.41482 F3600
G0 X173.217 Y69.909 F7200
G1 X206.771 Y36.356 E84.99307 F3600
G0 X206.771 Y36.922 F7200
G1 X173.783 Y69.909 E86.54472 F3600
G0 X174.349 Y69.909 F7200
G1 X206.771 Y37.487 E88.06975 F3600
G0 X206.771 Y38.053 F7200
G1 X174.915 Y69.909 E89.56818 F3600
G0 X175.480 Y69.909 F7200
G1 X206.771 Y38.619 E91.03999 F3600
G0 X206.771 Y39.184 F7200
G1 X176.046 Y69.909 E92.48521 F3600
G0 X176.612 Y69.909 F7200
G1 X206.771 Y39.750 E93.90381 F3600
G0 X206.771 Y40.316 F7200
G1 X177.177 Y69.909 E95.29581 F3600
G0 X177.743 Y69.909 F7200
G1 X206.771 Y40.881 E96.66119 F3600
G0 X206.771 Y41.447 F7200
G1 X178.309 Y69.909 E97.99997 F3600
G0 X178.874 Y69.909 F7200
G1 X206.771 Y42.013 E99.31214 F3600
G0 X206.771 Y42.578 F7200
G1 X179.440 Y69.909 E100.59770 F3600
G0 X180.006 Y69.909 F7200
G1 X206.771 Y43.144 E101.85666 F3600
G0 X206.771 Y43.710 F7200
G1 X180.571 Y69.909 E103.08900 F3600
G0 X181.137 Y69.909 F7200
G1 X206.771 Y44.275 E104.29475 F3600
G0 X206.771 Y44.841 F7200
G1 X181.703 Y69.909 E105.47388 F3600
G0 X182.268 Y69.909 F7200
G1 X206.771 Y45.407 E106.62640 F3600
G0 X206.771 Y45.973 F7200
G1 X182.834 Y69.909 E107.75231 F3600
G0 X183.400 Y69.909 F7200
G1 X206.771 Y46.538 E108.85162 F3600
G0 X206.771 Y47.104 F7200
G1 X183.965 Y69.909 E109.92432 F3600
G0 X184.531 Y69.909 F7200
G1 X206.771 Y47.670 E110.97041 F3600
G0 X206.771 Y48.235 F7200
G1 X185.097 Y69.909 E111.98989 F3600
G0 X185.663 Y69.909 F7200
G1 X206.771 Y48.801 E112.98277 F3600
G0 X206.771 Y49.367 F7200
G1 X186.228 Y69.909 E113.94903 F3600
G0 X186.794 Y69.909 F7200
G1 X206.771 Y49.932 E114.88869 F3600
G0 X206.771 Y50.498 F7200
G1 X187.360 Y69.909 E115.80173 F3600
G0 X187.925 Y69.909 F7200
G1 X206.771 Y51.064 E116.68818 F3600
G0 X206.771 Y51.629 F7200
G1 X188.491 Y69.909 E117.54801 F3600
G0 X189.057 Y69.909 F7200
G1 X206.771 Y52.195 E118.38124 F3600
G0 X206.771 Y52.761 F7200
G1 X189.622 Y69.909 E119.18786 F3600
G0 X190.188 Y69.909 F7200
G1 X206.771 Y53.326 E119.96786 F3600
G0 X206.771 Y53.892 F7200
G1 X190.754 Y69.909 E120.72127 F3600
G0 X191.319 Y69.909 F7200
G1 X206.771 Y54.458 E121.44806 F3600
G0 X206.771 Y55.023 F7200
G1 X191.885 Y69.909 E122.14825 F3600
G0 X192.451 Y69.909 F7200
G1 X206.771 Y55.589 E122.82182 F3600
G0 X206.771 Y56.155 F7200
G1 X193.016 Y69.909 E123.46880 F3600
G0 X193.582 Y69.909 F7200
G1 X206.771 Y56.721 E124.08916 F3600
G0 X206.771 Y57.286 F7200
G1 X194.148 Y69.909 E124.68291 F3600
G0 X194.714 Y69.909 F7200
G1 X206.771 Y57.852 E125.25005 F3600
G0 X206.771 Y58.418 F7200
G1 X195.279 Y69.909 E125.79059 F3600
G0 X195.845 Y69.909 F7200
G1 X206.771 Y58.983 E126.30452 F3600
G0 X206.771 Y59.549 F7200
G1 X196.411 Y69.909 E126.79184 F3600
G0 X196.976 Y69.909 F7200
G1 X206.771 Y60.115 E127.25256 F3600
G0 X206.771 Y60.680 F7200
G1 X197.542 Y69.909 E127.68666 F3600
G0 X198.108 Y69.909 F7200
G1 X206.771 Y61.246 E128.09416 F3600
G0 X206.771 Y61.812 F7200
G1 X198.673 Y69.909 E128.47505 F3600
G0 X199.239 Y69.909 F7200
G1 X206.771 Y62.377 E128.82933 F3600
G0 X206.771 Y62.943 F7200
G1 X199.805 Y69.909 E129.15700 F3600
G0 X200.370 Y69.909 F7200
G1 X206.771 Y63.509 E129.45807 F3600
G0 X206.771 Y64.074 F7200
G1 X200.936 Y69.909 E129.73253 F3600
G0 X201.502 Y69.909 F7200
G1 X206.771 Y64.640 E129.98038 F3600
G0 X206.771 Y65.206 F7200
G1 X202.067 Y69.909 E130.20161 F3600
G0 X202.633 Y69.909 F7200
G1 X206.771 Y65.771 E130.39624 F3600
G0 X206.771 Y66.337 F7200
G1 X203.199 Y69.909 E130.56427 F3600
G0 X203.765 Y69.909 F7200
G1 X206.771 Y66.903 E130.70569 F3600
G0 X206.771 Y67.469 F7200
G1 X204.330 Y69.909 E130.82050 F3600
G0 X204.896 Y69.909 F7200
G1 X206.771 Y68.034 E130.90869 F3600
G0 X206.771 Y68.600 F7200
G1 X205.462 Y69.909 E130.97028 F3600
G0 X206.027 Y69.909 F7200
G1 X206.771 Y69.166 E131.00526 F3600
G0 X206.771 Y69.731 F7200
G1 X206.593 Y69.909 E131.01364 F3600
; ------------------------------------
; Layer #2
; ------------------------------------
G92 E0 ;reset extr
G0 F3000 E-1.00000
G0 F600 Z2.000
G0 X206.632 Y69.909 F7200
G0 F3000 E0.00000
;segType:HShell
G1 X168.692 Y31.970 E1.78456 F3600
G0 X168.147 Y31.650 F7200
;segType:Perimeter
G1 X167.992 Y31.070 E1.80452 F2159
G1 X207.531 Y31.070 E3.11960
G1 X207.531 Y70.669 E4.43667
G1 X167.932 Y70.669 E5.75375
G1 X167.932 Y31.130 E7.06883
G0 X167.992 Y31.070 F7200
G0 X169.592 Y31.070
G0 X169.032 Y31.470
;segType:Loop
G1 X207.131 Y31.470 E8.33601 F3600
G1 X207.131 Y70.269 E9.62648
G1 X168.332 Y70.269 E10.91694
G1 X168.332 Y31.470 E12.20741
G1 X168.832 Y31.470 E12.22404
G0 X169.118 Y31.830 F7200
;segType:HShell
G1 X206.771 Y69.483 E13.99510 F3600
G0 X206.771 Y68.917 F7200
G1 X169.684 Y31.830 E15.73955 F3600
G0 X170.250 Y31.830 F7200
G1 X206.771 Y68.352 E17.45740 F3600
G0 X206.771 Y67.786 F7200
G1 X170.815 Y31.830 E19.14863 F3600
G0 X171.381 Y31.830 F7200
G1 X206.771 Y67.220 E20.81326 F3600
G0 X206.771 Y66.654 F7200
G1 X171.947 Y31.830 E22.45128 F3600
G0 X172.512 Y31.830 F7200
G1 X206.771 Y66.089 E24.06269 F3600
G0 X206.771 Y65.523 F7200
G1 X173.078 Y31.830 E25.64749 F3600
G0 X173.644 Y31.830 F7200
G1 X206.771 Y64.957 E27.20569 F3600
G0 X206.771 Y64.392 F7200
G1 X174.210 Y31.830 E28.73727 F3600
G0 X174.775 Y31.830 F7200
G1 X206.771 Y63.826 E30.24225 F3600
G0 X206.771 Y63.260 F7200
G1 X175.341 Y31.830 E31.72062 F3600
G0 X175.907 Y31.830 F7200
G1 X206.771 Y62.695 E33.17238 F3600
G0 X206.771 Y62.129 F7200
G1 X176.472 Y31.830 E34.59754 F3600
G0 X177.038 Y31.830 F7200
G1 X206.771 Y61.563 E35.99609 F3600
G0 X206.771 Y60.998 F7200
G1 X177.604 Y31.830 E37.36802 F3600
G0 X178.169 Y31.830 F7200
G1 X206.771 Y60.432 E38.71335 F3600
G0 X206.771 Y59.866 F7200
G1 X178.735 Y31.830 E40.03208 F3600
G0 X179.301 Y31.830 F7200
G1 X206.771 Y59.301 E41.32419 F3600
G0 X206.771 Y58.735 F7200
G1 X179.866 Y31.830 E42.58970 F3600
G0 X180.432 Y31.830 F7200
G1 X206.771 Y58.169 E43.82859 F3600
G0 X206.771 Y57.604 F7200
G1 X180.998 Y31.830 E45.04088 F3600
G0 X181.563 Y31.830 F7200
G1 X206.771 Y57.038 E46.22656 F3600
G0 X206.771 Y56.472 F7200
G1 X182.129 Y31.830 E47.38563 F3600
G0 X182.695 Y31.830 F7200
G1 X206.771 Y55.906 E48.51810 F3600
G0 X206.771 Y55.341 F7200
G1 X183.261 Y31.830 E49.62396 F3600
G0 X183.826 Y31.830 F7200
G1 X206.771 Y54.775 E50.70320 F3600
G0 X206.771 Y54.209 F7200
G1 X184.392 Y31.830 E51.75584 F3600
G0 X184.958 Y31.830 F7200
G1 X206.771 Y53.644 E52.78187 F3600
G0 X206.771 Y53.078 F7200
G1 X185.523 Y31.830 E53.78130 F3600
G0 X186.089 Y31.830 F7200
G1 X206.771 Y52.512 E54.75411 F3600
G0 X206.771 Y51.947 F7200
G1 X186.655 Y31.830 E55.70032 F3600
G0 X187.220 Y31.830 F7200
G1 X206.771 Y51.381 E56.61992 F3600
G0 X206.771 Y50.815 F7200
G1 X187.786 Y31.830 E57.51291 F3600
G0 X188.352 Y31.830 F7200
G1 X206.771 Y50.250 E58.37929 F3600
G0 X206.771 Y49.684 F7200
G1 X188.917 Y31.830 E59.21907 F3600
G0 X189.483 Y31.830 F7200
G1 X206.771 Y49.118 E60.03224 F3600
G0 X206.771 Y48.553 F7200
G1 X190.049 Y31.830 E60.81880 F3600
G0 X190.614 Y31.830 F7200
G1 X206.771 Y47.987 E61.57875 F3600
G0 X206.771 Y47.421 F7200
G1 X191.180 Y31.830 E62.31209 F3600
G0 X191.746 Y31.830 F7200
G1 X206.771 Y46.855 E63.01882 F3600
G0 X206.771 Y46.290 F7200
G1 X192.312 Y31.830 E63.69895 F3600
G0 X192.877 Y31.830 F7200
G1 X206.771 Y45.724 E64.35247 F3600
G0 X206.771 Y45.158 F7200
G1 X193.443 Y31.830 E64.97937 F3600
G0 X194.009 Y31.830 F7200
G1 X206.771 Y44.593 E65.57968 F3600
G0 X206.771 Y44.027 F7200
G1 X194.574 Y31.830 E66.15337 F3600
G0 X195.140 Y31.830 F7200
G1 X206.771 Y43.461 E66.70046 F3600
G0 X206.771 Y42.896 F7200
G1 X195.706 Y31.830 E67.22093 F3600
G0 X196.271 Y31.830 F7200
G1 X206.771 Y42.330 E67.71481 F3600
G0 X206.771 Y41.764 F7200
G1 X196.837 Y31.830 E68.18207 F3600
G0 X197.403 Y31.830 F7200
G1 X206.771 Y41.199 E68.62272 F3600
G0 X206.771 Y40.633 F7200
G1 X197.968 Y31.830 E69.03677 F3600
G0 X198.534 Y31.830 F7200
G1 X206.771 Y40.067 E69.42420 F3600
G0 X206.771 Y39.502 F7200
G1 X199.100 Y31.830 E69.78504 F3600
G0 X199.665 Y31.830 F7200
G1 X206.771 Y38.936 E70.11926 F3600
G0 X206.771 Y38.370 F7200
G1 X200.231 Y31.830 E70.42687 F3600
G0 X200.797 Y31.830 F7200
G1 X206.771 Y37.805 E70.70787 F3600
G0 X206.771 Y37.239 F7200
G1 X201.362 Y31.830 E70.96227 F3600
G0 X201.928 Y31.830 F7200
G1 X206.771 Y36.673 E71.19006 F3600
G0 X206.771 Y36.107 F7200
G1 X202.494 Y31.830 E71.39124 F3600
G0 X203.060 Y31.830 F7200
G1 X206.771 Y35.542 E71.56581 F3600
G0 X206.771 Y34.976 F7200
G1 X203.625 Y31.830 E71.71378 F3600
G0 X204.191 Y31.830 F7200
G1 X206.771 Y34.410 E71.83513 F3600
G0 X206.771 Y33.845 F7200
G1 X204.757 Y31.830 E71.92988 F3600
G0 X205.322 Y31.830 F7200
G1 X206.771 Y33.279 E71.99802 F3600
G0 X206.771 Y32.713 F7200
G1 X205.888 Y31.830 E72.03955 F3600
G0 X206.454 Y31.830 F7200
G1 X206.771 Y32.148 E72.05448 F3600
G0 F3000 E71.05448
G0 X206.784 Y31.470 F7200
G0 X206.059 Y70.269
G0 X206.066 Y69.909
G0 F3000 E72.05448
G1 X168.692 Y32.535 E73.81243 F3600
G0 X168.692 Y33.101 F7200
G1 X205.500 Y69.909 E75.54378 F3600
G0 X204.935 Y69.909 F7200
G1 X168.692 Y33.667 E77.24852 F3600
G0 X168.692 Y34.232 F7200
G1 X204.369 Y69.909 E78.92665 F3600
G0 X203.803 Y69.909 F7200
G1 X168.692 Y34.798 E80.57817 F3600
G0 X168.692 Y35.364 F7200
G1 X203.238 Y69.909 E82.20309 F3600
G0 X202.672 Y69.909 F7200
G1 X168.692 Y35.929 E83.80139 F3600
G0 X168.692 Y36.495 F7200
G1 X202.106 Y69.909 E85.37309 F3600
G0 X201.540 Y69.909 F7200
G1 X168.692 Y37.061 E86.91818 F3600
G0 X168.692 Y37.627 F7200
G1 X200.975 Y69.909 E88.43667 F3600
G0 X200.409 Y69.909 F7200
G1 X168.692 Y38.192 E89.92854 F3600
G0 X168.692 Y38.758 F7200
G1 X199.843 Y69.909 E91.39381 F3600
G0 X199.278 Y69.909 F7200
G1 X168.692 Y39.324 E92.83247 F3600
G0 X168.692 Y39.889 F7200
G1 X198.712 Y69.909 E94.24451 F3600
G0 X198.146 Y69.909 F7200
G1 X168.692 Y40.455 E95.62996 F3600
G0 X168.692 Y41.021 F7200
G1 X197.581 Y69.909 E96.98879 F3600
G0 X197.015 Y69.909 F7200
G1 X168.692 Y41.586 E98.32101 F3600
G0 X168.692 Y42.152 F7200
G1 X196.449 Y69.909 E99.62663 F3600
G0 X195.884 Y69.909 F7200
G1 X168.692 Y42.718 E100.90564 F3600
G0 X168.692 Y43.283 F7200
G1 X195.318 Y69.909 E102.15804 F3600
G0 X194.752 Y69.909 F7200
G1 X168.692 Y43.849 E103.38383 F3600
G0 X168.692 Y44.415 F7200
G1 X194.187 Y69.909 E104.58302 F3600
G0 X193.621 Y69.909 F7200
G1 X168.692 Y44.980 E105.75560 F3600
G0 X168.692 Y45.546 F7200
G1 X193.055 Y69.909 E106.90157 F3600
G0 X192.489 Y69.909 F7200
G1 X168.692 Y46.112 E108.02093 F3600
G0 X168.692 Y46.678 F7200
G1 X191.924 Y69.909 E109.11368 F3600
G0 X191.358 Y69.909 F7200
G1 X168.692 Y47.243 E110.17982 F3600
G0 X168.692 Y47.809 F7200
G1 X190.792 Y69.909 E111.21936 F3600
G0 X190.227 Y69.909 F7200
G1 X168.692 Y48.375 E112.23229 F3600
G0 X168.692 Y48.940 F7200
G1 X189.661 Y69.909 E113.21861 F3600
G0 X189.095 Y69.909 F7200
G1 X168.692 Y49.506 E114.17832 F3600
G0 X168.692 Y50.072 F7200
G1 X188.530 Y69.909 E115.11143 F3600
G0 X187.964 Y69.909 F7200
G1 X168.692 Y50.637 E116.01792 F3600
G0 X168.692 Y51.203 F7200
G1 X187.398 Y69.909 E116.89781 F3600
G0 X186.833 Y69.909 F7200
G1 X168.692 Y51.769 E117.75109 F3600
G0 X168.692 Y52.334 F7200
G1 X186.267 Y69.909 E118.57776 F3600
G0 X185.701 Y69.909 F7200
G1 X168.692 Y52.900 E119.37782 F3600
G0 X168.692 Y53.466 F7200
G1 X185.136 Y69.909 E120.15128 F3600
G0 X184.570 Y69.909 F7200
G1 X168.692 Y54.031 E120.89812 F3600
G0 X168.692 Y54.597 F7200
G1 X184.004 Y69.909 E121.61836 F3600
G0 X183.439 Y69.909 F7200
G1 X168.692 Y55.163 E122.31200 F3600
G0 X168.692 Y55.728 F7200
G1 X182.873 Y69.909 E122.97902 F3600
G0 X182.307 Y69.909 F7200
G1 X168.692 Y56.294 E123.61943 F3600
G0 X168.692 Y56.860 F7200
G1 X181.741 Y69.909 E124.23324 F3600
G0 X181.176 Y69.909 F7200
G1 X168.692 Y57.426 E124.82043 F3600
G0 X168.692 Y57.991 F7200
G1 X180.610 Y69.909 E125.38103 F3600
G0 X180.044 Y69.909 F7200
G1 X168.692 Y58.557 E125.91501 F3600
G0 X168.692 Y59.123 F7200
G1 X179.479 Y69.909 E126.42239 F3600
G0 X178.913 Y69.909 F7200
G1 X168.692 Y59.688 E126.90315 F3600
G0 X168.692 Y60.254 F7200
G1 X178.347 Y69.909 E127.35731 F3600
G0 X177.782 Y69.909 F7200
G1 X168.692 Y60.820 E127.78486 F3600
G0 X168.692 Y61.385 F7200
G1 X177.216 Y69.909 E128.18581 F3600
G0 X176.650 Y69.909 F7200
G1 X168.692 Y61.951 E128.56013 F3600
G0 X168.692 Y62.517 F7200
G1 X176.085 Y69.909 E128.90787 F3600
G0 X175.519 Y69.909 F7200
G1 X168.692 Y63.082 E129.22899 F3600
G0 X168.692 Y63.648 F7200
G1 X174.953 Y69.909 E129.52350 F3600
G0 X174.388 Y69.909 F7200
G1 X168.692 Y64.214 E129.79140 F3600
G0 X168.692 Y64.779 F7200
G1 X173.822 Y69.909 E130.03268 F3600
G0 X173.256 Y69.909 F7200
G1 X168.692 Y65.345 E130.24738 F3600
G0 X168.692 Y65.911 F7200
G1 X172.690 Y69.909 E130.43546 F3600
G0 X172.125 Y69.909 F7200
G1 X168.692 Y66.476 E130.59692 F3600
G0 X168.692 Y67.042 F7200
G1 X171.559 Y69.909 E130.73178 F3600
G0 X170.993 Y69.909 F7200
G1 X168.692 Y67.608 E130.84003 F3600
G0 X168.692 Y68.174 F7200
G1 X170.428 Y69.909 E130.92168 F3600
G0 X169.862 Y69.909 F7200
G1 X168.692 Y68.739 E130.97672 F3600
G0 X168.692 Y69.305 F7200
G1 X169.296 Y69.909 E131.00514 F3600
G0 X168.731 Y69.909 F7200
G1 X168.692 Y69.871 E131.00696 F3600
; ------------------------------------
; Layer #3
; ------------------------------------
G92 E0 ;reset extr
G0 F3000 E-1.00000
G0 F600 Z2.200
G0 X168.672 Y70.269 F7200
G0 X170.585 Y31.470
G0 X170.567 Y31.830
G0 F3000 E0.00000
;segType:Infill
G1 X168.692 Y33.705 E0.10584 F4500
G0 X169.032 Y31.470 F7200
;segType:Loop
G1 X207.131 Y31.470 E1.37302 F3600
G1 X207.131 Y70.269 E2.66349
G1 X168.332 Y70.269 E3.95395
G1 X168.332 Y31.470 E5.24442
G1 X168.832 Y31.470 E5.26105
G0 X168.832 Y31.470 F7200
G0 X168.332 Y31.601
G0 X168.147 Y31.650
;segType:Perimeter
G1 X167.992 Y31.070 E5.28100 F2159
G1 X207.531 Y31.070 E6.59608
G1 X207.531 Y70.669 E7.91316
G1 X167.932 Y70.669 E9.23023
G1 X167.932 Y31.130 E10.54531
G0 X167.992 Y31.070 F7200
G0 X169.592 Y31.070
G0 F3000 E9.54531
G0 X168.692 Y38.231 F7200
G0 F3000 E10.54531
;segType:Infill
G1 X175.093 Y31.830 E10.90658 F4500
G0 X179.618 Y31.830 F7200
G1 X168.692 Y42.756 E11.52330 F4500
G0 X168.692 Y47.282 F7200
G1 X184.143 Y31.830 E12.39544 F4500
G0 X188.669 Y31.830 F7200
G1 X168.692 Y51.807 E13.52303 F4500
G0 X168.692 Y56.333 F7200
G1 X193.194 Y31.830 E14.90606 F4500
G0 X202.245 Y31.830 F7200
G1 X168.692 Y65.384 E16.79996 F4500
G0 F3000 E15.79996
G0 X168.692 Y69.909 F7200
G0 F3000 E16.79996
G1 X206.771 Y31.830 E18.94929 F4500
G0 F3000 E17.94929
G0 X206.771 Y36.356 F7200
G0 F3000 E18.94929
G1 X173.217 Y69.909 E20.84319 F4500
G0 X177.743 Y69.909 F7200
G1 X206.771 Y40.881 E22.48166 F4500
G0 X206.771 Y45.407 F7200
G1 X182.268 Y69.909 E23.86468 F4500
G0 X186.794 Y69.909 F7200
G1 X206.771 Y49.932 E24.99227 F4500
G0 X206.771 Y54.458 F7200
G1 X191.319 Y69.909 E25.86442 F4500
G0 X204.896 Y69.909 F7200
G1 X206.771 Y68.034 E25.97026 F4500
G0 X206.771 Y63.509 F7200
G1 X200.370 Y69.909 E26.33153 F4500
G0 X195.845 Y69.909 F7200
G1 X206.771 Y58.983 E26.94825 F4500
G0 X197.720 Y31.830 F7200
G1 X168.692 Y60.858 E28.58671 F4500
; ------------------------------------
; Layer #4
; ------------------------------------
G92 E0 ;reset extr
G0 F3000 E-1.00000
G0 F600 Z2.400
G0 X205.500 Y69.909 F7200
G0 F3000 E0.00000
;segType:Infill
G1 X168.692 Y33.101 E2.07762 F4500
G0 X168.332 Y31.470 F7200
G0 X168.147 Y31.650
;segType:Perimeter
G1 X167.992 Y31.070 E2.09757 F2159
G1 X207.531 Y31.070 E3.41265
G1 X207.531 Y70.669 E4.72973
G1 X167.932 Y70.669 E6.04680
G1 X167.932 Y31.130 E7.36188
G0 X167.992 Y31.070 F7200
G0 X169.592 Y31.070
G0 X169.032 Y31.470
;segType:Loop
G1 X207.131 Y31.470 E8.62906 F3600
G1 X207.131 Y70.269 E9.91953
G1 X168.332 Y70.269 E11.21000
G1 X168.332 Y31.470 E12.50046
G1 X168.832 Y31.470 E12.51709
G0 F3000 E11.51709
G0 X171.947 Y31.830 F7200
G0 F3000 E12.51709
;segType:Infill
G1 X206.771 Y66.654 E14.48271 F4500
G0 X200.975 Y69.909 F7200
G1 X168.692 Y37.627 E16.30489 F4500
G0 X168.692 Y51.203 F7200
G1 X187.398 Y69.909 E17.36076 F4500
G0 X182.873 Y69.909 F7200
G1 X168.692 Y55.728 E18.16119 F4500
G0 X168.692 Y60.254 F7200
G1 X178.347 Y69.909 E18.70618 F4500
G0 X173.822 Y69.909 F7200
G1 X168.692 Y64.779 E18.99573 F4500
G0 X168.692 Y69.305 F7200
G1 X169.296 Y69.909 E19.02985 F4500
G0 X191.924 Y69.909 F7200
G1 X168.692 Y46.677 E20.34115 F4500
G0 X168.692 Y42.152 F7200
G1 X196.449 Y69.909 E21.90789 F4500
G0 X206.771 Y62.129 F7200
G1 X176.472 Y31.830 E23.61808 F4500
G0 X180.998 Y31.830 F7200
G1 X206.771 Y57.604 E25.07282 F4500
G0 X206.771 Y53.078 F7200
G1 X185.523 Y31.830 E26.27213 F4500
G0 X199.100 Y31.830 F7200
G1 X206.771 Y39.502 E26.70513 F4500
G0 X206.771 Y34.976 F7200
G1 X203.625 Y31.830 E26.88268 F4500
G0 X194.574 Y31.830 F7200
G1 X206.771 Y44.027 E27.57112 F4500
G0 X206.771 Y48.553 F7200
G1 X190.049 Y31.830 E28.51499 F4500
; ------------------------------------
; Layer #5
; ------------------------------------
G92 E0 ;reset extr
G0 F3000 E-1.00000
G0 F600 Z2.600
G0 X170.567 Y31.830 F7200
G0 F3000 E0.00000
;segType:Infill
G1 X168.692 Y33.705 E0.10584 F4500
G0 X169.032 Y31.470 F7200
;segType:Loop
G1 X207.131 Y31.470 E1.37302 F3600
G1 X207.131 Y70.269 E2.66349
G1 X168.332 Y70.269 E3.95395
G1 X168.332 Y31.470 E5.24442
G1 X168.832 Y31.470 E5.26105
G0 X168.832 Y31.470 F7200
G0 X168.332 Y31.601
G0 X168.147 Y31.650
;segType:Perimeter
G1 X167.992 Y31.070 E5.28101 F2159
G1 X207.531 Y31.070 E6.59608
G1 X207.531 Y70.669 E7.91316
G1 X167.932 Y70.669 E9.23023
G1 X167.932 Y31.130 E10.54531
G0 X167.992 Y31.070 F7200
G0 X169.592 Y31.070
G0 F3000 E9.54531
G0 X168.692 Y38.231 F7200
G0 F3000 E10.54531
;segType:Infill
G1 X175.093 Y31.830 E10.90659 F4500
G0 X179.618 Y31.830 F7200
G1 X168.692 Y42.756 E11.52330 F4500
G0 X168.692 Y56.333 F7200
G1 X193.194 Y31.830 E12.90632 F4500
G0 X197.720 Y31.830 F7200
G1 X168.692 Y60.858 E14.54479 F4500
G0 X173.217 Y69.909 F7200
G1 X206.771 Y36.356 E16.43869 F4500
G0 X206.771 Y40.881 F7200
G1 X177.743 Y69.909 E18.07715 F4500
G0 X182.268 Y69.909 F7200
G1 X206.771 Y45.407 E19.46018 F4500
G0 X206.771 Y54.458 F7200
G1 X191.319 Y69.909 E20.33233 F4500
G0 X200.370 Y69.909 F7200
G1 X206.771 Y63.509 E20.69360 F4500
G0 F3000 E19.69360
G0 X204.896 Y69.909 F7200
G0 F3000 E20.69360
G1 X206.771 Y68.034 E20.79944 F4500
G0 X206.771 Y58.983 F7200
G1 X195.845 Y69.909 E21.41615 F4500
G0 X186.794 Y69.909 F7200
G1 X206.771 Y49.932 E22.54374 F4500
G0 F3000 E21.54374
G0 X206.771 Y31.830 F7200
G0 F3000 E22.54374
G1 X168.692 Y69.909 E24.69308 F4500
G0 F3000 E23.69308
G0 X168.692 Y65.384 F7200
G0 F3000 E24.69308
G1 X202.245 Y31.830 E26.58698 F4500
G0 X188.669 Y31.830 F7200
G1 X168.692 Y51.807 E27.71457 F4500
G0 X168.692 Y47.282 F7200
G1 X184.143 Y31.830 E28.58672 F4500
; ------------------------------------
; Layer #6
; ------------------------------------
G92 E0 ;reset extr
G0 F3000 E-1.00000
G0 F600 Z2.800
G0 X205.500 Y69.909 F7200
G0 F3000 E0.00000
;segType:Infill
G1 X168.692 Y33.101 E2.07762 F4500
G0 X168.332 Y31.470 F7200
G0 X168.147 Y31.650
;segType:Perimeter
G1 X167.992 Y31.070 E2.09757 F2159
G1 X207.531 Y31.070 E3.41265
G1 X207.531 Y70.669 E4.72973
G1 X167.932 Y70.669 E6.04680
G1 X167.932 Y31.130 E7.36188
G0 X167.992 Y31.070 F7200
G0 X169.592 Y31.070
G0 X169.032 Y31.470
;segType:Loop
G1 X207.131 Y31.470 E8.62906 F3600
G1 X207.131 Y70.269 E9.91953
G1 X168.332 Y70.269 E11.21000
G1 X168.332 Y31.470 E12.50046
G1 X168.832 Y31.470 E12.51709
G0 F3000 E11.51709
G0 X171.947 Y31.830 F7200
G0 F3000 E12.51709
;segType:Infill
G1 X206.771 Y66.654 E14.48272 F4500
G0 X206.771 Y62.129 F7200
G1 X176.472 Y31.830 E16.19290 F4500
G0 X180.998 Y31.830 F7200
G1 X206.771 Y57.604 E17.64765 F4500
G0 X206.771 Y53.078 F7200
G1 X185.523 Y31.830 E18.84696 F4500
G0 X199.100 Y31.830 F7200
G1 X206.771 Y39.502 E19.27995 F4500
G0 X206.771 Y34.976 F7200
G1 X203.625 Y31.830 E19.45751 F4500
G0 F3000 E18.45751
G0 X206.771 Y44.027 F7200
G0 F3000 E19.45751
G1 X194.574 Y31.830 E20.14594 F4500
G0 X190.049 Y31.830 F7200
G1 X206.771 Y48.553 E21.08981 F4500
G0 X191.924 Y69.909 F7200
G1 X168.692 Y46.677 E22.40112 F4500
G0 X168.692 Y51.203 F7200
G1 X187.398 Y69.909 E23.45698 F4500
G0 X182.873 Y69.909 F7200
G1 X168.692 Y55.728 E24.25741 F4500
G0 X168.692 Y60.254 F7200
G1 X178.347 Y69.909 E24.80240 F4500
G0 X173.822 Y69.909 F7200
G1 X168.692 Y64.779 E25.09195 F4500
G0 X168.692 Y69.305 F7200
G1 X169.296 Y69.909 E25.12607 F4500
G0 F3000 E24.12607
G0 X168.692 Y42.152 F7200
G0 F3000 E25.12607
G1 X196.449 Y69.909 E26.69281 F4500
G0 X200.975 Y69.909 F7200
G1 X168.692 Y37.627 E28.51499 F4500
; ------------------------------------
; Layer #7
; ------------------------------------
G92 E0 ;reset extr
G0 F3000 E-1.00000
G0 F600 Z3.000
G0 X170.567 Y31.830 F7200
G0 F3000 E0.00000
;segType:Infill
G1 X168.692 Y33.705 E0.10584 F4500
G0 X169.032 Y31.470 F7200
;segType:Loop
G1 X207.131 Y31.470 E1.37302 F3600
G1 X207.131 Y70.269 E2.66349
G1 X168.332 Y70.269 E3.95395
G1 X168.332 Y31.470 E5.24442
G1 X168.832 Y31.470 E5.26105
G0 X168.832 Y31.470 F7200
G0 X168.332 Y31.601
G0 X168.147 Y31.650
;segType:Perimeter
G1 X167.992 Y31.070 E5.28100 F2159
G1 X207.531 Y31.070 E6.59608
G1 X207.531 Y70.669 E7.91316
G1 X167.932 Y70.669 E9.23023
G1 X167.932 Y31.130 E10.54531
G0 X167.992 Y31.070 F7200
G0 X169.592 Y31.070
G0 F3000 E9.54531
G0 X168.692 Y38.231 F7200
G0 F3000 E10.54531
;segType:Infill
G1 X175.093 Y31.830 E10.90658 F4500
G0 X179.618 Y31.830 F7200
G1 X168.692 Y42.756 E11.52329 F4500
G0 X168.692 Y47.282 F7200
G1 X184.144 Y31.830 E12.39544 F4500
G0 X188.669 Y31.830 F7200
G1 X168.692 Y51.807 E13.52303 F4500
G0 X168.692 Y56.333 F7200
G1 X193.194 Y31.830 E14.90605 F4500
G0 X197.720 Y31.830 F7200
G1 X168.692 Y60.858 E16.54452 F4500
G0 F3000 E15.54452
G0 X200.370 Y69.909 F7200
G0 F3000 E16.54452
G1 X206.771 Y63.509 E16.90579 F4500
G0 X206.771 Y68.034 F7200
G1 X204.896 Y69.909 E17.01162 F4500
G0 F3000 E16.01162
G0 X206.771 Y58.983 F7200
G0 F3000 E17.01162
G1 X195.845 Y69.909 E17.62833 F4500
G0 X191.319 Y69.909 F7200
G1 X206.771 Y54.458 E18.50048 F4500
G0 X206.771 Y49.932 F7200
G1 X186.794 Y69.909 E19.62807 F4500
G0 X182.268 Y69.909 F7200
G1 X206.771 Y45.407 E21.01109 F4500
G0 X206.771 Y40.881 F7200
G1 X177.743 Y69.909 E22.64956 F4500
G0 X173.217 Y69.909 F7200
G1 X206.771 Y36.356 E24.54346 F4500
G0 F3000 E23.54346
G0 X206.771 Y31.830 F7200
G0 F3000 E24.54346
G1 X168.692 Y69.909 E26.69279 F4500
G0 F3000 E25.69279
G0 X168.692 Y65.384 F7200
G0 F3000 E26.69279
G1 X202.245 Y31.830 E28.58669 F4500
; ------------------------------------
; Layer #8
; ------------------------------------
G92 E0 ;reset extr
G0 F3000 E-1.00000
G0 F600 Z3.200
G0 X202.215 Y31.470 F7200
G0 X205.531 Y70.269
G0 X205.500 Y69.909
G0 F3000 E0.00000
;segType:Infill
G1 X168.692 Y33.101 E2.07762 F4500
G0 X168.332 Y31.470 F7200
G0 X168.147 Y31.650
;segType:Perimeter
G1 X167.992 Y31.070 E2.09757 F2159
G1 X207.531 Y31.070 E3.41265
G1 X207.531 Y70.669 E4.72973
G1 X167.932 Y70.669 E6.04680
G1 X167.932 Y31.130 E7.36188
G0 X167.992 Y31.070 F7200
G0 X169.592 Y31.070
G0 X169.032 Y31.470
;segType:Loop
G1 X207.131 Y31.470 E8.62906 F3600
G1 X207.131 Y70.269 E9.91953
G1 X168.332 Y70.269 E11.21000
G1 X168.332 Y31.470 E12.50046
G1 X168.832 Y31.470 E12.51709
G0 F3000 E11.51709
G0 X171.947 Y31.830 F7200
G0 F3000 E12.51709
;segType:Infill
G1 X206.771 Y66.654 E14.48272 F4500
G0 X200.975 Y69.909 F7200
G1 X168.692 Y37.627 E16.30490 F4500
G0 X168.692 Y51.203 F7200
G1 X187.398 Y69.909 E17.36076 F4500
G0 X182.873 Y69.909 F7200
G1 X168.692 Y55.728 E18.16119 F4500
G0 X168.692 Y60.254 F7200
G1 X178.347 Y69.909 E18.70618 F4500
G0 X173.822 Y69.909 F7200
G1 X168.692 Y64.779 E18.99574 F4500
G0 X168.692 Y69.305 F7200
G1 X169.296 Y69.909 E19.02985 F4500
G0 X191.924 Y69.909 F7200
G1 X168.692 Y46.677 E20.34115 F4500
G0 X168.692 Y42.152 F7200
G1 X196.449 Y69.909 E21.90790 F4500
G0 X206.771 Y62.129 F7200
G1 X176.472 Y31.830 E23.61808 F4500
G0 X180.998 Y31.830 F7200
G1 X206.771 Y57.604 E25.07283 F4500
G0 X206.771 Y53.078 F7200
G1 X185.523 Y31.830 E26.27214 F4500
G0 X199.100 Y31.830 F7200
G1 X206.771 Y39.502 E26.70513 F4500
G0 X206.771 Y34.976 F7200
G1 X203.625 Y31.830 E26.88269 F4500
G0 X194.574 Y31.830 F7200
G1 X206.771 Y44.027 E27.57112 F4500
G0 X206.771 Y48.553 F7200
G1 X190.049 Y31.830 E28.51499 F4500
; ------------------------------------
; Layer #9
; ------------------------------------
G92 E0 ;reset extr
G0 F3000 E-1.00000
G0 F600 Z3.400
G0 X170.567 Y31.830 F7200
G0 F3000 E0.00000
;segType:Infill
G1 X168.692 Y33.705 E0.10584 F4500
G0 X169.032 Y31.470 F7200
;segType:Loop
G1 X207.131 Y31.470 E1.37302 F3600
G1 X207.131 Y70.269 E2.66349
G1 X168.332 Y70.269 E3.95395
G1 X168.332 Y31.470 E5.24442
G1 X168.832 Y31.470 E5.26105
G0 X168.832 Y31.470 F7200
G0 X168.332 Y31.601
G0 X168.147 Y31.650
;segType:Perimeter
G1 X167.992 Y31.070 E5.28100 F2159
G1 X207.531 Y31.070 E6.59608
G1 X207.531 Y70.669 E7.91316
G1 X167.932 Y70.669 E9.23023
G1 X167.932 Y31.130 E10.54531
G0 X167.992 Y31.070 F7200
G0 X169.592 Y31.070
G0 F3000 E9.54531
G0 X168.692 Y38.231 F7200
G0 F3000 E10.54531
;segType:Infill
G1 X175.093 Y31.830 E10.90658 F4500
G0 X179.618 Y31.830 F7200
G1 X168.692 Y42.756 E11.52330 F4500
G0 X168.692 Y56.333 F7200
G1 X193.194 Y31.830 E12.90632 F4500
G0 X197.720 Y31.830 F7200
G1 X168.692 Y60.858 E14.54479 F4500
G0 X173.217 Y69.909 F7200
G1 X206.771 Y36.356 E16.43869 F4500
G0 X206.771 Y40.881 F7200
G1 X177.743 Y69.909 E18.07715 F4500
G0 X182.268 Y69.909 F7200
G1 X206.771 Y45.407 E19.46017 F4500
G0 X206.771 Y54.458 F7200
G1 X191.319 Y69.909 E20.33232 F4500
G0 X200.370 Y69.909 F7200
G1 X206.771 Y63.509 E20.69359 F4500
G0 F3000 E19.69359
G0 X204.896 Y69.909 F7200
G0 F3000 E20.69359
G1 X206.771 Y68.034 E20.79943 F4500
G0 X206.771 Y58.983 F7200
G1 X195.845 Y69.909 E21.41614 F4500
G0 X186.794 Y69.909 F7200
G1 X206.771 Y49.932 E22.54373 F4500
G0 F3000 E21.54373
G0 X206.771 Y31.830 F7200
G0 F3000 E22.54373
G1 X168.692 Y69.909 E24.69306 F4500
G0 F3000 E23.69306
G0 X168.692 Y65.384 F7200
G0 F3000 E24.69306
G1 X202.245 Y31.830 E26.58696 F4500
G0 X188.669 Y31.830 F7200
G1 X168.692 Y51.807 E27.71455 F4500
G0 X168.692 Y47.282 F7200
G1 X184.144 Y31.830 E28.58670 F4500
; ------------------------------------
; Layer #10
; ------------------------------------
G92 E0 ;reset extr
G0 F3000 E-1.00000
G0 F600 Z3.600
G0 X205.500 Y69.909 F7200
G0 F3000 E0.00000
;segType:Infill
G1 X168.692 Y33.101 E2.07762 F4500
G0 X168.332 Y31.470 F7200
G0 X168.147 Y31.650
;segType:Perimeter
G1 X167.992 Y31.070 E2.09757 F2159
G1 X207.531 Y31.070 E3.41265
G1 X207.531 Y70.669 E4.72973
G1 X167.932 Y70.669 E6.04680
G1 X167.932 Y31.130 E7.36188
G0 X167.992 Y31.070 F7200
G0 X169.592 Y31.070
G0 X169.032 Y31.470
;segType:Loop
G1 X207.131 Y31.470 E8.62906 F3600
G1 X207.131 Y70.269 E9.91953
G1 X168.332 Y70.269 E11.21000
G1 X168.332 Y31.470 E12.50046
G1 X168.832 Y31.470 E12.51709
G0 F3000 E11.51709
G0 X171.947 Y31.830 F7200
G0 F3000 E12.51709
;segType:Infill
G1 X206.771 Y66.654 E14.48272 F4500
G0 X206.771 Y62.129 F7200
G1 X176.472 Y31.830 E16.19290 F4500
G0 X180.998 Y31.830 F7200
G1 X206.771 Y57.603 E17.64765 F4500
G0 X206.771 Y53.078 F7200
G1 X185.523 Y31.830 E18.84695 F4500
G0 X199.100 Y31.830 F7200
G1 X206.771 Y39.502 E19.27995 F4500
G0 X206.771 Y34.976 F7200
G1 X203.625 Y31.830 E19.45751 F4500
G0 F3000 E18.45751
G0 X206.771 Y44.027 F7200
G0 F3000 E19.45751
G1 X194.574 Y31.830 E20.14594 F4500
G0 X190.049 Y31.830 F7200
G1 X206.771 Y48.553 E21.08981 F4500
G0 X191.924 Y69.909 F7200
G1 X168.692 Y46.678 E22.40111 F4500
G0 X168.692 Y51.203 F7200
G1 X187.398 Y69.909 E23.45698 F4500
G0 X182.873 Y69.909 F7200
G1 X168.692 Y55.728 E24.25741 F4500
G0 X168.692 Y60.254 F7200
G1 X178.347 Y69.909 E24.80240 F4500
G0 X173.822 Y69.909 F7200
G1 X168.692 Y64.779 E25.09195 F4500
G0 X168.692 Y69.305 F7200
G1 X169.296 Y69.909 E25.12607 F4500
G0 F3000 E24.12607
G0 X168.692 Y42.152 F7200
G0 F3000 E25.12607
G1 X196.449 Y69.909 E26.69281 F4500
G0 X200.975 Y69.909 F7200
G1 X168.692 Y37.627 E28.51499 F4500
; ------------------------------------
; Layer #11
; ------------------------------------
G92 E0 ;reset extr
G0 F3000 E-1.00000
G0 F600 Z3.800
G0 X170.567 Y31.830 F7200
G0 F3000 E0.00000
;segType:Infill
G1 X168.692 Y33.705 E0.10583 F4500
G0 X169.032 Y31.470 F7200
;segType:Loop
G1 X207.131 Y31.470 E1.37302 F3600
G1 X207.131 Y70.269 E2.66349
G1 X168.332 Y70.269 E3.95395
G1 X168.332 Y31.470 E5.24442
G1 X168.832 Y31.470 E5.26105
G0 X168.832 Y31.470 F7200
G0 X168.332 Y31.601
G0 X168.147 Y31.650
;segType:Perimeter
G1 X167.992 Y31.070 E5.28100 F2159
G1 X207.531 Y31.070 E6.59608
G1 X207.531 Y70.669 E7.91316
G1 X167.932 Y70.669 E9.23023
G1 X167.932 Y31.130 E10.54531
G0 X167.992 Y31.070 F7200
G0 X169.592 Y31.070
G0 F3000 E9.54531
G0 X168.692 Y38.231 F7200
G0 F3000 E10.54531
;segType:Infill
G1 X175.093 Y31.830 E10.90658 F4500
G0 X179.618 Y31.830 F7200
G1 X168.692 Y42.756 E11.52330 F4500
G0 X168.692 Y47.282 F7200
G1 X184.143 Y31.830 E12.39545 F4500
G0 X188.669 Y31.830 F7200
G1 X168.692 Y51.807 E13.52303 F4500
G0 X168.692 Y56.333 F7200
G1 X193.194 Y31.830 E14.90606 F4500
G0 X197.720 Y31.830 F7200
G1 X168.692 Y60.858 E16.54452 F4500
G0 F3000 E15.54452
G0 X200.370 Y69.909 F7200
G0 F3000 E16.54452
G1 X206.771 Y63.509 E16.90579 F4500
G0 X206.771 Y68.034 F7200
G1 X204.896 Y69.909 E17.01163 F4500
G0 F3000 E16.01163
G0 X206.771 Y58.983 F7200
G0 F3000 E17.01163
G1 X195.845 Y69.909 E17.62834 F4500
G0 X191.319 Y69.909 F7200
G1 X206.771 Y54.458 E18.50049 F4500
G0 X206.771 Y49.932 F7200
G1 X186.794 Y69.909 E19.62808 F4500
G0 X182.268 Y69.909 F7200
G1 X206.771 Y45.407 E21.01111 F4500
G0 X206.771 Y40.881 F7200
G1 X177.743 Y69.909 E22.64957 F4500
G0 X173.217 Y69.909 F7200
G1 X206.771 Y36.356 E24.54348 F4500
G0 F3000 E23.54348
G0 X206.771 Y31.830 F7200
G0 F3000 E24.54348
G1 X168.692 Y69.909 E26.69281 F4500
G0 F3000 E25.69281
G0 X168.692 Y65.384 F7200
G0 F3000 E26.69281
G1 X202.245 Y31.830 E28.58671 F4500
; ------------------------------------
; Layer #12
; ------------------------------------
G92 E0 ;reset extr
G0 F3000 E-1.00000
G0 F600 Z4.000
G0 X202.215 Y31.470 F7200
G0 X205.531 Y70.269
G0 X205.500 Y69.909
G0 F3000 E0.00000
;segType:Infill
G1 X168.692 Y33.101 E2.07762 F4500
G0 X168.332 Y31.470 F7200
G0 X168.147 Y31.650
;segType:Perimeter
G1 X167.992 Y31.070 E2.09757 F2159
G1 X207.531 Y31.070 E3.41265
G1 X207.531 Y70.669 E4.72973
G1 X167.932 Y70.669 E6.04680
G1 X167.932 Y31.130 E7.36188
G0 X167.992 Y31.070 F7200
G0 X169.592 Y31.070
G0 X169.032 Y31.470
;segType:Loop
G1 X207.131 Y31.470 E8.62906 F3600
G1 X207.131 Y70.269 E9.91953
G1 X168.332 Y70.269 E11.21000
G1 X168.332 Y31.470 E12.50046
G1 X168.832 Y31.470 E12.51709
G0 F3000 E11.51709
G0 X171.947 Y31.830 F7200
G0 F3000 E12.51709
;segType:Infill
G1 X206.771 Y66.654 E14.48272 F4500
G0 X200.975 Y69.909 F7200
G1 X168.692 Y37.627 E16.30490 F4500
G0 X168.692 Y51.203 F7200
G1 X187.398 Y69.909 E17.36076 F4500
G0 X182.873 Y69.909 F7200
G1 X168.692 Y55.728 E18.16119 F4500
G0 X168.692 Y60.254 F7200
G1 X178.347 Y69.909 E18.70618 F4500
G0 X173.822 Y69.909 F7200
G1 X168.692 Y64.779 E18.99574 F4500
G0 X168.692 Y69.305 F7200
G1 X169.296 Y69.909 E19.02985 F4500
G0 X191.924 Y69.909 F7200
G1 X168.692 Y46.677 E20.34115 F4500
G0 X168.692 Y42.152 F7200
G1 X196.449 Y69.909 E21.90790 F4500
G0 X206.771 Y62.129 F7200
G1 X176.472 Y31.830 E23.61808 F4500
G0 X180.998 Y31.830 F7200
G1 X206.771 Y57.604 E25.07283 F4500
G0 X206.771 Y53.078 F7200
G1 X185.523 Y31.830 E26.27214 F4500
G0 X199.100 Y31.830 F7200
G1 X206.771 Y39.502 E26.70513 F4500
G0 X206.771 Y34.976 F7200
G1 X203.625 Y31.830 E26.88269 F4500
G0 X194.574 Y31.830 F7200
G1 X206.771 Y44.027 E27.57112 F4500
G0 X206.771 Y48.553 F7200
G1 X190.049 Y31.830 E28.51499 F4500
; ------------------------------------
; Layer #13
; ------------------------------------
G92 E0 ;reset extr
G0 F3000 E-1.00000
G0 F600 Z4.200
G0 X170.567 Y31.830 F7200
G0 F3000 E0.00000
;segType:Infill
G1 X168.692 Y33.705 E0.10583 F4500
G0 X169.032 Y31.470 F7200
;segType:Loop
G1 X207.131 Y31.470 E1.37302 F3600
G1 X207.131 Y70.269 E2.66348
G1 X168.332 Y70.269 E3.95395
G1 X168.332 Y31.470 E5.24442
G1 X168.832 Y31.470 E5.26105
G0 X168.832 Y31.470 F7200
G0 X168.332 Y31.601
G0 X168.147 Y31.650
;segType:Perimeter
G1 X167.992 Y31.070 E5.28100 F2159
G1 X207.531 Y31.070 E6.59608
G1 X207.531 Y70.669 E7.91316
G1 X167.932 Y70.669 E9.23023
G1 X167.932 Y31.130 E10.54531
G0 X167.992 Y31.070 F7200
G0 X169.592 Y31.070
G0 F3000 E9.54531
G0 X168.332 Y31.470 F7200
G0 X175.092 Y31.830
G0 F3000 E10.54531
;segType:Infill
G1 X168.692 Y38.231 E10.90658 F4500
G0 F3000 E9.90658
G0 X193.194 Y31.830 F7200
G0 F3000 E10.90658
G1 X168.692 Y56.333 E12.28961 F4500
G0 X168.692 Y60.858 F7200
G1 X197.720 Y31.830 E13.92807 F4500
G0 X202.245 Y31.830 F7200
G1 X168.692 Y65.384 E15.82197 F4500
G0 F3000 E14.82197
G0 X168.692 Y69.909 F7200
G0 F3000 E15.82197
G1 X206.771 Y31.830 E17.97130 F4500
G0 F3000 E16.97130
G0 X206.771 Y36.356 F7200
G0 F3000 E17.97130
G1 X173.217 Y69.909 E19.86521 F4500
G0 X177.743 Y69.909 F7200
G1 X206.771 Y40.881 E21.50367 F4500
G0 X206.771 Y58.983 F7200
G1 X195.845 Y69.909 E22.12039 F4500
G0 F3000 E21.12039
G0 X206.771 Y68.034 F7200
G0 F3000 E22.12039
G1 X204.896 Y69.909 E22.22623 F4500
G0 X200.370 Y69.909 F7200
G1 X206.771 Y63.509 E22.58750 F4500
G0 X206.771 Y54.458 F7200
G1 X191.319 Y69.909 E23.45966 F4500
G0 X186.794 Y69.909 F7200
G1 X206.771 Y49.932 E24.58725 F4500
G0 X206.771 Y45.407 F7200
G1 X182.268 Y69.909 E25.97028 F4500
G0 X168.692 Y51.807 F7200
G1 X188.669 Y31.830 E27.09786 F4500
G0 X184.143 Y31.830 F7200
G1 X168.692 Y47.282 E27.97001 F4500
G0 X168.692 Y42.756 F7200
G1 X179.618 Y31.830 E28.58672 F4500
; ------------------------------------
; Layer #14
; ------------------------------------
G92 E0 ;reset extr
G0 F3000 E-1.00000
G0 F600 Z4.400
G0 X205.500 Y69.909 F7200
G0 F3000 E0.00000
;segType:Infill
G1 X168.692 Y33.101 E2.07761 F4500
G0 X168.332 Y31.470 F7200
G0 X168.147 Y31.650
;segType:Perimeter
G1 X167.992 Y31.070 E2.09757 F2159
G1 X207.531 Y31.070 E3.41265
G1 X207.531 Y70.669 E4.72972
G1 X167.932 Y70.669 E6.04679
G1 X167.932 Y31.130 E7.36187
G0 X167.992 Y31.070 F7200
G0 X169.592 Y31.070
G0 X169.032 Y31.470
;segType:Loop
G1 X207.131 Y31.470 E8.62905 F3600
G1 X207.131 Y70.269 E9.91952
G1 X168.332 Y70.269 E11.20998
G1 X168.332 Y31.470 E12.50045
G1 X168.832 Y31.470 E12.51708
G0 F3000 E11.51708
G0 X171.947 Y31.830 F7200
G0 F3000 E12.51708
;segType:Infill
G1 X206.771 Y66.654 E14.48270 F4500
G0 X206.771 Y62.129 F7200
G1 X176.472 Y31.830 E16.19288 F4500
G0 X180.998 Y31.830 F7200
G1 X206.771 Y57.604 E17.64763 F4500
G0 X206.771 Y53.078 F7200
G1 X185.523 Y31.830 E18.84693 F4500
G0 X199.100 Y31.830 F7200
G1 X206.771 Y39.502 E19.27993 F4500
G0 X206.771 Y34.976 F7200
G1 X203.625 Y31.830 E19.45749 F4500
G0 F3000 E18.45749
G0 X206.771 Y44.027 F7200
G0 F3000 E19.45749
G1 X194.574 Y31.830 E20.14592 F4500
G0 X190.049 Y31.830 F7200
G1 X206.771 Y48.553 E21.08979 F4500
G0 X191.924 Y69.909 F7200
G1 X168.692 Y46.677 E22.40109 F4500
G0 X168.692 Y51.203 F7200
G1 X187.398 Y69.909 E23.45696 F4500
G0 X182.873 Y69.909 F7200
G1 X168.692 Y55.728 E24.25738 F4500
G0 X168.692 Y60.254 F7200
G1 X178.347 Y69.909 E24.80237 F4500
G0 X173.822 Y69.909 F7200
G1 X168.692 Y64.779 E25.09193 F4500
G0 X168.692 Y69.305 F7200
G1 X169.296 Y69.909 E25.12604 F4500
G0 F3000 E24.12604
G0 X168.692 Y42.152 F7200
G0 F3000 E25.12604
G1 X196.449 Y69.909 E26.69278 F4500
G0 X200.975 Y69.909 F7200
G1 X168.692 Y37.627 E28.51496 F4500
; ------------------------------------
; Layer #15
; ------------------------------------
G92 E0 ;reset extr
G0 F3000 E-1.00000
G0 F600 Z4.600
G0 X170.567 Y31.830 F7200
G0 F3000 E0.00000
;segType:Infill
G1 X168.692 Y33.705 E0.10584 F4500
G0 X169.032 Y31.470 F7200
;segType:Loop
G1 X207.131 Y31.470 E1.37302 F3600
G1 X207.131 Y70.269 E2.66349
G1 X168.332 Y70.269 E3.95395
G1 X168.332 Y31.470 E5.24442
G1 X168.832 Y31.470 E5.26105
G0 X168.832 Y31.470 F7200
G0 X168.332 Y31.601
G0 X168.147 Y31.650
;segType:Perimeter
G1 X167.992 Y31.070 E5.28101 F2159
G1 X207.531 Y31.070 E6.59608
G1 X207.531 Y70.669 E7.91316
G1 X167.932 Y70.669 E9.23023
G1 X167.932 Y31.130 E10.54531
G0 X167.992 Y31.070 F7200
G0 X169.592 Y31.070
G0 F3000 E9.54531
G0 X168.692 Y38.231 F7200
G0 F3000 E10.54531
;segType:Infill
G1 X175.093 Y31.830 E10.90659 F4500
G0 X179.618 Y31.830 F7200
G1 X168.692 Y42.756 E11.52330 F4500
G0 X168.692 Y47.282 F7200
G1 X184.144 Y31.830 E12.39545 F4500
G0 X188.669 Y31.830 F7200
G1 X168.692 Y51.807 E13.52304 F4500
G0 X168.692 Y56.333 F7200
G1 X193.194 Y31.830 E14.90607 F4500
G0 X197.720 Y31.830 F7200
G1 X168.692 Y60.858 E16.54453 F4500
G0 F3000 E15.54453
G0 X200.370 Y69.909 F7200
G0 F3000 E16.54453
G1 X206.771 Y63.509 E16.90580 F4500
G0 X206.771 Y68.034 F7200
G1 X204.896 Y69.909 E17.01164 F4500
G0 F3000 E16.01164
G0 X206.771 Y58.983 F7200
G0 F3000 E17.01164
G1 X195.845 Y69.909 E17.62835 F4500
G0 X191.319 Y69.909 F7200
G1 X206.771 Y54.458 E18.50050 F4500
G0 X206.771 Y49.932 F7200
G1 X186.794 Y69.909 E19.62808 F4500
G0 X182.268 Y69.909 F7200
G1 X206.771 Y45.407 E21.01111 F4500
G0 X206.771 Y40.881 F7200
G1 X177.743 Y69.909 E22.64957 F4500
G0 X173.217 Y69.909 F7200
G1 X206.771 Y36.356 E24.54347 F4500
G0 F3000 E23.54347
G0 X206.771 Y31.830 F7200
G0 F3000 E24.54347
G1 X168.692 Y69.909 E26.69281 F4500
G0 F3000 E25.69281
G0 X168.692 Y65.384 F7200
G0 F3000 E26.69281
G1 X202.245 Y31.830 E28.58671 F4500
; ------------------------------------
; Layer #16
; ------------------------------------
G92 E0 ;reset extr
G0 F3000 E-1.00000
G0 F600 Z4.800
G0 X202.215 Y31.470 F7200
G0 X205.531 Y70.269
G0 X205.500 Y69.909
G0 F3000 E0.00000
;segType:Infill
G1 X168.692 Y33.101 E2.07762 F4500
G0 X168.332 Y31.470 F7200
G0 X168.147 Y31.650
;segType:Perimeter
G1 X167.992 Y31.070 E2.09757 F2159
G1 X207.531 Y31.070 E3.41265
G1 X207.531 Y70.669 E4.72973
G1 X167.932 Y70.669 E6.04680
G1 X167.932 Y31.130 E7.36188
G0 X167.992 Y31.070 F7200
G0 X169.592 Y31.070
G0 X169.032 Y31.470
;segType:Loop
G1 X207.131 Y31.470 E8.62906 F3600
G1 X207.131 Y70.269 E9.91953
G1 X168.332 Y70.269 E11.21000
G1 X168.332 Y31.470 E12.50046
G1 X168.832 Y31.470 E12.51709
G0 F3000 E11.51709
G0 X171.947 Y31.830 F7200
G0 F3000 E12.51709
;segType:Infill
G1 X206.771 Y66.654 E14.48272 F4500
G0 X200.975 Y69.909 F7200
G1 X168.692 Y37.627 E16.30490 F4500
G0 X168.692 Y51.203 F7200
G1 X187.398 Y69.909 E17.36076 F4500
G0 X182.873 Y69.909 F7200
G1 X168.692 Y55.728 E18.16119 F4500
G0 X168.692 Y60.254 F7200
G1 X178.347 Y69.909 E18.70618 F4500
G0 X173.822 Y69.909 F7200
G1 X168.692 Y64.779 E18.99573 F4500
G0 X168.692 Y69.305 F7200
G1 X169.296 Y69.909 E19.02985 F4500
G0 X191.924 Y69.909 F7200
G1 X168.692 Y46.678 E20.34115 F4500
G0 X168.692 Y42.152 F7200
G1 X196.449 Y69.909 E21.90790 F4500
G0 X206.771 Y62.129 F7200
G1 X176.472 Y31.830 E23.61808 F4500
G0 X180.998 Y31.830 F7200
G1 X206.771 Y57.603 E25.07283 F4500
G0 X206.771 Y53.078 F7200
G1 X185.523 Y31.830 E26.27213 F4500
G0 X199.100 Y31.830 F7200
G1 X206.771 Y39.502 E26.70513 F4500
G0 X206.771 Y34.976 F7200
G1 X203.625 Y31.830 E26.88269 F4500
G0 X194.574 Y31.830 F7200
G1 X206.771 Y44.027 E27.57112 F4500
G0 X206.771 Y48.553 F7200
G1 X190.049 Y31.830 E28.51499 F4500
; ------------------------------------
; Layer #17
; ------------------------------------
G92 E0 ;reset extr
G0 F3000 E-1.00000
G0 F600 Z5.000
G0 X170.567 Y31.830 F7200
G0 F3000 E0.00000
;segType:Infill
G1 X168.692 Y33.705 E0.10584 F4500
G0 X169.032 Y31.470 F7200
;segType:Loop
G1 X207.131 Y31.470 E1.37302 F3600
G1 X207.131 Y70.269 E2.66349
G1 X168.332 Y70.269 E3.95395
G1 X168.332 Y31.470 E5.24442
G1 X168.832 Y31.470 E5.26105
G0 X168.832 Y31.470 F7200
G0 X168.332 Y31.601
G0 X168.147 Y31.650
;segType:Perimeter
G1 X167.992 Y31.070 E5.28101 F2159
G1 X207.531 Y31.070 E6.59608
G1 X207.531 Y70.669 E7.91316
G1 X167.932 Y70.669 E9.23023
G1 X167.932 Y31.130 E10.54531
G0 X167.992 Y31.070 F7200
G0 X169.592 Y31.070
G0 F3000 E9.54531
G0 X168.692 Y38.231 F7200
G0 F3000 E10.54531
;segType:Infill
G1 X175.093 Y31.830 E10.90659 F4500
G0 X179.618 Y31.830 F7200
G1 X168.692 Y42.756 E11.52330 F4500
G0 X168.692 Y56.333 F7200
G1 X193.194 Y31.830 E12.90632 F4500
G0 X197.720 Y31.830 F7200
G1 X168.692 Y60.858 E14.54479 F4500
G0 X173.217 Y69.909 F7200
G1 X206.771 Y36.356 E16.43869 F4500
G0 X206.771 Y40.881 F7200
G1 X177.743 Y69.909 E18.07715 F4500
G0 X182.268 Y69.909 F7200
G1 X206.771 Y45.407 E19.46018 F4500
G0 X206.771 Y54.458 F7200
G1 X191.319 Y69.909 E20.33233 F4500
G0 X200.370 Y69.909 F7200
G1 X206.771 Y63.509 E20.69360 F4500
G0 F3000 E19.69360
G0 X204.896 Y69.909 F7200
G0 F3000 E20.69360
G1 X206.771 Y68.034 E20.79944 F4500
G0 X206.771 Y58.983 F7200
G1 X195.845 Y69.909 E21.41615 F4500
G0 X186.794 Y69.909 F7200
G1 X206.771 Y49.932 E22.54374 F4500
G0 F3000 E21.54374
G0 X206.771 Y31.830 F7200
G0 F3000 E22.54374
G1 X168.692 Y69.909 E24.69308 F4500
G0 F3000 E23.69308
G0 X168.692 Y65.384 F7200
G0 F3000 E24.69308
G1 X202.245 Y31.830 E26.58698 F4500
G0 X188.669 Y31.830 F7200
G1 X168.692 Y51.807 E27.71457 F4500
G0 X168.692 Y47.282 F7200
G1 X184.143 Y31.830 E28.58672 F4500
; ------------------------------------
; Layer #18
; ------------------------------------
G92 E0 ;reset extr
G0 F3000 E-1.00000
G0 F600 Z5.200
G0 X205.500 Y69.909 F7200
G0 F3000 E0.00000
;segType:Infill
G1 X168.692 Y33.101 E2.07762 F4500
G0 X168.332 Y31.470 F7200
G0 X168.147 Y31.650
;segType:Perimeter
G1 X167.992 Y31.070 E2.09757 F2159
G1 X207.531 Y31.070 E3.41265
G1 X207.531 Y70.669 E4.72973
G1 X167.932 Y70.669 E6.04680
G1 X167.932 Y31.130 E7.36188
G0 X167.992 Y31.070 F7200
G0 X169.592 Y31.070
G0 X169.032 Y31.470
;segType:Loop
G1 X207.131 Y31.470 E8.62906 F3600
G1 X207.131 Y70.269 E9.91953
G1 X168.332 Y70.269 E11.21000
G1 X168.332 Y31.470 E12.50046
G1 X168.832 Y31.470 E12.51709
G0 F3000 E11.51709
G0 X171.947 Y31.830 F7200
G0 F3000 E12.51709
;segType:Infill
G1 X206.771 Y66.654 E14.48272 F4500
G0 X206.771 Y62.129 F7200
G1 X176.472 Y31.830 E16.19290 F4500
G0 X180.998 Y31.830 F7200
G1 X206.771 Y57.604 E17.64765 F4500
G0 X206.771 Y53.078 F7200
G1 X185.523 Y31.830 E18.84696 F4500
G0 X199.100 Y31.830 F7200
G1 X206.771 Y39.502 E19.27995 F4500
G0 X206.771 Y34.976 F7200
G1 X203.625 Y31.830 E19.45751 F4500
G0 F3000 E18.45751
G0 X206.771 Y44.027 F7200
G0 F3000 E19.45751
G1 X194.574 Y31.830 E20.14594 F4500
G0 X190.049 Y31.830 F7200
G1 X206.771 Y48.553 E21.08981 F4500
G0 X191.924 Y69.909 F7200
G1 X168.692 Y46.677 E22.40112 F4500
G0 X168.692 Y51.203 F7200
G1 X187.398 Y69.909 E23.45698 F4500
G0 X182.873 Y69.909 F7200
G1 X168.692 Y55.728 E24.25741 F4500
G0 X168.692 Y60.254 F7200
G1 X178.347 Y69.909 E24.80240 F4500
G0 X173.822 Y69.909 F7200
G1 X168.692 Y64.779 E25.09195 F4500
G0 X168.692 Y69.305 F7200
G1 X169.296 Y69.909 E25.12607 F4500
G0 F3000 E24.12607
G0 X168.692 Y42.152 F7200
G0 F3000 E25.12607
G1 X196.449 Y69.909 E26.69281 F4500
G0 X200.975 Y69.909 F7200
G1 X168.692 Y37.627 E28.51499 F4500
; ------------------------------------
; Layer #19
; ------------------------------------
G92 E0 ;reset extr
G0 F3000 E-1.00000
G0 F600 Z5.400
G0 X170.567 Y31.830 F7200
G0 F3000 E0.00000
;segType:Infill
G1 X168.692 Y33.705 E0.10583 F4500
G0 X169.032 Y31.470 F7200
;segType:Loop
G1 X207.131 Y31.470 E1.37302 F3600
G1 X207.131 Y70.269 E2.66348
G1 X168.332 Y70.269 E3.95395
G1 X168.332 Y31.470 E5.24441
G1 X168.832 Y31.470 E5.26104
G0 X168.832 Y31.470 F7200
G0 X168.332 Y31.601
G0 X168.147 Y31.650
;segType:Perimeter
G1 X167.992 Y31.070 E5.28100 F2159
G1 X207.531 Y31.070 E6.59607
G1 X207.531 Y70.669 E7.91315
G1 X167.932 Y70.669 E9.23022
G1 X167.932 Y31.130 E10.54530
G0 X167.992 Y31.070 F7200
G0 X169.592 Y31.070
G0 F3000 E9.54530
G0 X168.332 Y31.470 F7200
G0 X175.092 Y31.830
G0 F3000 E10.54530
;segType:Infill
G1 X168.692 Y38.231 E10.90657 F4500
G0 X204.896 Y69.909 F7200
G1 X206.771 Y68.034 E11.01241 F4500
G0 X206.771 Y63.509 F7200
G1 X200.370 Y69.909 E11.37368 F4500
G0 X195.845 Y69.909 F7200
G1 X206.771 Y58.983 E11.99039 F4500
G0 X206.771 Y54.458 F7200
G1 X191.319 Y69.909 E12.86254 F4500
G0 X186.794 Y69.909 F7200
G1 X206.771 Y49.932 E13.99013 F4500
G0 X206.771 Y45.407 F7200
G1 X182.268 Y69.909 E15.37316 F4500
G0 X173.217 Y69.909 F7200
G1 X206.771 Y36.356 E17.26706 F4500
G0 F3000 E16.26706
G0 X206.771 Y31.830 F7200
G0 F3000 E17.26706
G1 X168.692 Y69.909 E19.41639 F4500
G0 F3000 E18.41639
G0 X177.743 Y69.909 F7200
G0 F3000 E19.41639
G1 X206.771 Y40.881 E21.05486 F4500
G0 X202.245 Y31.830 F7200
G1 X168.692 Y65.384 E22.94875 F4500
G0 X168.692 Y60.858 F7200
G1 X197.720 Y31.830 E24.58721 F4500
G0 X193.194 Y31.830 F7200
G1 X168.692 Y56.333 E25.97024 F4500
G0 X168.692 Y51.807 F7200
G1 X188.669 Y31.830 E27.09782 F4500
G0 X184.143 Y31.830 F7200
G1 X168.692 Y47.282 E27.96997 F4500
G0 X168.692 Y42.756 F7200
G1 X179.618 Y31.830 E28.58667 F4500
; ------------------------------------
; Layer #20
; ------------------------------------
G92 E0 ;reset extr
G0 F3000 E-1.00000
G0 F600 Z5.600
G0 X205.500 Y69.909 F7200
G0 F3000 E0.00000
;segType:Infill
G1 X168.692 Y33.101 E2.07762 F4500
G0 X168.332 Y31.470 F7200
G0 X168.147 Y31.650
;segType:Perimeter
G1 X167.992 Y31.070 E2.09757 F2159
G1 X207.531 Y31.070 E3.41265
G1 X207.531 Y70.669 E4.72972
G1 X167.932 Y70.669 E6.04679
G1 X167.932 Y31.130 E7.36187
G0 X167.992 Y31.070 F7200
G0 X169.592 Y31.070
G0 X169.032 Y31.470
;segType:Loop
G1 X207.131 Y31.470 E8.62905 F3600
G1 X207.131 Y70.269 E9.91952
G1 X168.332 Y70.269 E11.20998
G1 X168.332 Y31.470 E12.50045
G1 X168.832 Y31.470 E12.51708
G0 F3000 E11.51708
G0 X171.947 Y31.830 F7200
G0 F3000 E12.51708
;segType:Infill
G1 X206.771 Y66.654 E14.48270 F4500
G0 X200.975 Y69.909 F7200
G1 X168.692 Y37.627 E16.30488 F4500
G0 X168.692 Y51.203 F7200
G1 X187.398 Y69.909 E17.36074 F4500
G0 X182.873 Y69.909 F7200
G1 X168.692 Y55.728 E18.16117 F4500
G0 X168.692 Y60.254 F7200
G1 X178.347 Y69.909 E18.70616 F4500
G0 X173.822 Y69.909 F7200
G1 X168.692 Y64.779 E18.99571 F4500
G0 X168.692 Y69.305 F7200
G1 X169.296 Y69.909 E19.02983 F4500
G0 X191.924 Y69.909 F7200
G1 X168.692 Y46.677 E20.34113 F4500
G0 X168.692 Y42.152 F7200
G1 X196.449 Y69.909 E21.90787 F4500
G0 X206.771 Y62.129 F7200
G1 X176.472 Y31.830 E23.61805 F4500
G0 X180.998 Y31.830 F7200
G1 X206.771 Y57.604 E25.07280 F4500
G0 X206.771 Y53.078 F7200
G1 X185.523 Y31.830 E26.27210 F4500
G0 X199.100 Y31.830 F7200
G1 X206.771 Y39.502 E26.70510 F4500
G0 X206.771 Y34.976 F7200
G1 X203.625 Y31.830 E26.88266 F4500
G0 X194.574 Y31.830 F7200
G1 X206.771 Y44.027 E27.57109 F4500
G0 X206.771 Y48.553 F7200
G1 X190.049 Y31.830 E28.51496 F4500
; ------------------------------------
; Layer #21
; ------------------------------------
G92 E0 ;reset extr
G0 F3000 E-1.00000
G0 F600 Z5.800
G0 X170.567 Y31.830 F7200
G0 F3000 E0.00000
;segType:Infill
G1 X168.692 Y33.705 E0.10584 F4500
G0 X169.032 Y31.470 F7200
;segType:Loop
G1 X207.131 Y31.470 E1.37302 F3600
G1 X207.131 Y70.269 E2.66349
G1 X168.332 Y70.269 E3.95396
G1 X168.332 Y31.470 E5.24443
G1 X168.832 Y31.470 E5.26106
G0 X168.832 Y31.470 F7200
G0 X168.332 Y31.601
G0 X168.147 Y31.650
;segType:Perimeter
G1 X167.992 Y31.070 E5.28101 F2159
G1 X207.531 Y31.070 E6.59609
G1 X207.531 Y70.669 E7.91317
G1 X167.932 Y70.669 E9.23025
G1 X167.932 Y31.130 E10.54533
G0 X167.992 Y31.070 F7200
G0 X169.592 Y31.070
G0 F3000 E9.54533
G0 X168.692 Y38.231 F7200
G0 F3000 E10.54533
;segType:Infill
G1 X175.093 Y31.830 E10.90660 F4500
G0 X179.618 Y31.830 F7200
G1 X168.692 Y42.756 E11.52332 F4500
G0 X168.692 Y56.333 F7200
G1 X193.194 Y31.830 E12.90634 F4500
G0 X197.720 Y31.830 F7200
G1 X168.692 Y60.858 E14.54481 F4500
G0 X173.217 Y69.909 F7200
G1 X206.771 Y36.356 E16.43871 F4500
G0 X206.771 Y40.881 F7200
G1 X177.743 Y69.909 E18.07718 F4500
G0 X182.268 Y69.909 F7200
G1 X206.771 Y45.407 E19.46020 F4500
G0 X206.771 Y54.458 F7200
G1 X191.319 Y69.909 E20.33235 F4500
G0 X200.370 Y69.909 F7200
G1 X206.771 Y63.509 E20.69363 F4500
G0 F3000 E19.69363
G0 X204.896 Y69.909 F7200
G0 F3000 E20.69363
G1 X206.771 Y68.034 E20.79946 F4500
G0 X206.771 Y58.983 F7200
G1 X195.845 Y69.909 E21.41617 F4500
G0 X186.794 Y69.909 F7200
G1 X206.771 Y49.932 E22.54376 F4500
G0 F3000 E21.54376
G0 X206.771 Y31.830 F7200
G0 F3000 E22.54376
G1 X168.692 Y69.909 E24.69310 F4500
G0 F3000 E23.69310
G0 X168.692 Y65.384 F7200
G0 F3000 E24.69310
G1 X202.245 Y31.830 E26.58701 F4500
G0 X188.669 Y31.830 F7200
G1 X168.692 Y51.807 E27.71460 F4500
G0 X168.692 Y47.282 F7200
G1 X184.144 Y31.830 E28.58675 F4500
; ------------------------------------
; Layer #22
; ------------------------------------
G92 E0 ;reset extr
G0 F3000 E-1.00000
G0 F600 Z6.000
G0 X205.500 Y69.909 F7200
G0 F3000 E0.00000
;segType:Infill
G1 X168.692 Y33.101 E2.07762 F4500
G0 X168.332 Y31.470 F7200
G0 X168.147 Y31.650
;segType:Perimeter
G1 X167.992 Y31.070 E2.09757 F2159
G1 X207.531 Y31.070 E3.41265
G1 X207.531 Y70.669 E4.72972
G1 X167.932 Y70.669 E6.04679
G1 X167.932 Y31.130 E7.36187
G0 X167.992 Y31.070 F7200
G0 X169.592 Y31.070
G0 X169.032 Y31.470
;segType:Loop
G1 X207.131 Y31.470 E8.62905 F3600
G1 X207.131 Y70.269 E9.91952
G1 X168.332 Y70.269 E11.20998
G1 X168.332 Y31.470 E12.50045
G1 X168.832 Y31.470 E12.51708
G0 F3000 E11.51708
G0 X171.947 Y31.830 F7200
G0 F3000 E12.51708
;segType:Infill
G1 X206.771 Y66.655 E14.48270 F4500
G0 X206.771 Y62.129 F7200
G1 X176.472 Y31.830 E16.19288 F4500
G0 X180.998 Y31.830 F7200
G1 X206.771 Y57.604 E17.64763 F4500
G0 X206.771 Y53.078 F7200
G1 X185.523 Y31.830 E18.84693 F4500
G0 X199.100 Y31.830 F7200
G1 X206.771 Y39.502 E19.27993 F4500
G0 X206.771 Y34.976 F7200
G1 X203.625 Y31.830 E19.45748 F4500
G0 F3000 E18.45748
G0 X206.771 Y44.027 F7200
G0 F3000 E19.45748
G1 X194.574 Y31.830 E20.14592 F4500
G0 X190.049 Y31.830 F7200
G1 X206.771 Y48.553 E21.08979 F4500
G0 X191.924 Y69.909 F7200
G1 X168.692 Y46.677 E22.40109 F4500
G0 X168.692 Y51.203 F7200
G1 X187.398 Y69.909 E23.45695 F4500
G0 X182.873 Y69.909 F7200
G1 X168.692 Y55.728 E24.25738 F4500
G0 X168.692 Y60.254 F7200
G1 X178.347 Y69.909 E24.80237 F4500
G0 X173.822 Y69.909 F7200
G1 X168.692 Y64.779 E25.09192 F4500
G0 X168.692 Y69.305 F7200
G1 X169.296 Y69.909 E25.12604 F4500
G0 F3000 E24.12604
G0 X168.692 Y42.152 F7200
G0 F3000 E25.12604
G1 X196.449 Y69.909 E26.69278 F4500
G0 X200.975 Y69.909 F7200
G1 X168.692 Y37.626 E28.51496 F4500
; ------------------------------------
; Layer #23
; ------------------------------------
G92 E0 ;reset extr
G0 F3000 E-1.00000
G0 F600 Z6.200
G0 X170.567 Y31.830 F7200
G0 F3000 E0.00000
;segType:Infill
G1 X168.692 Y33.705 E0.10583 F4500
G0 X169.032 Y31.470 F7200
;segType:Loop
G1 X207.131 Y31.470 E1.37301 F3600
G1 X207.131 Y70.269 E2.66348
G1 X168.332 Y70.269 E3.95394
G1 X168.332 Y31.470 E5.24441
G1 X168.832 Y31.470 E5.26104
G0 X168.832 Y31.470 F7200
G0 X168.332 Y31.601
G0 X168.147 Y31.650
;segType:Perimeter
G1 X167.992 Y31.070 E5.28099 F2159
G1 X207.531 Y31.070 E6.59607
G1 X207.531 Y70.669 E7.91314
G1 X167.932 Y70.669 E9.23022
G1 X167.932 Y31.130 E10.54529
G0 X167.992 Y31.070 F7200
G0 X169.592 Y31.070
G0 F3000 E9.54529
G0 X168.332 Y31.470 F7200
G0 X175.092 Y31.830
G0 F3000 E10.54529
;segType:Infill
G1 X168.692 Y38.231 E10.90656 F4500
G0 X204.896 Y69.909 F7200
G1 X206.771 Y68.034 E11.01240 F4500
G0 X206.771 Y63.509 F7200
G1 X200.370 Y69.909 E11.37368 F4500
G0 X195.845 Y69.909 F7200
G1 X206.771 Y58.983 E11.99040 F4500
G0 X206.771 Y54.458 F7200
G1 X191.319 Y69.909 E12.86255 F4500
G0 X186.794 Y69.909 F7200
G1 X206.771 Y49.932 E13.99014 F4500
G0 X206.771 Y45.407 F7200
G1 X182.268 Y69.909 E15.37317 F4500
G0 F3000 E14.37317
G0 X168.692 Y69.909 F7200
G0 F3000 E15.37317
G1 X206.771 Y31.830 E17.52250 F4500
G0 F3000 E16.52250
G0 X206.771 Y36.356 F7200
G0 F3000 E17.52250
G1 X173.217 Y69.909 E19.41640 F4500
G0 X177.743 Y69.909 F7200
G1 X206.771 Y40.881 E21.05487 F4500
G0 X202.245 Y31.830 F7200
G1 X168.692 Y65.384 E22.94876 F4500
G0 X168.692 Y60.858 F7200
G1 X197.720 Y31.830 E24.58722 F4500
G0 X193.194 Y31.830 F7200
G1 X168.692 Y56.333 E25.97024 F4500
G0 X168.692 Y51.807 F7200
G1 X188.669 Y31.830 E27.09782 F4500
G0 X184.143 Y31.830 F7200
G1 X168.692 Y47.282 E27.96996 F4500
G0 X168.692 Y42.756 F7200
G1 X179.618 Y31.830 E28.58667 F4500
; ------------------------------------
; Layer #24
; ------------------------------------
G92 E0 ;reset extr
G0 F3000 E-1.00000
G0 F600 Z6.400
G0 X205.500 Y69.909 F7200
G0 F3000 E0.00000
;segType:Infill
G1 X168.692 Y33.101 E2.07762 F4500
G0 X168.332 Y31.470 F7200
G0 X168.147 Y31.650
;segType:Perimeter
G1 X167.992 Y31.070 E2.09758 F2159
G1 X207.531 Y31.070 E3.41266
G1 X207.531 Y70.669 E4.72973
G1 X167.932 Y70.669 E6.04681
G1 X167.932 Y31.130 E7.36189
G0 X167.992 Y31.070 F7200
G0 X169.592 Y31.070
G0 X169.032 Y31.470
;segType:Loop
G1 X207.131 Y31.470 E8.62908 F3600
G1 X207.131 Y70.269 E9.91954
G1 X168.332 Y70.269 E11.21001
G1 X168.332 Y31.470 E12.50048
G1 X168.832 Y31.470 E12.51711
G0 F3000 E11.51711
G0 X171.947 Y31.830 F7200
G0 F3000 E12.51711
;segType:Infill
G1 X206.771 Y66.654 E14.48274 F4500
G0 X200.975 Y69.909 F7200
G1 X168.692 Y37.627 E16.30492 F4500
G0 X168.692 Y51.203 F7200
G1 X187.398 Y69.909 E17.36079 F4500
G0 X182.873 Y69.909 F7200
G1 X168.692 Y55.728 E18.16122 F4500
G0 X168.692 Y60.254 F7200
G1 X178.347 Y69.909 E18.70621 F4500
G0 X173.822 Y69.909 F7200
G1 X168.692 Y64.779 E18.99576 F4500
G0 X168.692 Y69.305 F7200
G1 X169.296 Y69.909 E19.02988 F4500
G0 X191.924 Y69.909 F7200
G1 X168.692 Y46.678 E20.34118 F4500
G0 X168.692 Y42.152 F7200
G1 X196.449 Y69.909 E21.90793 F4500
G0 X206.771 Y62.129 F7200
G1 X176.472 Y31.830 E23.61811 F4500
G0 X180.998 Y31.830 F7200
G1 X206.771 Y57.603 E25.07286 F4500
G0 X206.771 Y53.078 F7200
G1 X185.523 Y31.830 E26.27217 F4500
G0 X199.100 Y31.830 F7200
G1 X206.771 Y39.502 E26.70517 F4500
G0 X206.771 Y34.976 F7200
G1 X203.625 Y31.830 E26.88272 F4500
G0 X194.574 Y31.830 F7200
G1 X206.771 Y44.027 E27.57116 F4500
G0 X206.771 Y48.553 F7200
G1 X190.049 Y31.830 E28.51503 F4500
; ------------------------------------
; Layer #25
; ------------------------------------
G92 E0 ;reset extr
G0 F3000 E-1.00000
G0 F600 Z6.600
G0 X170.567 Y31.830 F7200
G0 F3000 E0.00000
;segType:Infill
G1 X168.692 Y33.705 E0.10583 F4500
G0 X169.032 Y31.470 F7200
;segType:Loop
G1 X207.131 Y31.470 E1.37302 F3600
G1 X207.131 Y70.269 E2.66348
G1 X168.332 Y70.269 E3.95395
G1 X168.332 Y31.470 E5.24441
G1 X168.832 Y31.470 E5.26104
G0 X168.832 Y31.470 F7200
G0 X168.332 Y31.601
G0 X168.147 Y31.650
;segType:Perimeter
G1 X167.992 Y31.070 E5.28100 F2159
G1 X207.531 Y31.070 E6.59607
G1 X207.531 Y70.669 E7.91315
G1 X167.932 Y70.669 E9.23022
G1 X167.932 Y31.130 E10.54530
G0 X167.992 Y31.070 F7200
G0 X169.592 Y31.070
G0 F3000 E9.54530
G0 X168.692 Y38.231 F7200
G0 F3000 E10.54530
;segType:Infill
G1 X175.092 Y31.830 E10.90657 F4500
G0 X179.618 Y31.830 F7200
G1 X168.692 Y42.756 E11.52328 F4500
G0 X168.692 Y56.333 F7200
G1 X193.194 Y31.830 E12.90630 F4500
G0 X197.720 Y31.830 F7200
G1 X168.692 Y60.858 E14.54476 F4500
G0 X173.217 Y69.909 F7200
G1 X206.771 Y36.356 E16.43866 F4500
G0 X206.771 Y40.881 F7200
G1 X177.743 Y69.909 E18.07712 F4500
G0 X182.268 Y69.909 F7200
G1 X206.771 Y45.407 E19.46015 F4500
G0 X206.771 Y54.458 F7200
G1 X191.319 Y69.909 E20.33230 F4500
G0 X200.370 Y69.909 F7200
G1 X206.771 Y63.509 E20.69357 F4500
G0 F3000 E19.69357
G0 X204.896 Y69.909 F7200
G0 F3000 E20.69357
G1 X206.771 Y68.034 E20.79941 F4500
G0 X206.771 Y58.983 F7200
G1 X195.845 Y69.909 E21.41613 F4500
G0 X186.794 Y69.909 F7200
G1 X206.771 Y49.932 E22.54371 F4500
G0 F3000 E21.54371
G0 X206.771 Y31.830 F7200
G0 F3000 E22.54371
G1 X168.692 Y69.909 E24.69305 F4500
G0 F3000 E23.69305
G0 X168.692 Y65.384 F7200
G0 F3000 E24.69305
G1 X202.245 Y31.830 E26.58694 F4500
G0 X188.669 Y31.830 F7200
G1 X168.692 Y51.807 E27.71453 F4500
G0 X168.692 Y47.282 F7200
G1 X184.143 Y31.830 E28.58667 F4500
; ------------------------------------
; Layer #26
; ------------------------------------
G92 E0 ;reset extr
G0 F3000 E-1.00000
G0 F600 Z6.800
G0 X205.500 Y69.909 F7200
G0 F3000 E0.00000
;segType:Infill
G1 X168.692 Y33.101 E2.07762 F4500
G0 X168.332 Y31.470 F7200
G0 X168.147 Y31.650
;segType:Perimeter
G1 X167.992 Y31.070 E2.09758 F2159
G1 X207.531 Y31.070 E3.41266
G1 X207.531 Y70.669 E4.72973
G1 X167.932 Y70.669 E6.04681
G1 X167.932 Y31.130 E7.36189
G0 X167.992 Y31.070 F7200
G0 X169.592 Y31.070
G0 X169.032 Y31.470
;segType:Loop
G1 X207.131 Y31.470 E8.62908 F3600
G1 X207.131 Y70.269 E9.91954
G1 X168.332 Y70.269 E11.21001
G1 X168.332 Y31.470 E12.50048
G1 X168.832 Y31.470 E12.51711
G0 F3000 E11.51711
G0 X171.947 Y31.830 F7200
G0 F3000 E12.51711
;segType:Infill
G1 X206.771 Y66.654 E14.48274 F4500
G0 X206.771 Y62.129 F7200
G1 X176.472 Y31.830 E16.19292 F4500
G0 X180.998 Y31.830 F7200
G1 X206.771 Y57.604 E17.64767 F4500
G0 X206.771 Y53.078 F7200
G1 X185.523 Y31.830 E18.84698 F4500
G0 X199.100 Y31.830 F7200
G1 X206.771 Y39.502 E19.27998 F4500
G0 X206.771 Y34.976 F7200
G1 X203.625 Y31.830 E19.45753 F4500
G0 F3000 E18.45753
G0 X206.771 Y44.027 F7200
G0 F3000 E19.45753
G1 X194.574 Y31.830 E20.14597 F4500
G0 X190.049 Y31.830 F7200
G1 X206.771 Y48.553 E21.08984 F4500
G0 X191.924 Y69.909 F7200
G1 X168.692 Y46.677 E22.40115 F4500
G0 X168.692 Y51.203 F7200
G1 X187.398 Y69.909 E23.45702 F4500
G0 X182.873 Y69.909 F7200
G1 X168.692 Y55.728 E24.25744 F4500
G0 X168.692 Y60.254 F7200
G1 X178.347 Y69.909 E24.80243 F4500
G0 X173.822 Y69.909 F7200
G1 X168.692 Y64.779 E25.09199 F4500
G0 X168.692 Y69.305 F7200
G1 X169.296 Y69.909 E25.12610 F4500
G0 F3000 E24.12610
G0 X168.692 Y42.152 F7200
G0 F3000 E25.12610
G1 X196.449 Y69.909 E26.69285 F4500
G0 X200.975 Y69.909 F7200
G1 X168.692 Y37.627 E28.51503 F4500
; ------------------------------------
; Layer #27
; ------------------------------------
G92 E0 ;reset extr
G0 F3000 E-1.00000
G0 F600 Z7.000
G0 X170.567 Y31.830 F7200
G0 F3000 E0.00000
;segType:Infill
G1 X168.692 Y33.705 E0.10584 F4500
G0 X169.032 Y31.470 F7200
;segType:Loop
